;FLAVOR:RepRap
;TIME:3356
;Filament used: 4.83357m
;Layer height: 0.2
;MINX:104.6
;MINY:92.6
;MINZ:0.3
;MAXX:195.4
;MAXY:207.4
;MAXZ:33.1
;Generated with Cura_SteamEngine 5.2.1
T0
M190 S100
M104 S260
M109 S260
M82 ;absolute extrusion mode
print_start
M83 ;relative extrusion mode
G10
;LAYER_COUNT:165
;LAYER:0
M107
G1 F600 Z0.7
G0 F12000 X138.39 Y95.213 Z0.7
;TYPE:SKIRT
G1 F600 Z0.3
G11
G1 F4800 X138.764 Y94.672 E0.03068
G1 X139.201 Y94.182 E0.03063
G1 X139.694 Y93.748 E0.03064
G1 X140.236 Y93.376 E0.03067
G1 X140.819 Y93.074 E0.03063
G1 X141.435 Y92.845 E0.03066
G1 X142.074 Y92.692 E0.03065
G1 X142.841 Y92.613 E0.03597
G1 X143.33 Y92.6 E0.02282
G1 X146.293 Y92.6 E0.13822
G1 X148.196 Y92.627 E0.08878
G1 X148.646 Y92.64 E0.021
G1 X151.309 Y92.644 E0.12422
G1 X153.213 Y92.601 E0.08884
G1 X156.37 Y92.601 E0.14727
G1 X157.07 Y92.611 E0.03266
G1 X157.725 Y92.66 E0.03064
G1 X158.37 Y92.788 E0.03067
G1 X158.993 Y92.994 E0.03061
G1 X159.588 Y93.274 E0.03067
G1 X160.144 Y93.624 E0.03065
G1 X160.653 Y94.039 E0.03064
G1 X161.108 Y94.513 E0.03065
G1 X161.502 Y95.039 E0.03066
G1 X161.83 Y95.608 E0.03064
G1 X162.177 Y96.499 E0.0446
G1 X162.452 Y97.444 E0.04591
G1 X163.255 Y100.06 E0.12765
G1 X164.121 Y102.618 E0.12598
G1 X165.042 Y105.104 E0.12367
G1 X166.058 Y107.629 E0.12696
G1 X167.103 Y110.027 E0.12202
G1 X167.494 Y110.86 E0.04292
G1 X167.908 Y111.775 E0.04685
G1 X168.142 Y112.389 E0.03065
G1 X168.3 Y113.027 E0.03066
G1 X168.388 Y113.879 E0.03995
G1 X168.461 Y117.082 E0.14945
G1 X168.593 Y119.731 E0.12372
G1 X168.803 Y122.397 E0.12475
G1 X169.086 Y125.041 E0.12404
G1 X169.451 Y127.726 E0.1264
G1 X169.881 Y130.339 E0.12353
G1 X170.393 Y132.978 E0.1254
G1 X170.969 Y135.567 E0.12372
G1 X171.63 Y138.172 E0.12537
G1 X172.36 Y140.743 E0.12467
G1 X173.171 Y143.322 E0.12611
G1 X174.04 Y145.836 E0.12408
G1 X174.982 Y148.33 E0.12436
G1 X176.006 Y150.825 E0.12581
G1 X177.079 Y153.241 E0.12331
G1 X178.243 Y155.675 E0.12585
G1 X179.469 Y158.063 E0.12522
G1 X180.757 Y160.406 E0.12472
G1 X182.1 Y162.693 E0.12372
G1 X183.538 Y164.99 E0.12641
G1 X185.007 Y167.197 E0.12367
G1 X186.545 Y169.37 E0.12419
G1 X188.173 Y171.539 E0.12651
G1 X189.827 Y173.615 E0.12382
G1 X191.563 Y175.675 E0.12566
G1 X193.354 Y177.678 E0.12534
G1 X193.985 Y178.372 E0.04375
G1 X194.397 Y178.884 E0.03066
G1 X194.743 Y179.443 E0.03067
G1 X195.019 Y180.039 E0.03064
G1 X195.221 Y180.664 E0.03064
G1 X195.345 Y181.309 E0.03064
G1 X195.387 Y181.839 E0.0248
G1 X195.4 Y182.33 E0.02291
G1 X195.4 Y201.331 E0.88635
G1 X195.391 Y202.058 E0.03392
G1 X195.343 Y202.713 E0.03064
G1 X195.215 Y203.358 E0.03067
G1 X195.011 Y203.982 E0.03062
G1 X194.732 Y204.577 E0.03066
G1 X194.383 Y205.133 E0.03062
G1 X193.969 Y205.643 E0.03064
G1 X193.496 Y206.099 E0.03065
G1 X192.971 Y206.494 E0.03065
G1 X192.402 Y206.823 E0.03066
G1 X191.797 Y207.08 E0.03066
G1 X191.166 Y207.262 E0.03063
G1 X190.517 Y207.365 E0.03065
G1 X190.142 Y207.389 E0.01753
G1 X189.67 Y207.4 E0.02202
G1 X110.637 Y207.4 E3.68668
G1 X109.939 Y207.391 E0.03256
G1 X109.284 Y207.342 E0.03064
G1 X108.64 Y207.215 E0.03062
G1 X108.016 Y207.01 E0.03064
G1 X107.421 Y206.73 E0.03067
G1 X106.865 Y206.381 E0.03062
G1 X106.355 Y205.967 E0.03064
G1 X105.899 Y205.494 E0.03065
G1 X105.504 Y204.968 E0.03068
G1 X105.176 Y204.399 E0.03064
G1 X104.919 Y203.795 E0.03062
G1 X104.738 Y203.163 E0.03067
G1 X104.634 Y202.514 E0.03066
G1 X104.611 Y202.137 E0.01762
G1 X104.6 Y201.658 E0.02235
G1 X104.601 Y182.63 E0.88761
G1 X104.611 Y181.928 E0.03275
G1 X104.66 Y181.273 E0.03064
G1 X104.788 Y180.629 E0.03063
G1 X104.994 Y180.005 E0.03065
G1 X105.274 Y179.41 E0.03067
G1 X105.624 Y178.855 E0.03061
G1 X106.011 Y178.377 E0.02869
G1 X108.033 Y176.148 E0.14038
G1 X109.764 Y174.122 E0.1243
G1 X111.462 Y172.019 E0.12608
G1 X113.07 Y169.905 E0.1239
G1 X114.644 Y167.713 E0.12588
G1 X116.136 Y165.506 E0.12427
G1 X117.568 Y163.25 E0.12465
G1 X118.948 Y160.934 E0.12576
G1 X120.234 Y158.63 E0.12308
G1 X121.489 Y156.227 E0.12646
G1 X122.641 Y153.858 E0.12288
G1 X123.752 Y151.4 E0.12583
G1 X124.791 Y148.917 E0.12556
G1 X125.755 Y146.414 E0.12512
G1 X126.645 Y143.892 E0.12476
G1 X127.459 Y141.362 E0.12398
G1 X128.198 Y138.82 E0.12349
G1 X128.883 Y136.192 E0.12669
G1 X129.485 Y133.579 E0.12508
G1 X130.01 Y130.961 E0.12455
G1 X130.458 Y128.348 E0.12367
G1 X130.839 Y125.676 E0.1259
G1 X131.137 Y123.057 E0.12296
G1 X131.369 Y120.335 E0.12743
G1 X131.518 Y117.712 E0.12255
G1 X131.597 Y114.916 E0.13048
G1 X131.611 Y113.926 E0.04619
G1 X131.66 Y113.271 E0.03064
G1 X131.788 Y112.627 E0.03063
G1 X132.123 Y111.706 E0.04572
G1 X132.337 Y111.25 E0.0235
G1 X133.476 Y108.728 E0.12909
G1 X134.498 Y106.283 E0.12362
G1 X135.466 Y103.771 E0.12558
G1 X136.355 Y101.257 E0.12439
G1 X137.182 Y98.685 E0.12603
G1 X137.725 Y96.818 E0.0907
G1 X137.852 Y96.409 E0.01998
G1 X138.085 Y95.794 E0.03068
G1 X138.39 Y95.213 E0.03061
G0 F12000 X138.757 Y95.379
G1 F4800 X139.123 Y94.864 E0.02947
G1 X139.551 Y94.398 E0.02951
G1 X140.034 Y93.991 E0.02946
G1 X140.565 Y93.648 E0.02949
G1 X141.135 Y93.374 E0.0295
G1 X141.735 Y93.175 E0.02949
G1 X142.355 Y93.053 E0.02948
G1 X142.853 Y93.012 E0.02331
G1 X143.33 Y93 E0.02226
G1 X146.293 Y93 E0.13822
G1 X148.185 Y93.027 E0.08827
G1 X148.635 Y93.04 E0.021
G1 X151.318 Y93.044 E0.12515
G1 X153.222 Y93.001 E0.08884
G1 X156.364 Y93.001 E0.14657
G1 X157.064 Y93.011 E0.03266
G1 X157.695 Y93.059 E0.02952
G1 X158.314 Y93.188 E0.0295
G1 X158.912 Y93.393 E0.02949
G1 X159.479 Y93.672 E0.02948
G1 X160.006 Y94.02 E0.02946
G1 X160.486 Y94.432 E0.02951
G1 X160.909 Y94.901 E0.02946
G1 X161.27 Y95.42 E0.02949
G1 X161.563 Y95.981 E0.02952
G1 X161.793 Y96.611 E0.03129
G1 X162.07 Y97.562 E0.04621
G1 X162.877 Y100.19 E0.12824
G1 X163.743 Y102.748 E0.12598
G1 X164.678 Y105.275 E0.12569
G1 X165.666 Y107.728 E0.12336
G1 X166.752 Y110.22 E0.1268
G1 X167.161 Y111.094 E0.04501
G1 X167.544 Y111.94 E0.04332
G1 X167.768 Y112.531 E0.02948
G1 X167.915 Y113.146 E0.0295
G1 X167.988 Y113.888 E0.03478
G1 X168.061 Y117.074 E0.14866
G1 X168.194 Y119.749 E0.12494
G1 X168.405 Y122.435 E0.12568
G1 X168.695 Y125.136 E0.12672
G1 X169.048 Y127.739 E0.12253
G1 X169.494 Y130.449 E0.12811
G1 X169.995 Y133.028 E0.12255
G1 X170.585 Y135.679 E0.12669
G1 X171.243 Y138.274 E0.12488
G1 X171.979 Y140.867 E0.12573
G1 X172.787 Y143.436 E0.12562
G1 X173.66 Y145.96 E0.12458
G1 X174.614 Y148.487 E0.126
G1 X175.634 Y150.973 E0.12535
G1 X176.724 Y153.427 E0.12526
G1 X177.884 Y155.852 E0.1254
G1 X179.113 Y158.245 E0.12549
G1 X180.4 Y160.588 E0.1247
G1 X181.759 Y162.901 E0.12514
G1 X183.199 Y165.201 E0.12658
G1 X184.692 Y167.443 E0.12565
G1 X186.214 Y169.595 E0.12295
G1 X187.856 Y171.782 E0.12757
G1 X189.524 Y173.877 E0.12492
G1 X191.243 Y175.916 E0.1244
G1 X193.058 Y177.947 E0.12706
G1 X193.689 Y178.641 E0.04375
G1 X194.084 Y179.135 E0.0295
G1 X194.414 Y179.675 E0.02952
G1 X194.672 Y180.251 E0.02944
G1 X194.856 Y180.856 E0.0295
G1 X194.962 Y181.479 E0.02948
G1 X194.988 Y181.851 E0.0174
G1 X195 Y182.33 E0.02235
G1 X195 Y201.326 E0.88611
G1 X194.991 Y202.053 E0.03392
G1 X194.943 Y202.683 E0.02947
G1 X194.816 Y203.302 E0.02948
G1 X194.612 Y203.901 E0.02952
G1 X194.334 Y204.469 E0.0295
G1 X193.987 Y204.997 E0.02947
G1 X193.575 Y205.477 E0.02951
G1 X193.107 Y205.901 E0.02946
G1 X192.589 Y206.263 E0.02948
G1 X192.029 Y206.557 E0.0295
G1 X191.437 Y206.777 E0.02946
G1 X190.821 Y206.922 E0.02952
G1 X190.131 Y206.989 E0.03234
G1 X189.67 Y207 E0.02151
G1 X110.643 Y207 E3.6864
G1 X109.945 Y206.991 E0.03256
G1 X109.314 Y206.942 E0.02952
G1 X108.695 Y206.815 E0.02948
G1 X108.097 Y206.611 E0.02947
G1 X107.529 Y206.333 E0.0295
G1 X107.001 Y205.985 E0.0295
G1 X106.521 Y205.574 E0.02948
G1 X106.097 Y205.105 E0.02949
G1 X105.735 Y204.587 E0.02948
G1 X105.442 Y204.027 E0.02948
G1 X105.222 Y203.434 E0.0295
G1 X105.078 Y202.819 E0.02946
G1 X105.011 Y202.126 E0.03248
G1 X105 Y201.658 E0.02184
G1 X105.001 Y182.636 E0.88733
G1 X105.011 Y181.934 E0.03275
G1 X105.059 Y181.304 E0.02947
G1 X105.188 Y180.685 E0.0295
G1 X105.393 Y180.087 E0.02949
G1 X105.672 Y179.519 E0.02952
G1 X106.02 Y178.992 E0.02946
G1 X106.307 Y178.645 E0.02101
G1 X108.349 Y176.394 E0.14177
G1 X110.063 Y174.388 E0.12308
G1 X111.775 Y172.267 E0.12715
G1 X113.398 Y170.134 E0.12503
G1 X114.967 Y167.948 E0.12552
G1 X116.469 Y165.727 E0.12507
G1 X117.922 Y163.438 E0.12647
G1 X119.282 Y161.155 E0.12396
G1 X120.595 Y158.804 E0.12561
G1 X121.832 Y156.436 E0.12462
G1 X123.021 Y153.99 E0.12687
G1 X124.109 Y151.582 E0.12326
G1 X125.162 Y149.066 E0.12723
G1 X126.134 Y146.544 E0.12608
G1 X127.013 Y144.054 E0.12318
G1 X127.851 Y141.449 E0.12765
G1 X128.584 Y138.927 E0.12251
G1 X129.274 Y136.278 E0.12769
G1 X129.872 Y133.683 E0.12422
G1 X130.404 Y131.029 E0.12626
G1 X130.855 Y128.401 E0.12438
G1 X131.233 Y125.746 E0.1251
G1 X131.538 Y123.064 E0.12591
G1 X131.766 Y120.393 E0.12505
G1 X131.918 Y117.71 E0.12536
G1 X131.995 Y114.996 E0.12665
G1 X132.01 Y113.932 E0.04964
G1 X132.059 Y113.301 E0.02952
G1 X132.187 Y112.682 E0.02949
G1 X132.485 Y111.876 E0.04009
G1 X132.702 Y111.414 E0.02381
G1 X133.838 Y108.898 E0.12877
G1 X134.877 Y106.414 E0.1256
G1 X135.834 Y103.931 E0.12413
G1 X136.737 Y101.375 E0.12645
G1 X137.561 Y98.813 E0.12554
G1 X138.107 Y96.936 E0.09119
G1 X138.234 Y96.527 E0.01998
G1 X138.459 Y95.937 E0.02946
G1 X138.757 Y95.379 E0.02951
G0 F12000 X139.124 Y95.548
G1 F4800 X139.481 Y95.058 E0.02828
G1 X139.9 Y94.62 E0.02827
G1 X140.373 Y94.24 E0.0283
G1 X140.892 Y93.926 E0.0283
G1 X141.447 Y93.683 E0.02826
G1 X142.03 Y93.515 E0.0283
G1 X142.866 Y93.412 E0.03929
G1 X143.33 Y93.4 E0.02165
G1 X146.359 Y93.4 E0.14129
G1 X148.173 Y93.427 E0.08463
G1 X148.622 Y93.44 E0.02095
G1 X151.326 Y93.444 E0.12613
G1 X153.231 Y93.401 E0.08889
G1 X156.359 Y93.4 E0.14591
G1 X157.059 Y93.41 E0.03266
G1 X157.663 Y93.459 E0.02827
G1 X158.256 Y93.587 E0.0283
G1 X158.827 Y93.791 E0.02828
G1 X159.365 Y94.069 E0.02825
G1 X159.863 Y94.415 E0.02829
G1 X160.311 Y94.824 E0.0283
G1 X160.701 Y95.288 E0.02827
G1 X161.027 Y95.799 E0.02827
G1 X161.283 Y96.349 E0.0283
G1 X161.409 Y96.723 E0.01841
G1 X161.7 Y97.72 E0.04845
G1 X162.491 Y100.299 E0.12583
G1 X163.365 Y102.878 E0.12702
G1 X164.308 Y105.427 E0.12678
G1 X165.299 Y107.889 E0.1238
G1 X166.381 Y110.371 E0.1263
G1 X166.797 Y111.259 E0.04574
G1 X167.18 Y112.105 E0.04332
G1 X167.393 Y112.672 E0.02825
G1 X167.529 Y113.263 E0.02829
G1 X167.588 Y113.897 E0.0297
G1 X167.661 Y117.103 E0.14959
G1 X167.794 Y119.764 E0.12428
G1 X168.007 Y122.472 E0.12671
G1 X168.295 Y125.165 E0.12634
G1 X168.656 Y127.821 E0.12503
G1 X169.095 Y130.485 E0.12594
G1 X169.613 Y133.155 E0.12687
G1 X170.185 Y135.728 E0.12295
G1 X170.866 Y138.409 E0.12903
G1 X171.599 Y140.991 E0.1252
G1 X172.403 Y143.55 E0.12512
G1 X173.291 Y146.116 E0.12666
G1 X174.233 Y148.613 E0.12449
G1 X175.27 Y151.138 E0.12733
G1 X176.355 Y153.583 E0.12478
G1 X177.532 Y156.043 E0.12721
G1 X178.749 Y158.414 E0.12432
G1 X180.066 Y160.811 E0.12758
G1 X181.418 Y163.111 E0.12445
G1 X182.86 Y165.414 E0.12675
G1 X184.349 Y167.65 E0.12531
G1 X185.901 Y169.843 E0.12532
G1 X187.539 Y172.026 E0.12731
G1 X189.207 Y174.12 E0.12488
G1 X190.953 Y176.191 E0.12636
G1 X192.763 Y178.216 E0.12669
G1 X193.394 Y178.91 E0.04375
G1 X193.771 Y179.385 E0.02829
G1 X194.083 Y179.905 E0.02829
G1 X194.323 Y180.461 E0.02825
G1 X194.489 Y181.045 E0.02832
G1 X194.588 Y181.864 E0.03848
G1 X194.6 Y182.33 E0.02174
G1 X194.6 Y201.321 E0.88588
G1 X194.591 Y202.048 E0.03392
G1 X194.543 Y202.652 E0.02826
G1 X194.417 Y203.245 E0.02828
G1 X194.213 Y203.816 E0.02828
G1 X193.937 Y204.356 E0.02829
G1 X193.591 Y204.854 E0.02829
G1 X193.183 Y205.303 E0.0283
G1 X192.72 Y205.694 E0.02827
G1 X192.209 Y206.021 E0.0283
G1 X191.66 Y206.278 E0.02828
G1 X191.082 Y206.46 E0.02827
G1 X190.485 Y206.564 E0.02827
G1 X190.12 Y206.589 E0.01707
G1 X189.67 Y206.6 E0.021
G1 X110.648 Y206.6 E3.68617
G1 X109.95 Y206.591 E0.03256
G1 X109.345 Y206.543 E0.02831
G1 X108.752 Y206.416 E0.02829
G1 X108.181 Y206.212 E0.02828
G1 X107.642 Y205.935 E0.02827
G1 X107.144 Y205.59 E0.02826
G1 X106.695 Y205.182 E0.0283
G1 X106.305 Y204.718 E0.02827
G1 X105.978 Y204.207 E0.0283
G1 X105.722 Y203.658 E0.02826
G1 X105.54 Y203.08 E0.02827
G1 X105.435 Y202.482 E0.02832
G1 X105.411 Y202.115 E0.01716
G1 X105.4 Y201.658 E0.02132
G1 X105.4 Y182.641 E0.88709
G1 X105.41 Y181.939 E0.03275
G1 X105.459 Y181.335 E0.02827
G1 X105.587 Y180.742 E0.0283
G1 X105.791 Y180.172 E0.02824
G1 X106.069 Y179.633 E0.02829
G1 X106.603 Y178.914 E0.04178
G1 X108.651 Y176.657 E0.14217
G1 X110.395 Y174.615 E0.12527
G1 X112.077 Y172.532 E0.12489
G1 X113.709 Y170.387 E0.12573
G1 X115.291 Y168.183 E0.12655
G1 X116.811 Y165.935 E0.12658
G1 X118.244 Y163.677 E0.12475
G1 X119.641 Y161.333 E0.12729
G1 X120.941 Y159.005 E0.12438
G1 X122.195 Y156.603 E0.1264
G1 X123.38 Y154.166 E0.12641
G1 X124.484 Y151.723 E0.12506
G1 X125.523 Y149.24 E0.12556
G1 X126.512 Y146.672 E0.12837
G1 X127.398 Y144.162 E0.12417
G1 X128.227 Y141.588 E0.12614
G1 X128.971 Y139.025 E0.12449
G1 X129.665 Y136.363 E0.12833
G1 X130.26 Y133.78 E0.12365
G1 X130.796 Y131.11 E0.12703
G1 X131.251 Y128.453 E0.12575
G1 X131.633 Y125.772 E0.12632
G1 X131.936 Y123.111 E0.12493
G1 X132.163 Y120.448 E0.12467
G1 X132.318 Y117.709 E0.12797
G1 X132.395 Y115.004 E0.12623
G1 X132.41 Y113.937 E0.04978
G1 X132.459 Y113.333 E0.02827
G1 X132.586 Y112.74 E0.02829
G1 X132.847 Y112.046 E0.03459
G1 X133.082 Y111.546 E0.02577
G1 X134.195 Y109.081 E0.12616
G1 X135.248 Y106.563 E0.12732
G1 X136.22 Y104.04 E0.12612
G1 X137.112 Y101.515 E0.12492
G1 X137.94 Y98.942 E0.12609
G1 X138.489 Y97.055 E0.09167
G1 X138.616 Y96.646 E0.01998
G1 X138.833 Y96.08 E0.02828
G1 X139.124 Y95.548 E0.02829
G0 F12000 X139.489 Y95.718
G1 F4800 X139.838 Y95.256 E0.02701
G1 X140.247 Y94.846 E0.02701
G1 X140.709 Y94.496 E0.02704
G1 X141.214 Y94.213 E0.027
G1 X141.754 Y94.002 E0.02704
G1 X142.317 Y93.867 E0.02701
G1 X142.878 Y93.812 E0.02629
G1 X143.33 Y93.8 E0.02109
G1 X146.353 Y93.8 E0.14101
G1 X148.099 Y93.825 E0.08145
G1 X148.61 Y93.84 E0.02385
G1 X151.335 Y93.844 E0.12711
G1 X153.24 Y93.801 E0.08889
G1 X156.353 Y93.8 E0.14521
G1 X157.053 Y93.81 E0.03266
G1 X157.63 Y93.859 E0.02701
G1 X158.195 Y93.986 E0.02701
G1 X158.738 Y94.19 E0.02706
G1 X159.247 Y94.466 E0.02701
G1 X159.713 Y94.81 E0.02702
G1 X160.128 Y95.215 E0.02705
G1 X160.482 Y95.672 E0.02697
G1 X160.771 Y96.175 E0.02706
G1 X161.025 Y96.835 E0.03299
G1 X161.305 Y97.797 E0.04674
G1 X162.116 Y100.44 E0.12896
G1 X162.983 Y102.998 E0.12599
G1 X163.933 Y105.567 E0.12777
G1 X164.938 Y108.062 E0.12547
G1 X166.01 Y110.523 E0.12522
G1 X166.408 Y111.37 E0.04365
G1 X166.815 Y112.27 E0.04608
G1 X167.017 Y112.813 E0.02703
G1 X167.142 Y113.378 E0.02699
G1 X167.188 Y113.906 E0.02472
G1 X167.261 Y117.096 E0.14884
G1 X167.396 Y119.814 E0.12694
G1 X167.609 Y122.513 E0.12629
G1 X167.895 Y125.19 E0.12559
G1 X168.264 Y127.903 E0.12772
G1 X168.7 Y130.555 E0.12537
G1 X169.214 Y133.204 E0.12587
G1 X169.805 Y135.855 E0.1267
G1 X170.477 Y138.503 E0.12744
G1 X171.209 Y141.082 E0.12506
G1 X172.026 Y143.685 E0.12726
G1 X172.914 Y146.25 E0.12662
G1 X173.861 Y148.757 E0.12501
G1 X174.911 Y151.316 E0.12903
G1 X175.993 Y153.752 E0.12434
G1 X177.166 Y156.205 E0.12684
G1 X178.408 Y158.625 E0.12689
G1 X179.705 Y160.985 E0.12562
G1 X181.077 Y163.32 E0.12633
G1 X182.531 Y165.643 E0.12784
G1 X184.021 Y167.881 E0.12542
G1 X185.582 Y170.086 E0.12602
G1 X187.209 Y172.253 E0.1264
G1 X188.904 Y174.382 E0.12694
G1 X190.633 Y176.433 E0.12513
G1 X192.491 Y178.512 E0.13007
G1 X193.098 Y179.18 E0.0421
G1 X193.457 Y179.634 E0.027
G1 X193.75 Y180.134 E0.02703
G1 X193.972 Y180.669 E0.02702
G1 X194.118 Y181.229 E0.027
G1 X194.188 Y181.876 E0.03036
G1 X194.2 Y182.33 E0.02119
G1 X194.2 Y201.316 E0.88565
G1 X194.191 Y202.043 E0.03392
G1 X194.144 Y202.62 E0.027
G1 X194.017 Y203.186 E0.02706
G1 X193.815 Y203.728 E0.02698
G1 X193.539 Y204.238 E0.02705
G1 X193.196 Y204.705 E0.02703
G1 X192.792 Y205.12 E0.02702
G1 X192.335 Y205.476 E0.02702
G1 X191.833 Y205.765 E0.02702
G1 X191.296 Y205.983 E0.02704
G1 X190.735 Y206.125 E0.02699
G1 X190.109 Y206.189 E0.02935
G1 X189.67 Y206.2 E0.02048
G1 X110.653 Y206.2 E3.68593
