;FLAVOR:RepRap
;TIME:5439
;Filament used: 9.84082m
;Layer height: 0.2
;MINX:103.1
;MINY:113.6
;MINZ:0.3
;MAXX:198.667
;MAXY:186.4
;MAXZ:51.5
;Generated with Cura_SteamEngine 5.2.1
T0
M190 S100
M104 S260
M109 S260
M82 ;absolute extrusion mode
print_start
M83 ;relative extrusion mode
G10
;LAYER_COUNT:255
;LAYER:0
M107
G1 F600 Z0.7
G0 F12000 X106.283 Y115.968 Z0.7
;TYPE:SKIRT
G1 F600 Z0.3
G11
G1 F4800 X106.706 Y115.617 E0.02564
G1 X107.196 Y115.255 E0.02842
G1 X107.566 Y115.019 E0.02047
G1 X107.93 Y114.803 E0.01974
G1 X108.461 Y114.527 E0.02792
G1 X108.879 Y114.344 E0.02129
G1 X109.274 Y114.187 E0.01983
G1 X109.844 Y113.996 E0.02804
G1 X110.056 Y113.938 E0.01025
G1 X110.673 Y113.794 E0.02955
G1 X111.263 Y113.694 E0.02791
G1 X111.714 Y113.65 E0.02114
G1 X112.411 Y113.61 E0.03257
G1 X113.006 Y113.6 E0.02776
G1 X113.793 Y113.6 E0.03671
G1 X114.779 Y113.618 E0.046
G1 X115.163 Y113.639 E0.01794
G1 X115.604 Y113.679 E0.02066
G1 X116.289 Y113.786 E0.03234
G1 X117.065 Y113.959 E0.03709
G1 X117.148 Y113.97 E0.00391
G1 X118.957 Y114.378 E0.0865
G1 X121.603 Y114.898 E0.12579
G1 X124.235 Y115.338 E0.12448
G1 X126.873 Y115.702 E0.12422
G1 X129.563 Y115.997 E0.12623
G1 X132.179 Y116.208 E0.12243
G1 X134.912 Y116.352 E0.12766
G1 X137.54 Y116.415 E0.12262
G1 X140.238 Y116.403 E0.12586
G1 X142.905 Y116.316 E0.12447
G1 X145.558 Y116.156 E0.12398
G1 X148.255 Y115.915 E0.12631
G1 X150.902 Y115.603 E0.12433
G1 X153.537 Y115.217 E0.12423
G1 X156.173 Y114.754 E0.12484
G1 X159.433 Y114.075 E0.15533
G1 X160.736 Y113.78 E0.06232
G1 X161.576 Y113.658 E0.03959
G1 X162.158 Y113.62 E0.02721
G1 X163.006 Y113.6 E0.03957
G1 X186.116 Y113.6 E1.07802
G1 X187.392 Y113.609 E0.05952
G1 X187.707 Y113.621 E0.0147
G1 X188.532 Y113.675 E0.03857
G1 X189.183 Y113.757 E0.03061
G1 X189.524 Y113.833 E0.0163
G1 X190.076 Y113.975 E0.02659
G1 X190.651 Y114.158 E0.02815
G1 X191.085 Y114.329 E0.02176
G1 X191.516 Y114.516 E0.02192
G1 X192.256 Y114.908 E0.03906
G1 X192.733 Y115.21 E0.02634
G1 X193.217 Y115.555 E0.02773
G1 X193.573 Y115.847 E0.02148
G1 X193.933 Y116.164 E0.02238
G1 X194.522 Y116.771 E0.03945
G1 X194.924 Y117.256 E0.02939
G1 X195.418 Y117.96 E0.04012
G1 X195.715 Y118.464 E0.02729
G1 X196.053 Y119.143 E0.03538
G1 X197.309 Y122.182 E0.15339
G1 X198.193 Y124.178 E0.10183
G1 X198.422 Y124.794 E0.03066
G1 X198.574 Y125.433 E0.03064
G1 X198.651 Y126.169 E0.03452
G1 X198.667 Y126.696 E0.02459
G1 X198.666 Y131.001 E0.20082
G1 X198.656 Y131.706 E0.03289
G1 X198.607 Y132.361 E0.03064
G1 X198.479 Y133.005 E0.03063
G1 X198.21 Y133.781 E0.03831
G1 X197.792 Y134.743 E0.04893
G1 X197.541 Y135.297 E0.02837
G1 X196.617 Y137.492 E0.11109
G1 X196.177 Y138.574 E0.05449
G1 X196.03 Y138.911 E0.01715
G1 X195.72 Y139.515 E0.03167
G1 X195.349 Y140.138 E0.03382
G1 X194.931 Y140.741 E0.03423
G1 X194.423 Y141.379 E0.03804
G1 X193.273 Y142.793 E0.08502
G1 X191.652 Y144.904 E0.12416
G1 X190.06 Y147.104 E0.12668
G1 X188.579 Y149.279 E0.12275
G1 X187.123 Y151.551 E0.12588
G1 X185.76 Y153.817 E0.12335
G1 X184.442 Y156.155 E0.1252
G1 X183.187 Y158.538 E0.12563
G1 X182.011 Y160.933 E0.12446
G1 X180.898 Y163.368 E0.12489
G1 X179.853 Y165.84 E0.12519
G1 X178.878 Y168.339 E0.12513
G1 X177.987 Y170.831 E0.12345
G1 X177.155 Y173.381 E0.12512
G1 X176.391 Y175.967 E0.12578
G1 X175.605 Y178.966 E0.14462
G1 X175.502 Y179.386 E0.02017
G1 X175.308 Y180.014 E0.03066
G1 X175.038 Y180.613 E0.03065
G1 X174.851 Y180.942 E0.01765
G1 X174.133 Y182.104 E0.06372
G1 X173.643 Y182.926 E0.04464
G1 X173.092 Y183.821 E0.04903
G1 X172.715 Y184.358 E0.03061
G1 X172.274 Y184.846 E0.03068
G1 X171.778 Y185.277 E0.03065
G1 X171.233 Y185.644 E0.03065
G1 X170.648 Y185.942 E0.03063
G1 X170.031 Y186.167 E0.03064
G1 X169.391 Y186.315 E0.03064
G1 X168.661 Y186.387 E0.03422
G1 X168.17 Y186.4 E0.02291
G1 X109.137 Y186.4 E2.75373
G1 X108.439 Y186.391 E0.03256
G1 X107.784 Y186.342 E0.03064
G1 X107.14 Y186.215 E0.03062
G1 X106.516 Y186.01 E0.03064
G1 X105.921 Y185.73 E0.03067
G1 X105.365 Y185.381 E0.03062
G1 X104.855 Y184.967 E0.03064
G1 X104.399 Y184.494 E0.03065
G1 X104.004 Y183.968 E0.03068
G1 X103.676 Y183.399 E0.03064
G1 X103.419 Y182.795 E0.03062
G1 X103.238 Y182.163 E0.03067
G1 X103.134 Y181.514 E0.03066
G1 X103.111 Y181.137 E0.01762
G1 X103.1 Y180.658 E0.02235
G1 X103.101 Y123.603 E2.66146
G1 X103.118 Y122.721 E0.04115
G1 X103.139 Y122.333 E0.01813
G1 X103.184 Y121.841 E0.02305
G1 X103.329 Y121.002 E0.03972
G1 X103.474 Y120.432 E0.02744
G1 X103.661 Y119.841 E0.02892
G1 X103.823 Y119.429 E0.02065
G1 X104.013 Y118.99 E0.02231
G1 X104.407 Y118.245 E0.03931
G1 X104.713 Y117.762 E0.02667
G1 X105.066 Y117.269 E0.02828
G1 X105.373 Y116.898 E0.02246
G1 X105.698 Y116.533 E0.0228
G1 X106.283 Y115.968 E0.03794
G0 F12000 X106.538 Y116.276
G1 F4800 X106.961 Y115.925 E0.02564
G1 X107.415 Y115.59 E0.02632
G1 X107.77 Y115.363 E0.01966
G1 X108.134 Y115.147 E0.01974
G1 X108.626 Y114.891 E0.02587
G1 X109.027 Y114.716 E0.02041
G1 X109.422 Y114.559 E0.01983
G1 X109.95 Y114.382 E0.02598
G1 X110.38 Y114.27 E0.02073
G1 X110.761 Y114.184 E0.01822
G1 X111.307 Y114.092 E0.02583
G1 X111.74 Y114.049 E0.0203
G1 X112.418 Y114.01 E0.03168
G1 X113.006 Y114 E0.02743
G1 X113.793 Y114 E0.03671
G1 X114.771 Y114.018 E0.04563
G1 X115.127 Y114.037 E0.01663
G1 X115.568 Y114.077 E0.02066
G1 X116.202 Y114.176 E0.02993
G1 X116.945 Y114.342 E0.03551
G1 X117.06 Y114.36 E0.00543
G1 X118.897 Y114.775 E0.08785
G1 X121.497 Y115.285 E0.12359
G1 X124.186 Y115.734 E0.12717
G1 X126.846 Y116.102 E0.12526
G1 X129.485 Y116.391 E0.12384
G1 X132.197 Y116.61 E0.12692
G1 X134.847 Y116.749 E0.12379
G1 X137.567 Y116.815 E0.12692
G1 X140.253 Y116.803 E0.1253
G1 X142.909 Y116.717 E0.12396
G1 X145.617 Y116.553 E0.12655
G1 X148.266 Y116.316 E0.12406
G1 X150.97 Y115.997 E0.12701
G1 X153.598 Y115.612 E0.1239
G1 X156.252 Y115.146 E0.1257
G1 X159.491 Y114.472 E0.15433
G1 X160.824 Y114.17 E0.06376
G1 X161.602 Y114.058 E0.03667
G1 X162.419 Y114.01 E0.03818
G1 X163.006 Y114 E0.02739
G1 X186.113 Y114 E1.07788
G1 X187.389 Y114.009 E0.05952
G1 X187.681 Y114.02 E0.01363
G1 X188.506 Y114.074 E0.03857
G1 X189.425 Y114.221 E0.04341
G1 X189.977 Y114.363 E0.02659
G1 X190.509 Y114.532 E0.02604
G1 X190.926 Y114.696 E0.0209
G1 X191.357 Y114.883 E0.02192
G1 X192.042 Y115.246 E0.03616
G1 X192.519 Y115.548 E0.02634
G1 X192.967 Y115.868 E0.02568
G1 X193.308 Y116.147 E0.02055
G1 X193.668 Y116.464 E0.02238
G1 X194.214 Y117.026 E0.03655
G1 X194.616 Y117.511 E0.02939
G1 X195.074 Y118.164 E0.03721
G1 X195.371 Y118.668 E0.02729
G1 X195.684 Y119.296 E0.03273
G1 X196.954 Y122.369 E0.15511
G1 X197.827 Y124.34 E0.10056
G1 X198.046 Y124.933 E0.02949
G1 X198.188 Y125.549 E0.02949
G1 X198.252 Y126.183 E0.02972
G1 X198.267 Y126.696 E0.02394
G1 X198.266 Y130.995 E0.20054
G1 X198.256 Y131.7 E0.03289
G1 X198.208 Y132.33 E0.02947
G1 X198.08 Y132.949 E0.02949
G1 X197.843 Y133.622 E0.03328
G1 X197.18 Y135.126 E0.07667
G1 X196.247 Y137.342 E0.11216
G1 X195.861 Y138.294 E0.04792
G1 X195.663 Y138.751 E0.02323
G1 X195.376 Y139.31 E0.02931
G1 X195.005 Y139.933 E0.03382
G1 X194.618 Y140.492 E0.03172
G1 X194.112 Y141.127 E0.03788
G1 X192.964 Y142.538 E0.08485
G1 X191.326 Y144.671 E0.12545
G1 X189.749 Y146.85 E0.12547
G1 X188.245 Y149.06 E0.1247
G1 X186.787 Y151.335 E0.12605
G1 X185.403 Y153.635 E0.12522
G1 X184.083 Y155.978 E0.12545
G1 X182.831 Y158.354 E0.12528
G1 X181.652 Y160.755 E0.12477
G1 X180.524 Y163.225 E0.12667
G1 X179.488 Y165.675 E0.12408
G1 X178.512 Y168.176 E0.12523
G1 X177.606 Y170.709 E0.12549
G1 X176.764 Y173.291 E0.12669
G1 X176.008 Y175.849 E0.12443
G1 X175.228 Y178.825 E0.14351
G1 X175.114 Y179.291 E0.02238
G1 X174.925 Y179.894 E0.02948
G1 X174.511 Y180.731 E0.04356
G1 X173.813 Y181.86 E0.06192
G1 X173.303 Y182.716 E0.04648
G1 X172.752 Y183.611 E0.04903
G1 X172.387 Y184.128 E0.02952
G1 X171.96 Y184.594 E0.02948
G1 X171.478 Y185.002 E0.02946
G1 X170.948 Y185.347 E0.0295
G1 X170.378 Y185.621 E0.0295
G1 X169.779 Y185.822 E0.02947
G1 X169.159 Y185.946 E0.02949
G1 X168.648 Y185.988 E0.02392
G1 X168.17 Y186 E0.0223
G1 X109.143 Y186 E2.75345
G1 X108.445 Y185.991 E0.03256
G1 X107.814 Y185.942 E0.02952
G1 X107.195 Y185.815 E0.02948
G1 X106.597 Y185.611 E0.02947
G1 X106.029 Y185.333 E0.0295
G1 X105.501 Y184.985 E0.0295
G1 X105.021 Y184.574 E0.02948
G1 X104.597 Y184.105 E0.02949
G1 X104.235 Y183.587 E0.02948
G1 X103.942 Y183.027 E0.02948
G1 X103.722 Y182.434 E0.0295
G1 X103.578 Y181.819 E0.02946
G1 X103.511 Y181.126 E0.03248
G1 X103.5 Y180.658 E0.02184
G1 X103.501 Y123.611 E2.66109
G1 X103.518 Y122.729 E0.04115
G1 X103.538 Y122.37 E0.01677
G1 X103.583 Y121.878 E0.02305
G1 X103.716 Y121.1 E0.03682
G1 X103.861 Y120.53 E0.02744
G1 X104.035 Y119.983 E0.02678
G1 X104.19 Y119.588 E0.01979
G1 X104.38 Y119.149 E0.02231
G1 X104.745 Y118.459 E0.03641
G1 X105.051 Y117.976 E0.02667
G1 X105.378 Y117.52 E0.02618
G1 X105.672 Y117.164 E0.02154
G1 X105.997 Y116.799 E0.0228
G1 X106.538 Y116.276 E0.0351
G0 F12000 X106.794 Y116.584
G1 F4800 X107.217 Y116.233 E0.02564
G1 X107.634 Y115.925 E0.02418
G1 X107.975 Y115.707 E0.01888
G1 X108.339 Y115.491 E0.01974
G1 X108.791 Y115.256 E0.02376
G1 X109.175 Y115.087 E0.01957
G1 X109.57 Y114.93 E0.01983
G1 X110.055 Y114.768 E0.02385
G1 X110.468 Y114.66 E0.01991
G1 X110.849 Y114.574 E0.01822
G1 X111.352 Y114.489 E0.0238
G1 X111.766 Y114.448 E0.01941
G1 X112.426 Y114.41 E0.03084
G1 X113.006 Y114.4 E0.02706
G1 X113.793 Y114.4 E0.03671
G1 X114.764 Y114.418 E0.0453
G1 X115.091 Y114.436 E0.01528
G1 X115.532 Y114.476 E0.02066
G1 X116.116 Y114.567 E0.02757
G1 X116.896 Y114.741 E0.03728
G1 X116.971 Y114.75 E0.00352
G1 X118.796 Y115.162 E0.08727
G1 X121.46 Y115.685 E0.12664
G1 X124.097 Y116.126 E0.12472
G1 X126.785 Y116.497 E0.12658
G1 X129.481 Y116.792 E0.12651
G1 X132.145 Y117.008 E0.12468
G1 X134.851 Y117.15 E0.1264
G1 X137.56 Y117.215 E0.1264
G1 X140.232 Y117.203 E0.12464
G1 X142.945 Y117.115 E0.12662
G1 X145.64 Y116.952 E0.12594
G1 X148.351 Y116.709 E0.12697
G1 X151.004 Y116.397 E0.12461
G1 X153.654 Y116.008 E0.12494
G1 X156.342 Y115.537 E0.1273
G1 X159.55 Y114.868 E0.15286
G1 X160.913 Y114.56 E0.06518
G1 X161.628 Y114.457 E0.0337
G1 X162.427 Y114.41 E0.03734
G1 X163.006 Y114.4 E0.02701
G1 X186.11 Y114.4 E1.07774
G1 X187.386 Y114.409 E0.05952
G1 X187.654 Y114.419 E0.01251
G1 X188.479 Y114.473 E0.03857
G1 X189.325 Y114.608 E0.03996
G1 X189.877 Y114.75 E0.02659
G1 X190.367 Y114.906 E0.02399
G1 X190.767 Y115.063 E0.02004
G1 X191.198 Y115.25 E0.02192
G1 X191.828 Y115.583 E0.03324
G1 X192.305 Y115.885 E0.02634
G1 X192.718 Y116.18 E0.02368
G1 X193.044 Y116.448 E0.01969
G1 X193.404 Y116.765 E0.02238
G1 X193.906 Y117.281 E0.03358
G1 X194.308 Y117.766 E0.02939
G1 X194.729 Y118.367 E0.03423
G1 X195.026 Y118.871 E0.02729
G1 X195.314 Y119.449 E0.03012
G1 X196.584 Y122.521 E0.15506
G1 X197.461 Y124.502 E0.10106
G1 X197.67 Y125.071 E0.02828
G1 X197.801 Y125.663 E0.02828
G1 X197.852 Y126.198 E0.02507
G1 X197.867 Y126.696 E0.02324
G1 X197.867 Y130.989 E0.20026
G1 X197.857 Y131.694 E0.03289
G1 X197.808 Y132.299 E0.02831
G1 X197.68 Y132.891 E0.02825
G1 X197.476 Y133.462 E0.02828
G1 X197.029 Y134.49 E0.05229
G1 X196.805 Y134.985 E0.02534
G1 X195.853 Y137.247 E0.11448
G1 X195.49 Y138.143 E0.0451
G1 X195.296 Y138.591 E0.02277
G1 X195.032 Y139.106 E0.027
G1 X194.661 Y139.729 E0.03382
G1 X194.306 Y140.243 E0.02914
G1 X192.653 Y142.287 E0.12262
G1 X191.014 Y144.422 E0.12555
G1 X189.411 Y146.637 E0.12754
G1 X187.91 Y148.84 E0.12435
G1 X186.451 Y151.117 E0.12615
G1 X185.055 Y153.439 E0.12638
G1 X183.738 Y155.774 E0.12505
G1 X182.476 Y158.17 E0.12632
G1 X181.28 Y160.605 E0.12655
G1 X180.168 Y163.039 E0.12483
G1 X179.118 Y165.522 E0.12576
G1 X178.127 Y168.063 E0.12723
G1 X177.224 Y170.587 E0.12505
G1 X176.396 Y173.126 E0.12458
G1 X175.627 Y175.732 E0.12675
G1 X174.821 Y178.804 E0.14815
G1 X174.725 Y179.196 E0.01883
G1 X174.543 Y179.774 E0.02827
G1 X174.17 Y180.521 E0.03895
G1 X173.492 Y181.618 E0.06016
G1 X172.962 Y182.507 E0.04828
G1 X172.411 Y183.402 E0.04903
G1 X172.06 Y183.896 E0.02827
G1 X171.647 Y184.34 E0.02829
G1 X171.179 Y184.725 E0.02827
G1 X170.664 Y185.046 E0.02831
G1 X170.112 Y185.296 E0.02827
G1 X169.532 Y185.471 E0.02826
G1 X168.636 Y185.588 E0.04215
G1 X168.17 Y185.6 E0.02174
G1 X109.148 Y185.6 E2.75322
G1 X108.45 Y185.591 E0.03256
G1 X107.845 Y185.543 E0.02831
G1 X107.252 Y185.416 E0.02829
G1 X106.681 Y185.212 E0.02828
G1 X106.142 Y184.935 E0.02827
G1 X105.644 Y184.59 E0.02826
G1 X105.195 Y184.182 E0.0283
G1 X104.805 Y183.718 E0.02827
G1 X104.478 Y183.207 E0.0283
G1 X104.222 Y182.658 E0.02826
G1 X104.04 Y182.08 E0.02827
G1 X103.935 Y181.482 E0.02832
G1 X103.911 Y181.115 E0.01716
G1 X103.9 Y180.658 E0.02132
G1 X103.901 Y123.618 E2.66076
G1 X103.918 Y122.736 E0.04115
G1 X103.936 Y122.406 E0.01542
G1 X103.981 Y121.914 E0.02305
G1 X104.104 Y121.199 E0.03384
G1 X104.249 Y120.629 E0.02744
G1 X104.408 Y120.125 E0.02465
G1 X104.557 Y119.747 E0.01895
G1 X104.747 Y119.308 E0.02231
G1 X105.083 Y118.673 E0.03351
G1 X105.389 Y118.19 E0.02667
G1 X105.689 Y117.77 E0.02408
G1 X105.971 Y117.43 E0.02061
G1 X106.296 Y117.065 E0.0228
G1 X106.794 Y116.584 E0.0323
G0 F12000 X107.049 Y116.892
G1 F4800 X107.472 Y116.541 E0.02564
G1 X107.853 Y116.259 E0.02211
G1 X108.179 Y116.051 E0.01804
G1 X108.543 Y115.835 E0.01974
G1 X108.956 Y115.62 E0.02172
G1 X109.323 Y115.459 E0.01869
G1 X109.718 Y115.302 E0.01983
G1 X110.161 Y115.154 E0.02179
G1 X110.556 Y115.05 E0.01905
G1 X110.937 Y114.964 E0.01822
G1 X111.396 Y114.887 E0.02171
G1 X111.792 Y114.847 E0.01857
G1 X112.233 Y114.818 E0.02062
G1 X113.006 Y114.8 E0.03607
G1 X113.793 Y114.8 E0.03671
G1 X114.756 Y114.818 E0.04493
G1 X115.054 Y114.834 E0.01392
G1 X115.495 Y114.874 E0.02066
G1 X116.029 Y114.957 E0.02521
G1 X116.775 Y115.123 E0.03565
G1 X116.883 Y115.14 E0.0051
G1 X118.736 Y115.559 E0.08862
G1 X121.354 Y116.073 E0.12445
G1 X124.082 Y116.528 E0.12901
G1 X126.723 Y116.893 E0.12437
G1 X129.438 Y117.19 E0.1274
G1 X132.128 Y117.408 E0.12589
G1 X134.821 Y117.549 E0.12579
G1 X137.552 Y117.615 E0.12743
G1 X140.247 Y117.603 E0.12572
G1 X142.982 Y117.514 E0.12765
G1 X145.667 Y117.352 E0.12548
G1 X148.358 Y117.111 E0.12603
G1 X151.041 Y116.795 E0.12602
G1 X153.744 Y116.399 E0.12743
G1 X156.403 Y115.932 E0.12593
G1 X159.711 Y115.243 E0.15762
G1 X161.001 Y114.951 E0.0617
G1 X161.654 Y114.856 E0.03078
G1 X162.236 Y114.818 E0.02721
G1 X163.006 Y114.8 E0.03593
G1 X186.108 Y114.8 E1.07765
G1 X187.384 Y114.809 E0.05952
G1 X187.628 Y114.818 E0.01139
G1 X188.453 Y114.872 E0.03857
G1 X189.225 Y114.995 E0.03647
G1 X189.777 Y115.137 E0.02659
G1 X190.225 Y115.28 E0.02194
G1 X190.608 Y115.43 E0.01919
G1 X191.039 Y115.617 E0.02192
G1 X191.614 Y115.921 E0.03034
G1 X192.091 Y116.223 E0.02634
G1 X192.468 Y116.492 E0.0216
G1 X192.78 Y116.748 E0.01883
G1 X193.14 Y117.065 E0.02238
G1 X193.598 Y117.537 E0.03068
G1 X194 Y118.022 E0.02939
G1 X194.384 Y118.57 E0.03121
G1 X194.681 Y119.074 E0.02729
G1 X194.944 Y119.601 E0.02747
G1 X196.22 Y122.688 E0.15582
G1 X197.095 Y124.664 E0.10081
G1 X197.293 Y125.208 E0.027
G1 X197.413 Y125.775 E0.02703
G1 X197.452 Y126.212 E0.02047
G1 X197.467 Y126.696 E0.02259
G1 X197.467 Y130.984 E0.20002
G1 X197.457 Y131.689 E0.03289
G1 X197.408 Y132.266 E0.02701
G1 X197.281 Y132.831 E0.02701
G1 X197.109 Y133.303 E0.02343
G1 X196.664 Y134.325 E0.052
G1 X196.442 Y134.814 E0.02505
G1 X195.484 Y137.092 E0.11528
G1 X195.077 Y138.094 E0.05045
G1 X194.93 Y138.431 E0.01715
G1 X194.689 Y138.901 E0.02464
G1 X194.318 Y139.524 E0.03382
G1 X193.993 Y139.993 E0.02662
G1 X193.492 Y140.622 E0.03751
G1 X192.323 Y142.059 E0.08641
G1 X190.675 Y144.206 E0.12625
G1 X189.116 Y146.36 E0.12403
G1 X187.559 Y148.646 E0.12902
G1 X186.114 Y150.902 E0.12497
G1 X184.713 Y153.231 E0.12678
G1 X183.379 Y155.597 E0.1267
G1 X182.128 Y157.972 E0.12522
G1 X180.915 Y160.441 E0.12832
G1 X179.8 Y162.883 E0.12523
G1 X178.748 Y165.37 E0.12596
G1 X177.766 Y167.889 E0.12612
G1 X176.84 Y170.477 E0.12822
G1 X176.008 Y173.027 E0.12512
G1 X175.242 Y175.622 E0.12621
G1 X174.443 Y178.667 E0.14685
G1 X174.337 Y179.101 E0.02084
G1 X174.161 Y179.653 E0.02703
G1 X173.83 Y180.311 E0.03436
G1 X173.112 Y181.473 E0.06372
