;FLAVOR:RepRap
;TIME:2605
;Filament used: 6.7213m
;Layer height: 0.2
;MINX:119.6
;MINY:98.1
;MINZ:0.3
;MAXX:180.4
;MAXY:170.4
;MAXZ:22.3
;Generated with Cura_SteamEngine 5.2.1
T0
M190 S100
M104 S260
M109 S260
M82 ;absolute extrusion mode
print_start
M83 ;relative extrusion mode
G10
;LAYER_COUNT:109
;LAYER:0
M107
G1 F600 Z0.7
G0 F12000 X121.04 Y109.847 Z0.7
;TYPE:SKIRT
G1 F600 Z0.3
G11
G1 F4800 X121.514 Y109.392 E0.03065
G1 X122.04 Y108.998 E0.03066
G1 X122.609 Y108.671 E0.03061
G1 X123.062 Y108.472 E0.02308
G1 X124.643 Y107.868 E0.07895
G1 X127.152 Y106.858 E0.12617
G1 X129.599 Y105.791 E0.12453
G1 X132.009 Y104.658 E0.12422
G1 X134.402 Y103.449 E0.12506
G1 X136.776 Y102.165 E0.1259
G1 X139.046 Y100.854 E0.12228
G1 X141.421 Y99.389 E0.13017
G1 X142.112 Y98.951 E0.03816
G1 X142.687 Y98.633 E0.03065
G1 X143.297 Y98.388 E0.03066
G1 X143.931 Y98.219 E0.03061
G1 X144.822 Y98.114 E0.04185
G1 X145.33 Y98.1 E0.02371
G1 X174.293 Y98.1 E1.35105
G1 X175.068 Y98.111 E0.03616
G1 X175.723 Y98.16 E0.03064
G1 X176.368 Y98.288 E0.03067
G1 X176.992 Y98.494 E0.03065
G1 X177.586 Y98.774 E0.03063
G1 X178.142 Y99.124 E0.03065
G1 X178.651 Y99.54 E0.03066
G1 X179.106 Y100.013 E0.03062
G1 X179.5 Y100.539 E0.03066
G1 X179.828 Y101.109 E0.03068
G1 X180.083 Y101.714 E0.03063
G1 X180.264 Y102.345 E0.03062
G1 X180.366 Y102.994 E0.03065
G1 X180.389 Y103.358 E0.01701
G1 X180.4 Y103.83 E0.02202
G1 X180.4 Y164.331 E2.82221
G1 X180.391 Y165.058 E0.03392
G1 X180.343 Y165.713 E0.03064
G1 X180.215 Y166.358 E0.03067
G1 X180.011 Y166.982 E0.03062
G1 X179.732 Y167.577 E0.03066
G1 X179.383 Y168.133 E0.03062
G1 X178.969 Y168.643 E0.03064
G1 X178.496 Y169.099 E0.03065
G1 X177.971 Y169.494 E0.03065
G1 X177.402 Y169.823 E0.03066
G1 X176.797 Y170.08 E0.03066
G1 X176.166 Y170.262 E0.03063
G1 X175.517 Y170.365 E0.03065
G1 X175.142 Y170.389 E0.01753
G1 X174.67 Y170.4 E0.02202
G1 X145.63 Y170.399 E1.35464
G1 X144.931 Y170.389 E0.03261
G1 X144.276 Y170.34 E0.03064
G1 X143.631 Y170.212 E0.03067
G1 X143.007 Y170.006 E0.03065
G1 X142.205 Y169.605 E0.04183
G1 X141.758 Y169.333 E0.02441
G1 X140.166 Y168.321 E0.088
G1 X137.862 Y166.948 E0.12511
G1 X135.535 Y165.648 E0.12434
G1 X133.157 Y164.405 E0.12517
G1 X130.764 Y163.24 E0.12415
G1 X128.315 Y162.133 E0.12537
G1 X125.861 Y161.106 E0.12409
G1 X123.069 Y160.031 E0.13956
G1 X122.471 Y159.758 E0.03066
G1 X121.911 Y159.414 E0.03066
G1 X121.397 Y159.005 E0.03064
G1 X120.936 Y158.537 E0.03064
G1 X120.536 Y158.016 E0.03064
G1 X120.202 Y157.451 E0.03062
G1 X119.939 Y156.849 E0.03064
G1 X119.751 Y156.219 E0.03067
G1 X119.64 Y155.572 E0.03062
G1 X119.611 Y155.142 E0.0201
G1 X119.6 Y154.67 E0.02202
G1 X119.601 Y114.12 E1.89155
G1 X119.611 Y113.43 E0.03219
G1 X119.66 Y112.775 E0.03064
G1 X119.789 Y112.13 E0.03068
G1 X119.995 Y111.507 E0.03061
G1 X120.275 Y110.912 E0.03067
G1 X120.625 Y110.357 E0.03061
G1 X121.04 Y109.847 E0.03067
G0 F12000 X121.433 Y110.015
G1 F4800 X121.902 Y109.591 E0.02949
G1 X122.421 Y109.23 E0.02949
G1 X123.206 Y108.845 E0.04079
G1 X124.795 Y108.238 E0.07935
G1 X127.312 Y107.224 E0.12658
G1 X129.764 Y106.156 E0.12476
G1 X132.182 Y105.019 E0.12464
G1 X134.58 Y103.808 E0.12531
G1 X136.96 Y102.52 E0.12624
G1 X139.276 Y101.182 E0.12477
G1 X141.631 Y99.73 E0.12906
G1 X142.326 Y99.289 E0.0384
G1 X142.88 Y98.984 E0.0295
G1 X143.468 Y98.753 E0.02947
G1 X144.081 Y98.597 E0.02951
G1 X144.835 Y98.514 E0.03538
G1 X145.33 Y98.5 E0.0231
G1 X174.293 Y98.5 E1.35105
G1 X175.063 Y98.511 E0.03592
G1 X175.693 Y98.56 E0.02948
G1 X176.312 Y98.688 E0.02949
G1 X176.91 Y98.893 E0.02949
G1 X177.477 Y99.172 E0.02948
G1 X178.005 Y99.52 E0.0295
G1 X178.484 Y99.932 E0.02947
G1 X178.907 Y100.402 E0.0295
G1 X179.268 Y100.921 E0.02949
G1 X179.561 Y101.481 E0.02948
G1 X179.78 Y102.074 E0.02949
G1 X179.923 Y102.69 E0.0295
G1 X179.989 Y103.369 E0.03182
G1 X180 Y103.83 E0.02151
G1 X180 Y164.326 E2.82198
G1 X179.991 Y165.053 E0.03392
G1 X179.943 Y165.683 E0.02947
G1 X179.816 Y166.302 E0.02948
G1 X179.612 Y166.901 E0.02952
G1 X179.334 Y167.469 E0.0295
G1 X178.987 Y167.997 E0.02947
G1 X178.575 Y168.477 E0.02951
G1 X178.107 Y168.901 E0.02946
G1 X177.589 Y169.263 E0.02948
G1 X177.029 Y169.557 E0.0295
G1 X176.437 Y169.777 E0.02946
G1 X175.821 Y169.922 E0.02952
G1 X175.131 Y169.989 E0.03234
G1 X174.67 Y170 E0.02151
G1 X145.635 Y169.999 E1.35441
G1 X144.936 Y169.989 E0.03261
G1 X144.306 Y169.941 E0.02947
G1 X143.687 Y169.812 E0.0295
G1 X143.089 Y169.607 E0.02949
G1 X142.412 Y169.264 E0.0354
G1 X142.058 Y169.049 E0.01932
G1 X140.38 Y167.983 E0.09273
G1 X138.082 Y166.613 E0.1248
G1 X135.709 Y165.287 E0.1268
G1 X133.366 Y164.062 E0.12333
G1 X130.897 Y162.86 E0.1281
G1 X128.485 Y161.771 E0.12345
G1 X125.993 Y160.727 E0.12603
G1 X123.213 Y159.657 E0.13895
G1 X122.638 Y159.393 E0.02951
G1 X122.102 Y159.059 E0.02946
G1 X121.612 Y158.66 E0.02948
G1 X121.176 Y158.202 E0.0295
G1 X120.802 Y157.692 E0.0295
G1 X120.494 Y157.14 E0.02949
G1 X120.259 Y156.553 E0.02949
G1 X120.1 Y155.941 E0.0295
G1 X120.011 Y155.131 E0.03801
G1 X120 Y154.67 E0.02151
G1 X120.001 Y114.126 E1.89127
G1 X120.011 Y113.436 E0.03219
G1 X120.06 Y112.805 E0.02952
G1 X120.188 Y112.186 E0.02949
G1 X120.393 Y111.588 E0.02949
G1 X120.672 Y111.021 E0.02948
G1 X121.021 Y110.494 E0.02949
G1 X121.433 Y110.015 E0.02947
G0 F12000 X121.825 Y110.189
G1 F4800 X122.289 Y109.799 E0.02827
G1 X122.8 Y109.474 E0.02825
G1 X123.35 Y109.218 E0.0283
G1 X124.935 Y108.613 E0.07914
G1 X127.455 Y107.598 E0.12673
G1 X129.944 Y106.513 E0.12666
G1 X132.353 Y105.381 E0.12416
G1 X134.771 Y104.159 E0.12638
G1 X137.144 Y102.876 E0.12584
G1 X139.48 Y101.526 E0.12586
G1 X141.801 Y100.095 E0.12719
G1 X142.54 Y99.626 E0.04083
G1 X143.073 Y99.336 E0.0283
G1 X143.639 Y99.118 E0.02829
G1 X144.228 Y98.977 E0.02825
G1 X144.849 Y98.914 E0.02912
G1 X145.33 Y98.9 E0.02245
G1 X174.359 Y98.9 E1.35413
G1 X175.057 Y98.91 E0.03256
G1 X175.661 Y98.959 E0.02827
G1 X176.254 Y99.087 E0.0283
G1 X176.825 Y99.291 E0.02828
G1 X177.364 Y99.569 E0.02829
G1 X177.861 Y99.915 E0.02825
G1 X178.309 Y100.324 E0.0283
G1 X178.699 Y100.788 E0.02827
G1 X179.025 Y101.3 E0.02831
G1 X179.281 Y101.849 E0.02826
G1 X179.462 Y102.428 E0.0283
G1 X179.565 Y103.025 E0.02826
G1 X179.589 Y103.381 E0.01664
G1 X179.6 Y103.83 E0.02095
G1 X179.6 Y164.321 E2.82174
G1 X179.591 Y165.048 E0.03392
G1 X179.543 Y165.652 E0.02826
G1 X179.417 Y166.245 E0.02828
G1 X179.213 Y166.816 E0.02828
G1 X178.937 Y167.356 E0.02829
G1 X178.591 Y167.854 E0.02829
G1 X178.183 Y168.303 E0.0283
G1 X177.72 Y168.694 E0.02827
G1 X177.209 Y169.021 E0.0283
G1 X176.66 Y169.278 E0.02828
G1 X176.082 Y169.46 E0.02827
G1 X175.485 Y169.564 E0.02827
G1 X175.12 Y169.589 E0.01707
G1 X174.67 Y169.6 E0.021
G1 X145.641 Y169.6 E1.35413
G1 X144.942 Y169.59 E0.03261
G1 X144.338 Y169.541 E0.02827
G1 X143.745 Y169.413 E0.0283
G1 X143.174 Y169.209 E0.02828
G1 X142.62 Y168.922 E0.0291
G1 X142.187 Y168.658 E0.02366
G1 X140.577 Y167.636 E0.08896
G1 X138.276 Y166.263 E0.12499
G1 X135.896 Y164.933 E0.12718
G1 X133.52 Y163.692 E0.12504
G1 X131.101 Y162.514 E0.12551
G1 X128.639 Y161.401 E0.12604
G1 X126.154 Y160.361 E0.12566
G1 X123.356 Y159.284 E0.13985
G1 X122.806 Y159.029 E0.02828
G1 X122.294 Y158.705 E0.02826
G1 X121.829 Y158.315 E0.02831
G1 X121.42 Y157.868 E0.02826
G1 X121.073 Y157.371 E0.02828
G1 X120.794 Y156.833 E0.02827
G1 X120.588 Y156.262 E0.02832
G1 X120.459 Y155.67 E0.02826
G1 X120.411 Y155.12 E0.02575
G1 X120.4 Y154.67 E0.021
G1 X120.4 Y114.131 E1.89104
G1 X120.41 Y113.441 E0.03219
G1 X120.459 Y112.837 E0.02827
G1 X120.587 Y112.244 E0.0283
G1 X120.792 Y111.674 E0.02826
G1 X121.069 Y111.135 E0.02827
G1 X121.416 Y110.637 E0.02831
G1 X121.825 Y110.189 E0.0283
G0 F12000 X122.215 Y110.373
G1 F4800 X122.673 Y110.018 E0.02703
G1 X123.176 Y109.73 E0.02704
G1 X123.495 Y109.591 E0.01623
G1 X124.602 Y109.163 E0.05536
G1 X125.088 Y108.983 E0.02418
G1 X127.603 Y107.97 E0.12648
G1 X130.108 Y106.877 E0.12749
G1 X132.524 Y105.742 E0.12452
G1 X134.978 Y104.503 E0.12824
G1 X137.356 Y103.216 E0.12613
G1 X139.669 Y101.879 E0.12462
G1 X142.021 Y100.43 E0.12886
G1 X142.755 Y99.964 E0.04056
G1 X143.264 Y99.688 E0.02701
G1 X143.807 Y99.485 E0.02704
G1 X144.372 Y99.359 E0.027
G1 X144.862 Y99.313 E0.02296
G1 X145.33 Y99.3 E0.02184
G1 X174.353 Y99.3 E1.35385
G1 X175.051 Y99.31 E0.03256
G1 X175.628 Y99.359 E0.02701
G1 X176.194 Y99.486 E0.02706
G1 X176.736 Y99.69 E0.02701
G1 X177.245 Y99.966 E0.02701
G1 X177.711 Y100.31 E0.02702
G1 X178.126 Y100.715 E0.02705
G1 X178.481 Y101.173 E0.02703
G1 X178.769 Y101.675 E0.027
G1 X178.986 Y102.212 E0.02702
G1 X179.126 Y102.774 E0.02702
G1 X179.189 Y103.392 E0.02898
G1 X179.2 Y103.83 E0.02044
G1 X179.2 Y164.316 E2.82151
G1 X179.191 Y165.043 E0.03392
G1 X179.144 Y165.62 E0.027
G1 X179.017 Y166.186 E0.02706
G1 X178.815 Y166.728 E0.02698
G1 X178.539 Y167.238 E0.02705
G1 X178.196 Y167.705 E0.02703
G1 X177.792 Y168.12 E0.02702
G1 X177.335 Y168.476 E0.02702
G1 X176.833 Y168.765 E0.02702
G1 X176.296 Y168.983 E0.02704
G1 X175.735 Y169.125 E0.02699
G1 X175.109 Y169.189 E0.02935
G1 X174.67 Y169.2 E0.02048
G1 X145.647 Y169.2 E1.35385
G1 X144.948 Y169.19 E0.03261
G1 X144.371 Y169.141 E0.02701
G1 X143.805 Y169.014 E0.02706
G1 X143.263 Y168.81 E0.02701
G1 X142.828 Y168.58 E0.02295
G1 X142.402 Y168.32 E0.02328
G1 X140.792 Y167.297 E0.08898
G1 X138.47 Y165.913 E0.1261
G1 X136.097 Y164.587 E0.1268
G1 X133.701 Y163.335 E0.12611
G1 X131.275 Y162.154 E0.12586
G1 X128.796 Y161.033 E0.12691
G1 X126.316 Y159.995 E0.12541
G1 X123.5 Y158.911 E0.14076
G1 X122.975 Y158.666 E0.02703
G1 X122.489 Y158.351 E0.02702
G1 X122.051 Y157.972 E0.02702
G1 X121.668 Y157.537 E0.02704
G1 X121.35 Y157.053 E0.02701
G1 X121.101 Y156.53 E0.02702
G1 X120.926 Y155.977 E0.02706
G1 X120.83 Y155.406 E0.02701
G1 X120.811 Y155.109 E0.01388
G1 X120.8 Y154.67 E0.02048
G1 X120.8 Y114.137 E1.89076
G1 X120.81 Y113.447 E0.03219
G1 X120.859 Y112.87 E0.02701
G1 X120.986 Y112.305 E0.02701
G1 X121.19 Y111.762 E0.02706
G1 X121.466 Y111.253 E0.02701
G1 X121.81 Y110.787 E0.02702
G1 X122.215 Y110.373 E0.02702
G10
G1 F600 Z0.7
G0 F12000 X154.968 Y108.476 Z0.7
G1 F600 Z0.3
G11
G1 F4800 X154.988 Y108.461 E0.00117
G1 X155.012 Y108.462 E0.00112
G1 X155.036 Y108.482 E0.00146
G1 X155.036 Y108.518 E0.00168
G1 X155.012 Y108.538 E0.00146
G1 X154.988 Y108.539 E0.00112
G1 X154.966 Y108.521 E0.00133
G1 X154.96 Y108.498 E0.00111
G1 X154.968 Y108.476 E0.00109
G0 F12000 X154.616 Y108.283
G1 F4800 X154.659 Y108.219 E0.0036
G1 X154.704 Y108.172 E0.00304
G1 X154.773 Y108.121 E0.004
G1 X154.837 Y108.089 E0.00334
G1 X154.903 Y108.069 E0.00322
G1 X154.983 Y108.059 E0.00376
G1 X155.051 Y108.061 E0.00317
G1 X155.129 Y108.078 E0.00372
G1 X155.202 Y108.108 E0.00368
G1 X155.259 Y108.143 E0.00312
G1 X155.318 Y108.194 E0.00364
G1 X155.37 Y108.258 E0.00385
G1 X155.403 Y108.318 E0.00319
G1 X155.425 Y108.382 E0.00316
G1 X155.44 Y108.467 E0.00403
G1 X155.44 Y108.533 E0.00308
G1 X155.426 Y108.617 E0.00397
G1 X155.403 Y108.682 E0.00322
G1 X155.37 Y108.742 E0.00319
G1 X155.318 Y108.806 E0.00385
G1 X155.259 Y108.857 E0.00364
G1 X155.202 Y108.892 E0.00312
G1 X155.129 Y108.922 E0.00368
G1 X155.051 Y108.939 E0.00372
G1 X154.983 Y108.941 E0.00317
G1 X154.903 Y108.931 E0.00376
G1 X154.837 Y108.911 E0.00322
G1 X154.772 Y108.878 E0.0034
G1 X154.703 Y108.827 E0.004
G1 X154.659 Y108.781 E0.00297
G1 X154.616 Y108.717 E0.0036
G1 X154.586 Y108.651 E0.00338
G1 X154.564 Y108.566 E0.0041
G1 X154.558 Y108.5 E0.00309
G1 X154.564 Y108.434 E0.00309
G1 X154.587 Y108.347 E0.0042
G1 X154.616 Y108.283 E0.00328
G0 F12000 X154.264 Y108.089
G1 F4800 X154.348 Y107.966 E0.00695
G1 X154.436 Y107.874 E0.00594
G1 X154.568 Y107.776 E0.00767
G1 X154.682 Y107.719 E0.00595
G1 X154.819 Y107.677 E0.00668
G1 X154.967 Y107.658 E0.00696
G1 X155.105 Y107.664 E0.00644
G1 X155.248 Y107.695 E0.00683
G1 X155.382 Y107.749 E0.00674
G1 X155.499 Y107.821 E0.00641
G1 X155.608 Y107.916 E0.00674
G1 X155.701 Y108.031 E0.0069
G1 X155.769 Y108.153 E0.00652
G1 X155.814 Y108.281 E0.00633
G1 X155.84 Y108.433 E0.00719
G1 X155.84 Y108.567 E0.00625
G1 X155.814 Y108.719 E0.00719
G1 X155.769 Y108.847 E0.00633
G1 X155.701 Y108.969 E0.00652
G1 X155.608 Y109.084 E0.0069
G1 X155.499 Y109.179 E0.00674
G1 X155.382 Y109.251 E0.00641
G1 X155.248 Y109.305 E0.00674
G1 X155.105 Y109.336 E0.00683
G1 X154.967 Y109.342 E0.00644
G1 X154.819 Y109.323 E0.00696
G1 X154.682 Y109.281 E0.00668
G1 X154.568 Y109.224 E0.00595
G1 X154.436 Y109.126 E0.00767
G1 X154.348 Y109.034 E0.00594
G1 X154.264 Y108.911 E0.00695
G1 X154.207 Y108.783 E0.00654
G1 X154.169 Y108.637 E0.00704
G1 X154.157 Y108.5 E0.00642
G1 X154.169 Y108.363 E0.00642
G1 X154.207 Y108.217 E0.00704
G1 X154.264 Y108.089 E0.00654
G0 F12000 X153.915 Y107.891
G1 F4800 X154.033 Y107.717 E0.00981
G1 X154.174 Y107.569 E0.00954
G1 X154.356 Y107.435 E0.01054
G1 X154.532 Y107.346 E0.0092
G1 X154.735 Y107.284 E0.0099
G1 X154.95 Y107.257 E0.01011
G1 X155.153 Y107.265 E0.00948
G1 X155.365 Y107.311 E0.01012
G1 X155.563 Y107.391 E0.00996
G1 X155.74 Y107.499 E0.00967
G1 X155.897 Y107.638 E0.00978
G1 X156.031 Y107.803 E0.00992
G1 X156.137 Y107.992 E0.01011
G1 X156.203 Y108.181 E0.00934
G1 X156.24 Y108.394 E0.01008
G1 X156.24 Y108.606 E0.00989
G1 X156.203 Y108.819 E0.01008
G1 X156.137 Y109.008 E0.00934
G1 X156.031 Y109.197 E0.01011
G1 X155.897 Y109.362 E0.00992
G1 X155.74 Y109.501 E0.00978
G1 X155.563 Y109.609 E0.00967
G1 X155.365 Y109.689 E0.00996
G1 X155.153 Y109.735 E0.01012
G1 X154.95 Y109.743 E0.00948
G1 X154.735 Y109.716 E0.01011
G1 X154.532 Y109.654 E0.0099
G1 X154.356 Y109.565 E0.0092
G1 X154.174 Y109.431 E0.01054
G1 X154.033 Y109.283 E0.00954
G1 X153.915 Y109.109 E0.00981
G1 X153.828 Y108.914 E0.00996
G1 X153.773 Y108.704 E0.01013
G1 X153.755 Y108.5 E0.00955
G1 X153.773 Y108.296 E0.00955
G1 X153.828 Y108.086 E0.01013
G1 X153.915 Y107.891 E0.00996
G0 F12000 X153.565 Y107.695
G1 F4800 X153.721 Y107.464 E0.013
G1 X153.909 Y107.268 E0.01267
G1 X154.142 Y107.095 E0.01354
G1 X154.386 Y106.972 E0.01275
G1 X154.649 Y106.892 E0.01282
G1 X154.933 Y106.855 E0.01336
G1 X155.203 Y106.867 E0.01261
G1 X155.483 Y106.927 E0.01336
G1 X155.742 Y107.031 E0.01302
G1 X155.977 Y107.175 E0.01286
G1 X156.187 Y107.36 E0.01306
G1 X156.362 Y107.576 E0.01297
G1 X156.502 Y107.826 E0.01337
G1 X156.592 Y108.082 E0.01266
G1 X156.64 Y108.361 E0.01321
G1 X156.64 Y108.639 E0.01297
G1 X156.592 Y108.918 E0.01321
G1 X156.502 Y109.174 E0.01266
G1 X156.364 Y109.421 E0.0132
G1 X156.187 Y109.64 E0.01314
G1 X155.977 Y109.825 E0.01306
G1 X155.742 Y109.969 E0.01286
G1 X155.483 Y110.073 E0.01302
G1 X155.203 Y110.133 E0.01336
G1 X154.933 Y110.145 E0.01261
G1 X154.649 Y110.108 E0.01336
G1 X154.386 Y110.028 E0.01282
G1 X154.142 Y109.905 E0.01275
G1 X153.909 Y109.732 E0.01354
G1 X153.721 Y109.536 E0.01267
G1 X153.565 Y109.305 E0.013
G1 X153.449 Y109.048 E0.01315
G1 X153.378 Y108.775 E0.01316
G1 X153.354 Y108.5 E0.01288
G1 X153.378 Y108.225 E0.01288
G1 X153.449 Y107.952 E0.01316
G1 X153.565 Y107.695 E0.01315
G0 F12000 X153.215 Y107.496
G1 F4800 X153.407 Y107.215 E0.01588
G1 X153.644 Y106.967 E0.016
G1 X153.935 Y106.751 E0.01691
G1 X154.236 Y106.599 E0.01573
G1 X154.566 Y106.499 E0.01608
G1 X154.911 Y106.455 E0.01622
G1 X155.257 Y106.469 E0.01615
G1 X155.6 Y106.543 E0.01637
G1 X155.924 Y106.673 E0.01628
G1 X156.217 Y106.853 E0.01604
G1 X156.477 Y107.082 E0.01616
G1 X156.695 Y107.352 E0.01619
G1 X156.868 Y107.661 E0.01652
G1 X156.98 Y107.981 E0.01582
G1 X157.04 Y108.328 E0.01643
G1 X157.04 Y108.672 E0.01605
G1 X156.98 Y109.019 E0.01643
G1 X156.868 Y109.339 E0.01582
G1 X156.695 Y109.648 E0.01652
G1 X156.477 Y109.918 E0.01619
G1 X156.217 Y110.147 E0.01616
G1 X155.924 Y110.327 E0.01604
G1 X155.6 Y110.457 E0.01628
G1 X155.257 Y110.531 E0.01637
G1 X154.911 Y110.545 E0.01615
G1 X154.566 Y110.501 E0.01622
G1 X154.236 Y110.401 E0.01608
G1 X153.935 Y110.249 E0.01573
G1 X153.644 Y110.033 E0.01691
G1 X153.407 Y109.785 E0.016
G1 X153.215 Y109.504 E0.01588
G1 X153.071 Y109.18 E0.01654
G1 X152.982 Y108.841 E0.01635
G1 X152.952 Y108.5 E0.01597
G1 X152.982 Y108.159 E0.01597
G1 X153.071 Y107.82 E0.01635
G1 X153.215 Y107.496 E0.01654
G10
G1 F600 Z0.7
G0 F12000 X136.477 Y122.082 Z0.7
G1 F600 Z0.3
