;FLAVOR:RepRap
;TIME:6249
;Filament used: 13.8186m
;Layer height: 0.2
;MINX:119.015
;MINY:43.3
;MINZ:0.3
;MAXX:180.824
;MAXY:256.7
;MAXZ:58.1
;Generated with Cura_SteamEngine 5.2.1
T0
M190 S100
M104 S260
M109 S260
M82 ;absolute extrusion mode
print_start
M83 ;relative extrusion mode
G10
;LAYER_COUNT:290
;LAYER:0
M107
G1 F600 Z0.7
G0 F12000 X128.827 Y46.99 Z0.7
;TYPE:SKIRT
G1 F600 Z0.3
G11
G1 F4800 X129.074 Y46.381 E0.03066
G1 X129.392 Y45.807 E0.03061
G1 X129.778 Y45.275 E0.03066
G1 X130.226 Y44.794 E0.03066
G1 X130.729 Y44.372 E0.03063
G1 X131.28 Y44.013 E0.03068
G1 X131.87 Y43.724 E0.03065
G1 X132.49 Y43.509 E0.03061
G1 X133.133 Y43.371 E0.03068
G1 X133.869 Y43.31 E0.03445
G1 X134.579 Y43.3 E0.03312
G1 X174.717 Y43.3 E1.87233
G1 X175.492 Y43.311 E0.03616
G1 X176.147 Y43.36 E0.03064
G1 X176.792 Y43.488 E0.03067
G1 X177.416 Y43.694 E0.03065
G1 X178.01 Y43.974 E0.03063
G1 X178.566 Y44.324 E0.03065
G1 X179.075 Y44.74 E0.03066
G1 X179.53 Y45.213 E0.03062
G1 X179.924 Y45.739 E0.03066
G1 X180.252 Y46.309 E0.03068
G1 X180.507 Y46.914 E0.03063
G1 X180.688 Y47.545 E0.03062
G1 X180.79 Y48.194 E0.03065
G1 X180.813 Y48.558 E0.01701
G1 X180.824 Y49.03 E0.02202
G1 X180.823 Y66.814 E0.82958
G1 X180.813 Y67.516 E0.03275
G1 X180.764 Y68.171 E0.03064
G1 X180.636 Y68.815 E0.03063
G1 X180.43 Y69.439 E0.03065
G1 X180.15 Y70.034 E0.03067
G1 X179.8 Y70.589 E0.03061
G1 X179.47 Y71.004 E0.02473
G1 X178.699 Y71.881 E0.05447
G1 X176.893 Y73.994 E0.12966
G1 X175.242 Y76.04 E0.12264
G1 X173.597 Y78.199 E0.12661
G1 X172.053 Y80.35 E0.12351
G1 X170.548 Y82.579 E0.12546
G1 X169.126 Y84.818 E0.12373
G1 X167.734 Y87.153 E0.12681
G1 X166.45 Y89.451 E0.12279
G1 X165.205 Y91.84 E0.12567
G1 X164.038 Y94.238 E0.1244
G1 X162.931 Y96.687 E0.12537
G1 X161.89 Y99.18 E0.12602
G1 X160.938 Y101.648 E0.12339
G1 X160.051 Y104.158 E0.12418
G1 X159.22 Y106.741 E0.12657
G1 X158.484 Y109.272 E0.12295
G1 X157.799 Y111.903 E0.12682
G1 X157.2 Y114.503 E0.12446
G1 X156.676 Y117.11 E0.12404
G1 X156.228 Y119.729 E0.12394
G1 X155.846 Y122.406 E0.12614
G1 X155.548 Y125.025 E0.12296
G1 X155.316 Y127.746 E0.12739
G1 X155.167 Y130.368 E0.12251
G1 X155.09 Y133.086 E0.12684
G1 X155.08 Y134.456 E0.06391
G1 X155.079 Y198.07 E2.96742
G1 X155.069 Y198.772 E0.03275
G1 X155.02 Y199.427 E0.03064
G1 X154.892 Y200.071 E0.03063
G1 X154.686 Y200.695 E0.03065
G1 X154.436 Y201.233 E0.02767
G1 X154.221 Y201.635 E0.02127
G1 X153.248 Y203.378 E0.09312
G1 X151.985 Y205.798 E0.12734
G1 X150.844 Y208.142 E0.12161
G1 X149.727 Y210.614 E0.12654
G1 X148.689 Y213.1 E0.12567
G1 X147.733 Y215.582 E0.12407
G1 X146.848 Y218.086 E0.12389
G1 X146.017 Y220.669 E0.12657
G1 X145.279 Y223.208 E0.12334
G1 X144.599 Y225.821 E0.12595
G1 X144.003 Y228.411 E0.12397
G1 X143.473 Y231.053 E0.1257
G1 X143.026 Y233.663 E0.12352
G1 X142.645 Y236.334 E0.12586
G1 X142.347 Y238.954 E0.123
G1 X142.115 Y241.675 E0.12739
G1 X141.966 Y244.299 E0.1226
G1 X141.89 Y247.012 E0.1266
G1 X141.88 Y248.375 E0.06358
G1 X141.879 Y250.646 E0.10594
G1 X141.868 Y251.373 E0.03392
G1 X141.819 Y252.028 E0.03064
G1 X141.689 Y252.672 E0.03065
G1 X141.483 Y253.296 E0.03065
G1 X141.203 Y253.89 E0.03063
G1 X140.852 Y254.445 E0.03063
G1 X140.437 Y254.954 E0.03064
G1 X139.962 Y255.409 E0.03068
G1 X139.436 Y255.803 E0.03066
G1 X138.867 Y256.13 E0.03061
G1 X138.261 Y256.385 E0.03067
G1 X137.629 Y256.565 E0.03065
G1 X136.98 Y256.667 E0.03065
G1 X136.621 Y256.689 E0.01678
G1 X136.15 Y256.7 E0.02198
G1 X128.613 Y256.7 E0.35158
G1 X127.915 Y256.691 E0.03256
G1 X127.26 Y256.642 E0.03064
G1 X126.616 Y256.515 E0.03062
G1 X125.992 Y256.31 E0.03064
G1 X125.397 Y256.03 E0.03067
G1 X124.841 Y255.681 E0.03062
G1 X124.331 Y255.267 E0.03064
G1 X123.875 Y254.794 E0.03065
G1 X123.48 Y254.268 E0.03068
G1 X123.152 Y253.699 E0.03064
G1 X122.895 Y253.095 E0.03062
G1 X122.714 Y252.463 E0.03067
G1 X122.61 Y251.814 E0.03066
G1 X122.587 Y251.437 E0.01762
G1 X122.576 Y250.958 E0.02235
G1 X122.576 Y125.192 E5.86665
G1 X122.538 Y122.528 E0.12428
G1 X122.423 Y119.82 E0.12643
G1 X122.237 Y117.204 E0.12234
G1 X121.968 Y114.485 E0.12745
G1 X121.635 Y111.885 E0.12227
G1 X121.213 Y109.2 E0.12679
G1 X120.726 Y106.579 E0.12436
G1 X120.166 Y103.978 E0.12411
G1 X119.483 Y101.198 E0.13354
G1 X119.189 Y100.068 E0.05447
G1 X119.062 Y99.423 E0.03067
G1 X119.015 Y98.768 E0.03063
G1 X119.094 Y97.79 E0.04577
G1 X119.256 Y96.857 E0.04417
G1 X128.518 Y48.297 E2.30603
G1 X128.656 Y47.624 E0.03205
G1 X128.827 Y46.99 E0.03063
G0 F12000 X129.214 Y47.095
G1 F4800 X129.455 Y46.51 E0.02951
G1 X129.769 Y45.961 E0.0295
G1 X130.149 Y45.456 E0.02948
G1 X130.589 Y45.003 E0.02946
G1 X131.084 Y44.609 E0.02951
G1 X131.624 Y44.281 E0.02947
G1 X132.201 Y44.023 E0.02948
G1 X132.806 Y43.841 E0.02947
G1 X133.43 Y43.736 E0.02952
G1 X133.875 Y43.71 E0.02079
G1 X134.579 Y43.7 E0.03284
G1 X174.717 Y43.7 E1.87233
G1 X175.487 Y43.711 E0.03592
G1 X176.117 Y43.76 E0.02948
G1 X176.736 Y43.888 E0.02949
G1 X177.334 Y44.093 E0.02949
G1 X177.901 Y44.372 E0.02948
G1 X178.429 Y44.72 E0.0295
G1 X178.908 Y45.132 E0.02947
G1 X179.331 Y45.602 E0.0295
G1 X179.692 Y46.121 E0.02949
G1 X179.985 Y46.681 E0.02948
G1 X180.204 Y47.274 E0.02949
G1 X180.347 Y47.89 E0.0295
G1 X180.413 Y48.569 E0.03182
G1 X180.424 Y49.03 E0.02151
G1 X180.423 Y66.808 E0.8293
G1 X180.413 Y67.51 E0.03275
G1 X180.365 Y68.14 E0.02947
G1 X180.236 Y68.759 E0.0295
G1 X180.031 Y69.357 E0.02949
G1 X179.752 Y69.925 E0.02952
G1 X179.404 Y70.452 E0.02946
G1 X179.17 Y70.74 E0.01731
G1 X178.37 Y71.65 E0.05652
G1 X176.593 Y73.728 E0.12754
G1 X174.91 Y75.814 E0.12503
G1 X173.286 Y77.947 E0.12506
G1 X171.73 Y80.115 E0.12448
G1 X170.223 Y82.346 E0.12559
G1 X168.763 Y84.646 E0.12708
G1 X167.399 Y86.932 E0.12418
G1 X166.09 Y89.277 E0.12528
G1 X164.848 Y91.658 E0.12527
G1 X163.678 Y94.064 E0.1248
G1 X162.563 Y96.53 E0.12624
G1 X161.524 Y99.017 E0.12573
G1 X160.563 Y101.507 E0.1245
G1 X159.665 Y104.05 E0.1258
G1 X158.841 Y106.612 E0.12554
G1 X158.099 Y109.164 E0.12397
G1 X157.418 Y111.776 E0.12592
G1 X156.803 Y114.448 E0.1279
G1 X156.285 Y117.029 E0.1228
G1 X155.831 Y119.677 E0.12532
G1 X155.451 Y122.341 E0.12553
G1 X155.147 Y125.018 E0.12568
G1 X154.919 Y127.688 E0.125
G1 X154.767 Y130.372 E0.1254
G1 X154.69 Y133.072 E0.126
G1 X154.68 Y134.453 E0.06442
G1 X154.679 Y198.064 E2.96728
G1 X154.669 Y198.766 E0.03275
G1 X154.621 Y199.396 E0.02947
G1 X154.492 Y200.015 E0.0295
G1 X154.287 Y200.613 E0.02949
G1 X154.083 Y201.045 E0.02229
G1 X153.872 Y201.44 E0.02089
G1 X152.887 Y203.204 E0.09425
G1 X151.643 Y205.588 E0.12544
G1 X150.465 Y208.009 E0.12559
G1 X149.364 Y210.444 E0.12466
G1 X148.316 Y212.956 E0.12697
G1 X147.365 Y215.422 E0.12329
G1 X146.462 Y217.978 E0.12645
G1 X145.638 Y220.54 E0.12554
G1 X144.893 Y223.1 E0.12437
G1 X144.216 Y225.702 E0.12542
G1 X143.601 Y228.375 E0.12795
G1 X143.085 Y230.95 E0.1225
G1 X142.63 Y233.605 E0.12565
G1 X142.25 Y236.273 E0.12571
G1 X141.946 Y238.943 E0.12535
G1 X141.718 Y241.617 E0.12519
G1 X141.566 Y244.302 E0.12545
G1 X141.49 Y246.997 E0.12576
G1 X141.48 Y248.372 E0.06414
G1 X141.479 Y250.64 E0.1058
G1 X141.468 Y251.367 E0.03392
G1 X141.419 Y251.997 E0.02948
G1 X141.29 Y252.616 E0.0295
G1 X141.085 Y253.213 E0.02944
G1 X140.805 Y253.781 E0.02954
G1 X140.456 Y254.308 E0.02949
G1 X140.044 Y254.787 E0.02947
G1 X139.574 Y255.21 E0.0295
G1 X139.055 Y255.57 E0.02946
G1 X138.494 Y255.862 E0.0295
G1 X137.901 Y256.081 E0.02949
G1 X137.285 Y256.224 E0.0295
G1 X136.61 Y256.289 E0.03163
G1 X136.15 Y256.3 E0.02146
G1 X128.619 Y256.3 E0.3513
G1 X127.921 Y256.291 E0.03256
G1 X127.29 Y256.242 E0.02952
G1 X126.671 Y256.115 E0.02948
G1 X126.073 Y255.911 E0.02947
G1 X125.505 Y255.633 E0.0295
G1 X124.977 Y255.285 E0.0295
G1 X124.497 Y254.874 E0.02948
G1 X124.073 Y254.405 E0.02949
G1 X123.711 Y253.887 E0.02948
G1 X123.418 Y253.327 E0.02948
G1 X123.198 Y252.734 E0.0295
G1 X123.054 Y252.119 E0.02946
G1 X122.987 Y251.426 E0.03248
G1 X122.976 Y250.958 E0.02184
G1 X122.976 Y125.192 E5.86665
G1 X122.938 Y122.505 E0.12535
G1 X122.824 Y119.823 E0.12522
G1 X122.636 Y117.169 E0.12411
G1 X122.368 Y114.47 E0.12652
G1 X122.023 Y111.771 E0.12693
G1 X121.615 Y109.171 E0.12277
G1 X121.117 Y106.493 E0.12706
G1 X120.551 Y103.863 E0.12549
G1 X119.888 Y101.167 E0.12951
G1 X119.576 Y99.967 E0.05784
G1 X119.456 Y99.347 E0.02946
G1 X119.415 Y98.716 E0.0295
G1 X119.488 Y97.858 E0.04017
G1 X119.633 Y97.018 E0.03976
G1 X128.91 Y48.378 E2.30983
G1 X129.048 Y47.705 E0.03205
G1 X129.214 Y47.095 E0.02949
G0 F12000 X129.6 Y47.2
G1 F4800 X129.837 Y46.642 E0.02828
G1 X130.144 Y46.119 E0.02829
G1 X130.518 Y45.642 E0.02827
G1 X130.951 Y45.218 E0.02827
G1 X131.436 Y44.854 E0.02829
G1 X131.965 Y44.557 E0.0283
G1 X132.528 Y44.333 E0.02826
G1 X133.116 Y44.185 E0.02828
G1 X133.881 Y44.109 E0.03586
G1 X134.514 Y44.1 E0.02953
G1 X174.783 Y44.1 E1.87844
G1 X175.481 Y44.11 E0.03256
G1 X176.085 Y44.159 E0.02827
G1 X176.678 Y44.287 E0.0283
G1 X177.249 Y44.491 E0.02828
G1 X177.788 Y44.769 E0.02829
G1 X178.285 Y45.115 E0.02825
G1 X178.733 Y45.524 E0.0283
G1 X179.123 Y45.988 E0.02827
G1 X179.449 Y46.5 E0.02831
G1 X179.705 Y47.049 E0.02826
G1 X179.886 Y47.628 E0.0283
G1 X179.989 Y48.225 E0.02826
G1 X180.013 Y48.581 E0.01664
G1 X180.024 Y49.03 E0.02095
G1 X180.024 Y66.803 E0.82906
G1 X180.014 Y67.505 E0.03275
G1 X179.965 Y68.109 E0.02827
G1 X179.837 Y68.702 E0.0283
G1 X179.633 Y69.272 E0.02824
G1 X179.355 Y69.811 E0.02829
G1 X178.869 Y70.476 E0.03842
G1 X178.049 Y71.409 E0.05794
G1 X176.311 Y73.442 E0.12477
G1 X174.597 Y75.566 E0.12732
G1 X172.958 Y77.717 E0.12615
G1 X171.389 Y79.904 E0.12556
G1 X169.886 Y82.129 E0.12525
G1 X168.44 Y84.406 E0.12582
G1 X167.05 Y86.738 E0.12664
G1 X165.744 Y89.076 E0.12492
G1 X164.492 Y91.477 E0.12631
G1 X163.312 Y93.903 E0.12584
G1 X162.194 Y96.376 E0.1266
G1 X161.154 Y98.867 E0.12592
G1 X160.177 Y101.397 E0.12651
G1 X159.293 Y103.9 E0.12383
G1 X158.462 Y106.483 E0.12657
G1 X157.704 Y109.091 E0.12669
G1 X157.033 Y111.666 E0.12413
G1 X156.416 Y114.344 E0.12819
G1 X155.891 Y116.961 E0.12451
G1 X155.434 Y119.624 E0.12604
G1 X155.052 Y122.31 E0.12656
G1 X154.749 Y124.971 E0.12493
G1 X154.522 Y127.633 E0.12463
G1 X154.367 Y130.372 E0.12797
G1 X154.29 Y133.058 E0.12535
G1 X154.28 Y134.45 E0.06493
G1 X154.28 Y198.059 E2.96719
G1 X154.27 Y198.761 E0.03275
G1 X154.221 Y199.365 E0.02827
G1 X154.093 Y199.958 E0.0283
G1 X153.889 Y200.528 E0.02824
G1 X153.73 Y200.857 E0.01705
G1 X153.522 Y201.245 E0.02054
G1 X152.541 Y203.003 E0.09391
G1 X151.286 Y205.407 E0.1265
G1 X150.112 Y207.819 E0.12513
G1 X148.995 Y210.291 E0.12654
G1 X147.945 Y212.807 E0.12718
G1 X146.979 Y215.313 E0.12528
G1 X146.09 Y217.828 E0.12443
G1 X145.259 Y220.411 E0.12657
G1 X144.506 Y223.002 E0.12586
G1 X143.827 Y225.609 E0.12567
G1 X143.211 Y228.286 E0.12814
G1 X142.692 Y230.875 E0.12317
G1 X142.233 Y233.552 E0.1267
G1 X141.856 Y236.203 E0.12491
G1 X141.545 Y238.935 E0.12826
G1 X141.321 Y241.562 E0.12299
G1 X141.166 Y244.302 E0.12802
G1 X141.09 Y246.983 E0.12511
G1 X141.08 Y248.369 E0.06465
G1 X141.079 Y250.634 E0.10566
G1 X141.068 Y251.361 E0.03392
G1 X141.019 Y251.965 E0.02827
G1 X140.891 Y252.558 E0.0283
G1 X140.686 Y253.128 E0.02826
G1 X140.408 Y253.667 E0.02829
G1 X140.061 Y254.164 E0.02828
G1 X139.652 Y254.612 E0.0283
G1 X139.188 Y255.002 E0.02827
G1 X138.676 Y255.327 E0.02829
G1 X138.126 Y255.582 E0.02828
G1 X137.548 Y255.763 E0.02825
G1 X136.95 Y255.866 E0.02831
G1 X136.599 Y255.889 E0.01641
G1 X136.15 Y255.9 E0.02095
G1 X128.624 Y255.9 E0.35107
G1 X127.926 Y255.891 E0.03256
G1 X127.321 Y255.843 E0.02831
G1 X126.728 Y255.716 E0.02829
G1 X126.157 Y255.512 E0.02828
G1 X125.618 Y255.235 E0.02827
G1 X125.12 Y254.89 E0.02826
G1 X124.671 Y254.482 E0.0283
G1 X124.281 Y254.018 E0.02827
G1 X123.954 Y253.507 E0.0283
G1 X123.698 Y252.958 E0.02826
G1 X123.516 Y252.38 E0.02827
G1 X123.411 Y251.782 E0.02832
G1 X123.387 Y251.415 E0.01716
G1 X123.376 Y250.958 E0.02132
G1 X123.376 Y125.257 E5.86362
G1 X123.337 Y122.483 E0.12941
G1 X123.222 Y119.776 E0.12639
G1 X123.035 Y117.141 E0.12322
G1 X122.765 Y114.413 E0.12788
G1 X122.421 Y111.729 E0.12623
G1 X122.008 Y109.101 E0.12409
G1 X121.509 Y106.414 E0.12748
G1 X120.944 Y103.789 E0.12525
G1 X120.275 Y101.067 E0.13075
G1 X119.963 Y99.867 E0.05784
G1 X119.849 Y99.271 E0.02831
G1 X119.815 Y98.666 E0.02827
G1 X119.882 Y97.927 E0.03461
G1 X120.041 Y97.007 E0.04355
G1 X129.289 Y48.52 E2.30256
G1 X129.44 Y47.785 E0.035
G1 X129.6 Y47.2 E0.02829
G0 F12000 X129.987 Y47.307
G1 F4800 X130.217 Y46.776 E0.02699
G1 X130.519 Y46.281 E0.02705
G1 X130.886 Y45.833 E0.02701
G1 X131.31 Y45.439 E0.027
G1 X131.786 Y45.107 E0.02707
G1 X132.302 Y44.844 E0.02702
G1 X132.849 Y44.655 E0.027
G1 X133.417 Y44.542 E0.02701
G1 X133.886 Y44.509 E0.02193
G1 X134.519 Y44.5 E0.02953
G1 X174.777 Y44.5 E1.87793
G1 X175.475 Y44.51 E0.03256
G1 X176.052 Y44.559 E0.02701
G1 X176.618 Y44.686 E0.02706
G1 X177.16 Y44.89 E0.02701
G1 X177.669 Y45.166 E0.02701
G1 X178.135 Y45.51 E0.02702
G1 X178.55 Y45.915 E0.02705
G1 X178.905 Y46.373 E0.02703
G1 X179.193 Y46.875 E0.027
G1 X179.41 Y47.412 E0.02702
G1 X179.55 Y47.974 E0.02702
G1 X179.613 Y48.592 E0.02898
G1 X179.624 Y49.03 E0.02044
G1 X179.624 Y66.797 E0.82878
G1 X179.614 Y67.499 E0.03275
G1 X179.565 Y68.076 E0.02701
G1 X179.438 Y68.641 E0.02701
G1 X179.235 Y69.184 E0.02704
G1 X178.958 Y69.693 E0.02703
G1 X178.569 Y70.212 E0.03026
G1 X177.749 Y71.145 E0.05794
G1 X175.997 Y73.193 E0.12572
G1 X174.283 Y75.318 E0.12735
G1 X172.643 Y77.47 E0.12621
G1 X171.077 Y79.653 E0.12532
G1 X169.534 Y81.938 E0.12862
G1 X168.092 Y84.208 E0.12545
G1 X166.715 Y86.518 E0.12545
G1 X165.383 Y88.903 E0.12743
G1 X164.135 Y91.296 E0.1259
G1 X162.945 Y93.742 E0.12689
G1 X161.836 Y96.194 E0.12553
G1 X160.769 Y98.749 E0.12916
G1 X159.814 Y101.226 E0.12384
G1 X158.907 Y103.792 E0.12695
G1 X158.083 Y106.354 E0.12554
G1 X157.318 Y108.983 E0.12772
G1 X156.642 Y111.581 E0.12523
G1 X156.028 Y114.247 E0.12762
G1 X155.498 Y116.886 E0.12556
G1 X155.039 Y119.566 E0.12684
G1 X154.657 Y122.245 E0.12623
G1 X154.352 Y124.925 E0.12582
G1 X154.12 Y127.65 E0.12757
G1 X153.967 Y130.338 E0.12559
G1 X153.89 Y133.043 E0.12623
G1 X153.88 Y134.447 E0.06549
G1 X153.88 Y198.053 E2.96705
G1 X153.87 Y198.755 E0.03275
G1 X153.821 Y199.332 E0.02701
G1 X153.694 Y199.897 E0.02701
G1 X153.377 Y200.669 E0.03893
G1 X153.173 Y201.05 E0.02016
G1 X152.195 Y202.802 E0.0936
G1 X150.915 Y205.255 E0.12907
G1 X149.745 Y207.658 E0.12467
G1 X148.638 Y210.109 E0.12545
G1 X147.574 Y212.657 E0.1288
G1 X146.604 Y215.172 E0.12574
G1 X145.704 Y217.72 E0.12605
G1 X144.88 Y220.282 E0.12554
G1 X144.12 Y222.895 E0.12694
G1 X143.436 Y225.524 E0.12672
G1 X142.823 Y228.189 E0.12756
G1 X142.301 Y230.794 E0.12393
G1 X141.837 Y233.5 E0.12807
G1 X141.456 Y236.173 E0.12595
G1 X141.151 Y238.854 E0.12587
G1 X140.919 Y241.579 E0.12757
G1 X140.766 Y244.267 E0.12559
G1 X140.69 Y246.969 E0.12609
G1 X140.68 Y248.367 E0.06521
G1 X140.68 Y250.628 E0.10547
G1 X140.669 Y251.355 E0.03392
G1 X140.62 Y251.932 E0.02701
G1 X140.492 Y252.497 E0.02702
G1 X140.288 Y253.039 E0.02701
G1 X140.011 Y253.548 E0.02703
G1 X139.667 Y254.014 E0.02702
G1 X139.262 Y254.428 E0.02702
G1 X138.804 Y254.782 E0.027
G1 X138.301 Y255.07 E0.02704
G1 X137.763 Y255.287 E0.02706
G1 X137.201 Y255.427 E0.02702
G1 X136.587 Y255.489 E0.02879
G1 X136.15 Y255.5 E0.02039
G1 X128.629 Y255.5 E0.35083
G1 X127.931 Y255.491 E0.03256
G1 X127.353 Y255.443 E0.02705
G1 X126.788 Y255.317 E0.027
G1 X126.246 Y255.114 E0.027
G1 X125.736 Y254.838 E0.02705
G1 X125.269 Y254.495 E0.02703
G1 X124.854 Y254.091 E0.02702
G1 X124.499 Y253.633 E0.02703
G1 X124.21 Y253.131 E0.02702
G1 X123.992 Y252.594 E0.02704
G1 X123.851 Y252.033 E0.02698
G1 X123.787 Y251.404 E0.02949
G1 X123.776 Y250.958 E0.02081
G1 X123.776 Y125.251 E5.8639
G1 X123.737 Y122.46 E0.13021
G1 X123.622 Y119.767 E0.12574
G1 X123.434 Y117.106 E0.12444
G1 X123.161 Y114.358 E0.12882
G1 X122.819 Y111.687 E0.12561
G1 X122.398 Y109.003 E0.12673
G1 X121.907 Y106.362 E0.12531
G1 X121.335 Y103.707 E0.12669
G1 X120.648 Y100.911 E0.13431
G1 X120.35 Y99.766 E0.05519
G1 X120.243 Y99.196 E0.02705
G1 X120.216 Y98.618 E0.02699
G1 X120.276 Y97.995 E0.0292
G1 X120.434 Y97.082 E0.04322
