;FLAVOR:RepRap
;TIME:5962
;Filament used: 12.7329m
;Layer height: 0.2
;MINX:119.015
;MINY:69.6
;MINZ:0.3
;MAXX:180.824
;MAXY:230.4
;MAXZ:58.1
;Generated with Cura_SteamEngine 5.2.1
T0
M190 S100
M104 S260
M109 S260
M82 ;absolute extrusion mode
print_start
M83 ;relative extrusion mode
G10
;LAYER_COUNT:290
;LAYER:0
M107
G1 F600 Z0.7
G0 F12000 X129.392 Y72.107 Z0.7
;TYPE:SKIRT
G1 F600 Z0.3
G11
G1 F4800 X129.778 Y71.575 E0.03066
G1 X130.226 Y71.094 E0.03066
G1 X130.729 Y70.672 E0.03063
G1 X131.28 Y70.313 E0.03068
G1 X131.87 Y70.024 E0.03065
G1 X132.49 Y69.809 E0.03061
G1 X133.133 Y69.671 E0.03068
G1 X133.869 Y69.61 E0.03445
G1 X134.579 Y69.6 E0.03312
G1 X174.717 Y69.6 E1.87233
G1 X175.492 Y69.611 E0.03616
G1 X176.147 Y69.66 E0.03064
G1 X176.792 Y69.788 E0.03067
G1 X177.416 Y69.994 E0.03065
G1 X178.01 Y70.274 E0.03063
G1 X178.566 Y70.624 E0.03065
G1 X179.075 Y71.04 E0.03066
G1 X179.53 Y71.513 E0.03062
G1 X179.924 Y72.039 E0.03066
G1 X180.252 Y72.609 E0.03068
G1 X180.507 Y73.214 E0.03063
G1 X180.688 Y73.845 E0.03062
G1 X180.79 Y74.494 E0.03065
G1 X180.813 Y74.858 E0.01701
G1 X180.824 Y75.33 E0.02202
G1 X180.823 Y93.114 E0.82958
G1 X180.813 Y93.816 E0.03275
G1 X180.764 Y94.471 E0.03064
G1 X180.636 Y95.115 E0.03063
G1 X180.43 Y95.739 E0.03065
G1 X180.15 Y96.334 E0.03067
G1 X179.8 Y96.889 E0.03061
G1 X179.47 Y97.304 E0.02473
G1 X178.699 Y98.181 E0.05447
G1 X176.893 Y100.294 E0.12966
G1 X175.242 Y102.34 E0.12264
G1 X173.597 Y104.499 E0.12661
G1 X172.053 Y106.65 E0.12351
G1 X170.548 Y108.879 E0.12546
G1 X169.126 Y111.118 E0.12373
G1 X167.734 Y113.453 E0.12681
G1 X166.45 Y115.751 E0.12279
G1 X165.205 Y118.14 E0.12567
G1 X164.038 Y120.538 E0.1244
G1 X162.931 Y122.987 E0.12537
G1 X161.89 Y125.48 E0.12602
G1 X160.938 Y127.948 E0.12339
G1 X160.051 Y130.458 E0.12418
G1 X159.22 Y133.041 E0.12657
G1 X158.484 Y135.572 E0.12295
G1 X157.799 Y138.203 E0.12682
G1 X157.2 Y140.803 E0.12446
G1 X156.676 Y143.41 E0.12404
G1 X156.228 Y146.029 E0.12394
G1 X155.846 Y148.706 E0.12614
G1 X155.548 Y151.325 E0.12296
G1 X155.316 Y154.046 E0.12739
G1 X155.167 Y156.668 E0.12251
G1 X155.09 Y159.386 E0.12684
G1 X155.08 Y160.756 E0.06391
G1 X155.079 Y224.346 E2.9663
G1 X155.068 Y225.073 E0.03392
G1 X155.019 Y225.728 E0.03064
G1 X154.889 Y226.372 E0.03065
G1 X154.683 Y226.996 E0.03065
G1 X154.403 Y227.59 E0.03063
G1 X154.052 Y228.145 E0.03063
G1 X153.637 Y228.654 E0.03064
G1 X153.162 Y229.109 E0.03068
G1 X152.636 Y229.503 E0.03066
G1 X152.067 Y229.83 E0.03061
G1 X151.461 Y230.085 E0.03067
G1 X150.829 Y230.265 E0.03065
G1 X150.18 Y230.367 E0.03065
G1 X149.821 Y230.389 E0.01678
G1 X149.35 Y230.4 E0.02198
G1 X128.613 Y230.4 E0.96733
G1 X127.915 Y230.391 E0.03256
G1 X127.26 Y230.342 E0.03064
G1 X126.616 Y230.215 E0.03062
G1 X125.992 Y230.01 E0.03064
G1 X125.397 Y229.73 E0.03067
G1 X124.841 Y229.381 E0.03062
G1 X124.331 Y228.967 E0.03064
G1 X123.875 Y228.494 E0.03065
G1 X123.48 Y227.968 E0.03068
G1 X123.152 Y227.399 E0.03064
G1 X122.895 Y226.795 E0.03062
G1 X122.714 Y226.163 E0.03067
G1 X122.61 Y225.514 E0.03066
G1 X122.587 Y225.137 E0.01762
G1 X122.576 Y224.658 E0.02235
G1 X122.576 Y151.492 E3.413
G1 X122.538 Y148.828 E0.12428
G1 X122.423 Y146.12 E0.12643
G1 X122.237 Y143.504 E0.12234
G1 X121.968 Y140.785 E0.12745
G1 X121.635 Y138.185 E0.12227
G1 X121.213 Y135.5 E0.12679
G1 X120.726 Y132.879 E0.12436
G1 X120.166 Y130.278 E0.12411
G1 X119.483 Y127.498 E0.13354
G1 X119.189 Y126.368 E0.05447
G1 X119.062 Y125.723 E0.03067
G1 X119.015 Y125.068 E0.03063
G1 X119.094 Y124.09 E0.04577
G1 X119.256 Y123.157 E0.04417
G1 X128.518 Y74.597 E2.30603
G1 X128.656 Y73.924 E0.03205
G1 X128.827 Y73.29 E0.03063
G1 X129.074 Y72.681 E0.03066
G1 X129.392 Y72.107 E0.03061
G0 F12000 X129.769 Y72.261
G1 F4800 X130.149 Y71.756 E0.02948
G1 X130.589 Y71.303 E0.02946
G1 X131.084 Y70.909 E0.02951
G1 X131.624 Y70.581 E0.02947
G1 X132.201 Y70.323 E0.02948
G1 X132.806 Y70.141 E0.02947
G1 X133.43 Y70.036 E0.02952
G1 X133.875 Y70.01 E0.02079
G1 X134.579 Y70 E0.03284
G1 X174.717 Y70 E1.87233
G1 X175.487 Y70.011 E0.03592
G1 X176.117 Y70.06 E0.02948
G1 X176.736 Y70.188 E0.02949
G1 X177.334 Y70.393 E0.02949
G1 X177.901 Y70.672 E0.02948
G1 X178.429 Y71.02 E0.0295
G1 X178.908 Y71.432 E0.02947
G1 X179.331 Y71.902 E0.0295
G1 X179.692 Y72.421 E0.02949
G1 X179.985 Y72.981 E0.02948
G1 X180.204 Y73.574 E0.02949
G1 X180.347 Y74.19 E0.0295
G1 X180.413 Y74.869 E0.03182
G1 X180.424 Y75.33 E0.02151
G1 X180.423 Y93.108 E0.8293
G1 X180.413 Y93.81 E0.03275
G1 X180.365 Y94.44 E0.02947
G1 X180.236 Y95.059 E0.0295
G1 X180.031 Y95.657 E0.02949
G1 X179.752 Y96.225 E0.02952
G1 X179.404 Y96.752 E0.02946
G1 X179.17 Y97.04 E0.01731
G1 X178.37 Y97.95 E0.05652
G1 X176.593 Y100.028 E0.12754
G1 X174.91 Y102.114 E0.12503
G1 X173.286 Y104.247 E0.12506
G1 X171.73 Y106.415 E0.12448
G1 X170.223 Y108.646 E0.12559
G1 X168.763 Y110.946 E0.12708
G1 X167.399 Y113.232 E0.12418
G1 X166.09 Y115.577 E0.12528
G1 X164.848 Y117.958 E0.12527
G1 X163.678 Y120.364 E0.1248
G1 X162.563 Y122.83 E0.12624
G1 X161.524 Y125.317 E0.12573
G1 X160.563 Y127.807 E0.1245
G1 X159.665 Y130.35 E0.1258
G1 X158.841 Y132.912 E0.12554
G1 X158.099 Y135.464 E0.12397
G1 X157.418 Y138.076 E0.12592
G1 X156.803 Y140.748 E0.1279
G1 X156.285 Y143.329 E0.1228
G1 X155.831 Y145.977 E0.12532
G1 X155.451 Y148.641 E0.12553
G1 X155.147 Y151.318 E0.12568
G1 X154.919 Y153.988 E0.125
G1 X154.767 Y156.672 E0.1254
G1 X154.69 Y159.372 E0.126
G1 X154.68 Y160.753 E0.06442
G1 X154.679 Y224.34 E2.96616
G1 X154.668 Y225.067 E0.03392
G1 X154.619 Y225.697 E0.02948
G1 X154.49 Y226.316 E0.0295
G1 X154.285 Y226.913 E0.02944
G1 X154.005 Y227.481 E0.02954
G1 X153.656 Y228.008 E0.02949
G1 X153.244 Y228.487 E0.02947
G1 X152.774 Y228.91 E0.0295
G1 X152.255 Y229.27 E0.02946
G1 X151.694 Y229.562 E0.0295
G1 X151.101 Y229.781 E0.02949
G1 X150.485 Y229.924 E0.0295
G1 X149.81 Y229.989 E0.03163
G1 X149.35 Y230 E0.02146
G1 X128.619 Y230 E0.96705
G1 X127.921 Y229.991 E0.03256
G1 X127.29 Y229.942 E0.02952
G1 X126.671 Y229.815 E0.02948
G1 X126.073 Y229.611 E0.02947
G1 X125.505 Y229.333 E0.0295
G1 X124.977 Y228.985 E0.0295
G1 X124.497 Y228.574 E0.02948
G1 X124.073 Y228.105 E0.02949
G1 X123.711 Y227.587 E0.02948
G1 X123.418 Y227.027 E0.02948
G1 X123.198 Y226.434 E0.0295
G1 X123.054 Y225.819 E0.02946
G1 X122.987 Y225.126 E0.03248
G1 X122.976 Y224.658 E0.02184
G1 X122.976 Y151.492 E3.413
G1 X122.938 Y148.805 E0.12535
G1 X122.824 Y146.123 E0.12522
G1 X122.636 Y143.469 E0.12411
G1 X122.368 Y140.77 E0.12652
G1 X122.023 Y138.071 E0.12693
G1 X121.615 Y135.471 E0.12277
G1 X121.117 Y132.793 E0.12706
G1 X120.551 Y130.163 E0.12549
G1 X119.888 Y127.467 E0.12951
G1 X119.576 Y126.267 E0.05784
G1 X119.456 Y125.647 E0.02946
G1 X119.415 Y125.016 E0.0295
G1 X119.488 Y124.158 E0.04017
G1 X119.633 Y123.318 E0.03976
G1 X128.91 Y74.678 E2.30983
G1 X129.048 Y74.005 E0.03205
G1 X129.214 Y73.395 E0.02949
G1 X129.455 Y72.81 E0.02951
G1 X129.769 Y72.261 E0.0295
G0 F12000 X130.144 Y72.419
G1 F4800 X130.518 Y71.942 E0.02827
G1 X130.951 Y71.518 E0.02827
G1 X131.436 Y71.154 E0.02829
G1 X131.965 Y70.857 E0.0283
G1 X132.528 Y70.633 E0.02826
G1 X133.116 Y70.485 E0.02828
G1 X133.881 Y70.409 E0.03586
G1 X134.514 Y70.4 E0.02953
G1 X174.783 Y70.4 E1.87844
G1 X175.481 Y70.41 E0.03256
G1 X176.085 Y70.459 E0.02827
G1 X176.678 Y70.587 E0.0283
G1 X177.249 Y70.791 E0.02828
G1 X177.788 Y71.069 E0.02829
G1 X178.285 Y71.415 E0.02825
G1 X178.733 Y71.824 E0.0283
G1 X179.123 Y72.288 E0.02827
G1 X179.449 Y72.8 E0.02831
G1 X179.705 Y73.349 E0.02826
G1 X179.886 Y73.928 E0.0283
G1 X179.989 Y74.525 E0.02826
G1 X180.013 Y74.881 E0.01664
G1 X180.024 Y75.33 E0.02095
G1 X180.024 Y93.103 E0.82906
G1 X180.014 Y93.805 E0.03275
G1 X179.965 Y94.409 E0.02827
G1 X179.837 Y95.002 E0.0283
G1 X179.633 Y95.572 E0.02824
G1 X179.355 Y96.111 E0.02829
G1 X178.869 Y96.776 E0.03842
G1 X178.049 Y97.709 E0.05794
G1 X176.311 Y99.742 E0.12477
G1 X174.597 Y101.866 E0.12732
G1 X172.958 Y104.017 E0.12615
G1 X171.389 Y106.204 E0.12556
G1 X169.886 Y108.429 E0.12525
G1 X168.44 Y110.706 E0.12582
G1 X167.05 Y113.038 E0.12664
G1 X165.744 Y115.376 E0.12492
G1 X164.492 Y117.777 E0.12631
G1 X163.312 Y120.203 E0.12584
G1 X162.194 Y122.676 E0.1266
G1 X161.154 Y125.167 E0.12592
G1 X160.177 Y127.697 E0.12651
G1 X159.293 Y130.2 E0.12383
G1 X158.462 Y132.783 E0.12657
G1 X157.704 Y135.391 E0.12669
G1 X157.033 Y137.966 E0.12413
G1 X156.416 Y140.644 E0.12819
G1 X155.891 Y143.261 E0.12451
G1 X155.434 Y145.924 E0.12604
G1 X155.052 Y148.61 E0.12656
G1 X154.749 Y151.271 E0.12493
G1 X154.522 Y153.933 E0.12463
G1 X154.367 Y156.672 E0.12797
G1 X154.29 Y159.358 E0.12535
G1 X154.28 Y160.75 E0.06493
G1 X154.279 Y224.334 E2.96602
G1 X154.268 Y225.061 E0.03392
G1 X154.219 Y225.665 E0.02827
G1 X154.091 Y226.258 E0.0283
G1 X153.886 Y226.828 E0.02826
G1 X153.608 Y227.367 E0.02829
G1 X153.261 Y227.864 E0.02828
G1 X152.852 Y228.312 E0.0283
G1 X152.388 Y228.702 E0.02827
G1 X151.876 Y229.027 E0.02829
G1 X151.326 Y229.282 E0.02828
G1 X150.748 Y229.463 E0.02825
G1 X150.15 Y229.566 E0.02831
G1 X149.799 Y229.589 E0.01641
G1 X149.35 Y229.6 E0.02095
G1 X128.624 Y229.6 E0.96681
G1 X127.926 Y229.591 E0.03256
G1 X127.321 Y229.543 E0.02831
G1 X126.728 Y229.416 E0.02829
G1 X126.157 Y229.212 E0.02828
G1 X125.618 Y228.935 E0.02827
G1 X125.12 Y228.59 E0.02826
G1 X124.671 Y228.182 E0.0283
G1 X124.281 Y227.718 E0.02827
G1 X123.954 Y227.207 E0.0283
G1 X123.698 Y226.658 E0.02826
G1 X123.516 Y226.08 E0.02827
G1 X123.411 Y225.482 E0.02832
G1 X123.387 Y225.115 E0.01716
G1 X123.376 Y224.658 E0.02132
G1 X123.376 Y151.557 E3.40997
G1 X123.337 Y148.783 E0.12941
G1 X123.222 Y146.076 E0.12639
G1 X123.035 Y143.441 E0.12322
G1 X122.765 Y140.713 E0.12788
G1 X122.421 Y138.029 E0.12623
G1 X122.008 Y135.401 E0.12409
G1 X121.509 Y132.714 E0.12748
G1 X120.944 Y130.089 E0.12525
G1 X120.275 Y127.367 E0.13075
G1 X119.963 Y126.167 E0.05784
G1 X119.849 Y125.571 E0.02831
G1 X119.815 Y124.966 E0.02827
G1 X119.882 Y124.227 E0.03461
G1 X120.041 Y123.307 E0.04355
G1 X129.289 Y74.82 E2.30256
G1 X129.44 Y74.085 E0.035
G1 X129.6 Y73.5 E0.02829
G1 X129.837 Y72.942 E0.02828
G1 X130.144 Y72.419 E0.02829
G0 F12000 X130.519 Y72.581
G1 F4800 X130.886 Y72.133 E0.02701
G1 X131.31 Y71.739 E0.027
G1 X131.786 Y71.407 E0.02707
G1 X132.302 Y71.144 E0.02702
G1 X132.849 Y70.955 E0.027
G1 X133.417 Y70.842 E0.02701
G1 X133.886 Y70.809 E0.02193
G1 X134.519 Y70.8 E0.02953
G1 X174.777 Y70.8 E1.87793
G1 X175.475 Y70.81 E0.03256
G1 X176.052 Y70.859 E0.02701
G1 X176.618 Y70.986 E0.02706
G1 X177.16 Y71.19 E0.02701
G1 X177.669 Y71.466 E0.02701
G1 X178.135 Y71.81 E0.02702
G1 X178.55 Y72.215 E0.02705
G1 X178.905 Y72.673 E0.02703
G1 X179.193 Y73.175 E0.027
G1 X179.41 Y73.712 E0.02702
G1 X179.55 Y74.274 E0.02702
G1 X179.613 Y74.892 E0.02898
G1 X179.624 Y75.33 E0.02044
G1 X179.624 Y93.097 E0.82878
G1 X179.614 Y93.799 E0.03275
G1 X179.565 Y94.376 E0.02701
G1 X179.438 Y94.941 E0.02701
G1 X179.235 Y95.484 E0.02704
G1 X178.958 Y95.993 E0.02703
G1 X178.569 Y96.512 E0.03026
G1 X177.749 Y97.445 E0.05794
G1 X175.997 Y99.493 E0.12572
G1 X174.283 Y101.618 E0.12735
G1 X172.643 Y103.77 E0.12621
G1 X171.077 Y105.953 E0.12532
G1 X169.534 Y108.238 E0.12862
G1 X168.092 Y110.508 E0.12545
G1 X166.715 Y112.818 E0.12545
G1 X165.383 Y115.203 E0.12743
G1 X164.135 Y117.596 E0.1259
G1 X162.945 Y120.042 E0.12689
G1 X161.836 Y122.494 E0.12553
G1 X160.769 Y125.049 E0.12916
G1 X159.814 Y127.526 E0.12384
G1 X158.907 Y130.092 E0.12695
G1 X158.083 Y132.654 E0.12554
G1 X157.318 Y135.283 E0.12772
G1 X156.642 Y137.881 E0.12523
G1 X156.028 Y140.547 E0.12762
G1 X155.498 Y143.186 E0.12556
G1 X155.039 Y145.866 E0.12684
G1 X154.657 Y148.545 E0.12623
G1 X154.352 Y151.225 E0.12582
G1 X154.12 Y153.95 E0.12757
G1 X153.967 Y156.638 E0.12559
G1 X153.89 Y159.343 E0.12623
G1 X153.88 Y160.747 E0.06549
G1 X153.88 Y224.328 E2.96588
G1 X153.869 Y225.055 E0.03392
G1 X153.82 Y225.632 E0.02701
G1 X153.692 Y226.197 E0.02702
G1 X153.488 Y226.739 E0.02701
G1 X153.211 Y227.248 E0.02703
G1 X152.867 Y227.714 E0.02702
G1 X152.462 Y228.128 E0.02702
G1 X152.004 Y228.482 E0.027
G1 X151.501 Y228.77 E0.02704
G1 X150.963 Y228.987 E0.02706
G1 X150.401 Y229.127 E0.02702
G1 X149.787 Y229.189 E0.02879
G1 X149.35 Y229.2 E0.02039
G1 X128.629 Y229.2 E0.96658
G1 X127.931 Y229.191 E0.03256
G1 X127.353 Y229.143 E0.02705
G1 X126.788 Y229.017 E0.027
G1 X126.246 Y228.814 E0.027
G1 X125.736 Y228.538 E0.02705
G1 X125.269 Y228.195 E0.02703
G1 X124.854 Y227.791 E0.02702
G1 X124.499 Y227.333 E0.02703
G1 X124.21 Y226.831 E0.02702
G1 X123.992 Y226.294 E0.02704
G1 X123.851 Y225.733 E0.02698
G1 X123.787 Y225.104 E0.02949
G1 X123.776 Y224.658 E0.02081
G1 X123.776 Y151.551 E3.41025
G1 X123.737 Y148.76 E0.13021
G1 X123.622 Y146.067 E0.12574
G1 X123.434 Y143.406 E0.12444
G1 X123.161 Y140.658 E0.12882
G1 X122.819 Y137.987 E0.12561
G1 X122.398 Y135.303 E0.12673
G1 X121.907 Y132.662 E0.12531
G1 X121.335 Y130.007 E0.12669
G1 X120.648 Y127.211 E0.13431
G1 X120.35 Y126.066 E0.05519
G1 X120.243 Y125.496 E0.02705
G1 X120.216 Y124.918 E0.02699
G1 X120.276 Y124.295 E0.0292
G1 X120.434 Y123.382 E0.04322
G1 X129.682 Y74.895 E2.30256
G1 X129.832 Y74.165 E0.03476
G1 X129.987 Y73.607 E0.02701
G1 X130.217 Y73.076 E0.02699
G1 X130.519 Y72.581 E0.02705
G10
G1 F600 Z0.7
;MESH:???????????????.STL
G0 F12000 X163.888 Y87.792 Z0.7
;TYPE:WALL-INNER
G1 F600 Z0.3
G11
G1 F4800 X163.556 Y87.413 E0.0235
G1 X163.457 Y87.279 E0.00777
G1 X163.193 Y86.853 E0.02338
G1 X163.115 Y86.697 E0.00814
G1 X162.926 Y86.221 E0.02389
G1 X162.877 Y86.059 E0.00789
G1 X162.775 Y85.579 E0.02289
G1 X162.754 Y85.414 E0.00776
G1 X162.734 Y84.83 E0.02726
G1 X162.817 Y84.17 E0.03103
G1 X162.986 Y83.608 E0.02738
G1 X163.049 Y83.45 E0.00793
G1 X163.275 Y83.003 E0.02336
G1 X163.363 Y82.86 E0.00783
G1 X163.662 Y82.455 E0.02348
G1 X163.772 Y82.329 E0.0078
G1 X164.132 Y81.983 E0.02329
G1 X164.268 Y81.873 E0.00816
G1 X164.682 Y81.594 E0.02329
G1 X164.832 Y81.511 E0.008
G1 X165.288 Y81.306 E0.02332
G1 X165.442 Y81.252 E0.00761
G1 X166.007 Y81.107 E0.02721
G1 X166.594 Y81.053 E0.0275
G1 X166.766 Y81.053 E0.00802
G1 X167.266 Y81.096 E0.02341
G1 X167.435 Y81.125 E0.008
G1 X167.918 Y81.252 E0.0233
G1 X168.071 Y81.306 E0.00757
G1 X168.528 Y81.51 E0.02335
G1 X168.68 Y81.595 E0.00812
G1 X169.14 Y81.907 E0.02593
G1 X169.227 Y81.982 E0.00536
G1 X169.588 Y82.329 E0.02336
G1 X169.697 Y82.454 E0.00774
G1 X169.995 Y82.856 E0.02334
G1 X170.084 Y83.001 E0.00794
G1 X170.311 Y83.451 E0.02351
G1 X170.374 Y83.608 E0.00789
G1 X170.52 Y84.083 E0.02318
G1 X170.556 Y84.25 E0.00797
G1 X170.62 Y84.751 E0.02356
G1 X170.628 Y84.878 E0.00594
G1 X170.606 Y85.414 E0.02502
G1 X170.593 Y85.544 E0.00609
G1 X170.482 Y86.061 E0.02467
G1 X170.435 Y86.219 E0.00769
G1 X170.246 Y86.695 E0.02389
G1 X170.167 Y86.853 E0.00824
G1 X169.904 Y87.279 E0.02335
G1 X169.805 Y87.413 E0.00777
G1 X169.44 Y87.827 E0.02575
G1 X169.349 Y87.911 E0.00578
G1 X168.959 Y88.224 E0.02333
G1 X168.822 Y88.317 E0.00772
G1 X168.39 Y88.56 E0.02312
G1 X168.233 Y88.632 E0.00806
G1 X167.76 Y88.799 E0.0234
G1 X167.595 Y88.841 E0.00794
G1 X167.097 Y88.926 E0.02357
G1 X166.928 Y88.94 E0.00791
G1 X166.432 Y88.94 E0.02314
G1 X166.263 Y88.926 E0.00791
G1 X165.765 Y88.841 E0.02357
G1 X165.6 Y88.798 E0.00795
G1 X165.128 Y88.631 E0.02336
G1 X164.972 Y88.561 E0.00798
G1 X164.539 Y88.318 E0.02316
G1 X164.4 Y88.224 E0.00783
G1 X164.011 Y87.91 E0.02332
G1 X163.888 Y87.792 E0.00795
G0 F12000 X164.189 Y87.528
G1 F4800 X163.857 Y87.149 E0.0235
G1 X163.797 Y87.069 E0.00466
G1 X163.534 Y86.643 E0.02335
G1 X163.487 Y86.549 E0.0049
G1 X163.298 Y86.073 E0.02389
G1 X163.269 Y85.976 E0.00472
G1 X163.158 Y85.445 E0.02531
G1 X163.133 Y84.85 E0.02778
G1 X163.208 Y84.252 E0.02811
G1 X163.368 Y83.725 E0.02569
G1 X163.406 Y83.631 E0.00473
G1 X163.632 Y83.184 E0.02336
G1 X163.685 Y83.098 E0.00471
G1 X163.984 Y82.693 E0.02348
G1 X164.05 Y82.617 E0.0047
G1 X164.41 Y82.271 E0.02329
G1 X164.491 Y82.205 E0.00487
G1 X164.905 Y81.926 E0.02329
G1 X164.995 Y81.876 E0.0048
G1 X165.451 Y81.672 E0.0233
G1 X165.544 Y81.639 E0.0046
G1 X166.076 Y81.501 E0.02564
G1 X166.628 Y81.452 E0.02585
G1 X166.732 Y81.452 E0.00485
G1 X167.232 Y81.495 E0.02341
