;FLAVOR:RepRap
;TIME:6252
;Filament used: 13.7482m
;Layer height: 0.2
;MINX:119.176
;MINY:44.556
;MINZ:0.3
;MAXX:180.982
;MAXY:256.7
;MAXZ:58.1
;Generated with Cura_SteamEngine 5.2.1
T0
M190 S100
M104 S260
M109 S260
M82 ;absolute extrusion mode
print_start
M83 ;relative extrusion mode
G10
;LAYER_COUNT:290
;LAYER:0
M107
G1 F600 Z0.7
G0 F12000 X119.568 Y47.968 Z0.7
;TYPE:SKIRT
G1 F600 Z0.3
G11
G1 F4800 X119.847 Y47.374 E0.03061
G1 X120.197 Y46.818 E0.03065
G1 X120.612 Y46.308 E0.03067
G1 X121.085 Y45.853 E0.03062
G1 X121.61 Y45.458 E0.03065
G1 X122.18 Y45.13 E0.03068
G1 X122.785 Y44.874 E0.03064
G1 X123.416 Y44.693 E0.03062
G1 X124.065 Y44.59 E0.03065
G1 X124.434 Y44.567 E0.01725
G1 X124.906 Y44.556 E0.02202
G1 X165.595 Y44.556 E1.89803
G1 X166.371 Y44.567 E0.0362
G1 X167.026 Y44.616 E0.03064
G1 X167.671 Y44.744 E0.03067
G1 X168.295 Y44.95 E0.03065
G1 X168.889 Y45.23 E0.03063
G1 X169.445 Y45.58 E0.03065
G1 X169.954 Y45.995 E0.03064
G1 X170.409 Y46.469 E0.03065
G1 X170.803 Y46.995 E0.03066
G1 X171.131 Y47.564 E0.03064
G1 X171.386 Y48.17 E0.03067
G1 X171.58 Y48.864 E0.03361
G1 X171.726 Y49.568 E0.03354
G1 X180.791 Y97.094 E2.25693
G1 X180.91 Y97.78 E0.03248
G1 X180.982 Y98.433 E0.03065
G1 X180.975 Y99.09 E0.03065
G1 X180.821 Y100.041 E0.04494
G1 X180.548 Y101.104 E0.0512
G1 X180.363 Y101.788 E0.03305
G1 X179.74 Y104.381 E0.1244
G1 X179.185 Y107.022 E0.12589
G1 X178.711 Y109.634 E0.12383
G1 X178.309 Y112.277 E0.12471
G1 X177.984 Y114.915 E0.12399
G1 X177.728 Y117.609 E0.12623
G1 X177.552 Y120.265 E0.12417
G1 X177.451 Y122.926 E0.12422
G1 X177.424 Y125.25 E0.10842
G1 X177.423 Y250.638 E5.84902
G1 X177.413 Y251.365 E0.03392
G1 X177.365 Y252.02 E0.03064
G1 X177.236 Y252.665 E0.03068
G1 X177.031 Y253.289 E0.03064
G1 X176.751 Y253.883 E0.03063
G1 X176.401 Y254.439 E0.03065
G1 X175.987 Y254.949 E0.03064
G1 X175.513 Y255.404 E0.03065
G1 X174.988 Y255.799 E0.03065
G1 X174.418 Y256.126 E0.03065
G1 X173.813 Y256.382 E0.03064
G1 X173.182 Y256.563 E0.03062
G1 X172.533 Y256.666 E0.03065
G1 X172.166 Y256.689 E0.01715
G1 X171.694 Y256.7 E0.02202
G1 X164.157 Y256.7 E0.35158
G1 X163.459 Y256.691 E0.03256
G1 X162.804 Y256.642 E0.03064
G1 X162.16 Y256.515 E0.03062
G1 X161.536 Y256.31 E0.03064
G1 X160.941 Y256.03 E0.03067
G1 X160.385 Y255.681 E0.03062
G1 X159.875 Y255.267 E0.03064
G1 X159.419 Y254.794 E0.03065
G1 X159.024 Y254.268 E0.03068
G1 X158.696 Y253.699 E0.03064
G1 X158.439 Y253.095 E0.03062
G1 X158.258 Y252.463 E0.03067
G1 X158.154 Y251.814 E0.03066
G1 X158.131 Y251.437 E0.01762
G1 X158.12 Y250.958 E0.02235
G1 X158.12 Y248.345 E0.12189
G1 X158.082 Y245.681 E0.12428
G1 X157.968 Y242.985 E0.12587
G1 X157.781 Y240.357 E0.1229
G1 X157.512 Y237.638 E0.12745
G1 X157.179 Y235.038 E0.12227
G1 X156.757 Y232.353 E0.12679
G1 X156.27 Y229.732 E0.12436
G1 X155.71 Y227.13 E0.12416
G1 X155.073 Y224.529 E0.12492
G1 X154.37 Y221.976 E0.12352
G1 X153.577 Y219.384 E0.12644
G1 X152.719 Y216.843 E0.12511
G1 X151.794 Y214.333 E0.12478
G1 X150.793 Y211.84 E0.12532
G1 X149.731 Y209.4 E0.12413
G1 X148.604 Y206.997 E0.12381
G1 X147.39 Y204.585 E0.12596
G1 X146.071 Y202.146 E0.12934
G1 X145.616 Y201.332 E0.0435
G1 X145.331 Y200.74 E0.03065
G1 X145.12 Y200.118 E0.03064
G1 X144.986 Y199.475 E0.03064
G1 X144.933 Y198.862 E0.0287
G1 X144.92 Y198.37 E0.02296
G1 X144.92 Y134.407 E2.9837
G1 X144.882 Y131.743 E0.12428
G1 X144.768 Y129.047 E0.12587
G1 X144.581 Y126.419 E0.1229
G1 X144.312 Y123.7 E0.12745
G1 X143.979 Y121.1 E0.12227
G1 X143.557 Y118.415 E0.12679
G1 X143.07 Y115.794 E0.12436
G1 X142.51 Y113.192 E0.12416
G1 X141.873 Y110.591 E0.12492
G1 X141.17 Y108.038 E0.12352
G1 X140.377 Y105.446 E0.12644
G1 X139.519 Y102.905 E0.12511
G1 X138.594 Y100.395 E0.12478
G1 X137.593 Y97.902 E0.12532
G1 X136.531 Y95.462 E0.12413
G1 X135.404 Y93.059 E0.12381
G1 X134.181 Y90.629 E0.1269
G1 X132.932 Y88.317 E0.12258
G1 X131.57 Y85.955 E0.12719
G1 X130.197 Y83.724 E0.1222
G1 X128.708 Y81.45 E0.12679
G1 X127.192 Y79.274 E0.12371
G1 X125.598 Y77.117 E0.12511
G1 X123.944 Y75.006 E0.1251
G1 X122.247 Y72.962 E0.12393
G1 X120.527 Y71.002 E0.12164
G1 X120.125 Y70.483 E0.03062
G1 X119.788 Y69.918 E0.03069
G1 X119.523 Y69.318 E0.0306
G1 X119.332 Y68.689 E0.03066
G1 X119.22 Y68.042 E0.03063
G1 X119.189 Y67.606 E0.02039
G1 X119.176 Y67.114 E0.02296
G1 X119.176 Y50.557 E0.77234
G1 X119.185 Y49.892 E0.03102
G1 X119.234 Y49.237 E0.03064
G1 X119.362 Y48.592 E0.03067
G1 X119.568 Y47.968 E0.03065
G0 F12000 X119.966 Y48.05
G1 F4800 X120.245 Y47.482 E0.02952
G1 X120.593 Y46.955 E0.02946
G1 X121.005 Y46.475 E0.02951
G1 X121.473 Y46.051 E0.02946
G1 X121.992 Y45.69 E0.02949
G1 X122.552 Y45.397 E0.02948
G1 X123.145 Y45.177 E0.0295
G1 X123.761 Y45.033 E0.02951
G1 X124.445 Y44.967 E0.03205
G1 X124.906 Y44.956 E0.02151
G1 X165.595 Y44.956 E1.89803
G1 X166.366 Y44.967 E0.03597
G1 X166.996 Y45.015 E0.02947
G1 X167.615 Y45.144 E0.0295
G1 X168.213 Y45.349 E0.02949
G1 X168.78 Y45.628 E0.02948
G1 X169.307 Y45.976 E0.02946
G1 X169.787 Y46.388 E0.02951
G1 X170.21 Y46.858 E0.0295
G1 X170.571 Y47.377 E0.02949
G1 X170.864 Y47.937 E0.02948
G1 X171.083 Y48.53 E0.02949
G1 X171.189 Y48.946 E0.02003
G1 X171.317 Y49.56 E0.02926
G1 X180.396 Y97.162 E2.26053
G1 X180.515 Y97.848 E0.03248
G1 X180.584 Y98.477 E0.02952
G1 X180.572 Y99.109 E0.02949
G1 X180.433 Y99.942 E0.03939
G1 X180.162 Y101 E0.05095
G1 X179.983 Y101.662 E0.03199
G1 X179.346 Y104.311 E0.12709
G1 X178.794 Y106.94 E0.12531
G1 X178.316 Y109.574 E0.12488
G1 X177.91 Y112.239 E0.12575
G1 X177.587 Y114.864 E0.12337
G1 X177.33 Y117.578 E0.12717
G1 X177.152 Y120.26 E0.12538
G1 X177.052 Y122.906 E0.12352
G1 X177.024 Y125.245 E0.10912
G1 X177.024 Y250.633 E5.84902
G1 X177.014 Y251.36 E0.03392
G1 X176.965 Y251.99 E0.02948
G1 X176.837 Y252.609 E0.02949
G1 X176.632 Y253.207 E0.02949
G1 X176.354 Y253.775 E0.0295
G1 X176.006 Y254.302 E0.02946
G1 X175.594 Y254.782 E0.02951
G1 X175.125 Y255.206 E0.02949
G1 X174.606 Y255.567 E0.02949
G1 X174.046 Y255.86 E0.02948
G1 X173.453 Y256.079 E0.02949
G1 X172.837 Y256.223 E0.02951
G1 X172.155 Y256.289 E0.03196
G1 X171.694 Y256.3 E0.02151
G1 X164.163 Y256.3 E0.3513
G1 X163.465 Y256.291 E0.03256
G1 X162.834 Y256.242 E0.02952
G1 X162.215 Y256.115 E0.02948
G1 X161.617 Y255.911 E0.02947
G1 X161.049 Y255.633 E0.0295
G1 X160.521 Y255.285 E0.0295
G1 X160.041 Y254.874 E0.02948
G1 X159.617 Y254.405 E0.02949
G1 X159.255 Y253.887 E0.02948
G1 X158.962 Y253.327 E0.02948
G1 X158.742 Y252.734 E0.0295
G1 X158.598 Y252.119 E0.02946
G1 X158.531 Y251.426 E0.03248
G1 X158.52 Y250.958 E0.02184
G1 X158.52 Y248.345 E0.12189
G1 X158.482 Y245.658 E0.12535
G1 X158.368 Y242.976 E0.12522
G1 X158.18 Y240.322 E0.12411
G1 X157.912 Y237.623 E0.12652
G1 X157.567 Y234.924 E0.12693
G1 X157.159 Y232.324 E0.12277
G1 X156.661 Y229.646 E0.12706
G1 X156.096 Y227.023 E0.12516
G1 X155.47 Y224.466 E0.1228
G1 X154.74 Y221.816 E0.12822
G1 X153.966 Y219.286 E0.12342
G1 X153.091 Y216.693 E0.12766
G1 X152.177 Y214.213 E0.12329
G1 X151.166 Y211.697 E0.12649
G1 X150.088 Y209.22 E0.12601
G1 X148.966 Y206.826 E0.12333
G1 X147.741 Y204.394 E0.12703
G1 X146.387 Y201.89 E0.13279
G1 X145.966 Y201.137 E0.04024
G1 X145.693 Y200.566 E0.02952
G1 X145.494 Y199.966 E0.02949
G1 X145.372 Y199.346 E0.02948
G1 X145.332 Y198.85 E0.02321
G1 X145.32 Y198.37 E0.0224
G1 X145.32 Y134.407 E2.9837
G1 X145.282 Y131.72 E0.12535
G1 X145.168 Y129.038 E0.12522
G1 X144.98 Y126.384 E0.12411
G1 X144.712 Y123.685 E0.12652
G1 X144.367 Y120.986 E0.12693
G1 X143.959 Y118.386 E0.12277
G1 X143.461 Y115.708 E0.12706
G1 X142.896 Y113.085 E0.12516
G1 X142.27 Y110.528 E0.1228
G1 X141.54 Y107.878 E0.12822
G1 X140.766 Y105.348 E0.12342
G1 X139.891 Y102.755 E0.12766
G1 X138.977 Y100.275 E0.12329
G1 X137.966 Y97.759 E0.12649
G1 X136.888 Y95.282 E0.12601
G1 X135.766 Y92.888 E0.12333
G1 X134.532 Y90.438 E0.12796
G1 X133.273 Y88.107 E0.12358
G1 X131.939 Y85.793 E0.12459
G1 X130.513 Y83.476 E0.12691
G1 X129.054 Y81.248 E0.12423
G1 X127.498 Y79.013 E0.12703
G1 X125.933 Y76.895 E0.12284
G1 X124.238 Y74.732 E0.12819
G1 X122.555 Y72.705 E0.1229
G1 X120.828 Y70.738 E0.1221
G1 X120.442 Y70.238 E0.02947
G1 X120.122 Y69.692 E0.02952
G1 X119.874 Y69.111 E0.02947
G1 X119.7 Y68.503 E0.0295
G1 X119.588 Y67.593 E0.04277
G1 X119.576 Y67.114 E0.02235
G1 X119.576 Y50.562 E0.77211
G1 X119.585 Y49.897 E0.03102
G1 X119.634 Y49.267 E0.02948
G1 X119.762 Y48.648 E0.02949
G1 X119.966 Y48.05 E0.02947
G0 F12000 X120.365 Y48.135
G1 F4800 X120.642 Y47.596 E0.02827
G1 X120.988 Y47.098 E0.02829
G1 X121.396 Y46.649 E0.0283
G1 X121.86 Y46.259 E0.02827
G1 X122.371 Y45.933 E0.02827
G1 X122.921 Y45.677 E0.0283
G1 X123.499 Y45.495 E0.02827
G1 X124.097 Y45.391 E0.02831
G1 X124.456 Y45.367 E0.01678
G1 X124.906 Y45.356 E0.021
G1 X165.661 Y45.356 E1.90111
G1 X166.36 Y45.366 E0.03261
G1 X166.964 Y45.415 E0.02827
G1 X167.557 Y45.543 E0.0283
G1 X168.128 Y45.747 E0.02828
G1 X168.667 Y46.025 E0.02829
G1 X169.164 Y46.371 E0.02825
G1 X169.612 Y46.78 E0.0283
G1 X170.002 Y47.244 E0.02827
G1 X170.328 Y47.755 E0.02827
G1 X170.584 Y48.305 E0.0283
G1 X170.797 Y49.027 E0.03511
G1 X170.941 Y49.718 E0.03293
G1 X179.989 Y97.155 E2.2527
G1 X180.121 Y97.917 E0.03607
G1 X180.185 Y98.52 E0.02829
G1 X180.17 Y99.126 E0.02828
G1 X180.046 Y99.843 E0.03394
G1 X179.776 Y100.895 E0.05066
G1 X179.594 Y101.569 E0.03257
G1 X178.96 Y104.207 E0.12656
G1 X178.395 Y106.892 E0.12799
G1 X177.928 Y109.473 E0.12235
G1 X177.512 Y112.202 E0.12877
G1 X177.186 Y114.849 E0.12441
G1 X176.933 Y117.514 E0.12487
G1 X176.754 Y120.217 E0.12636
G1 X176.651 Y122.925 E0.12641
G1 X176.624 Y125.24 E0.108
G1 X176.624 Y250.627 E5.84897
G1 X176.614 Y251.354 E0.03392
G1 X176.565 Y251.959 E0.02831
G1 X176.438 Y252.551 E0.02824
G1 X176.234 Y253.122 E0.02828
G1 X175.956 Y253.661 E0.02829
G1 X175.61 Y254.159 E0.02829
G1 X175.202 Y254.607 E0.02827
G1 X174.738 Y254.998 E0.0283
G1 X174.227 Y255.324 E0.02827
G1 X173.677 Y255.58 E0.0283
G1 X173.099 Y255.761 E0.02825
G1 X172.501 Y255.865 E0.02831
G1 X172.143 Y255.889 E0.01674
G1 X171.694 Y255.9 E0.02095
G1 X164.168 Y255.9 E0.35107
G1 X163.47 Y255.891 E0.03256
G1 X162.865 Y255.843 E0.02831
G1 X162.272 Y255.716 E0.02829
G1 X161.701 Y255.512 E0.02828
G1 X161.162 Y255.235 E0.02827
G1 X160.664 Y254.89 E0.02826
G1 X160.215 Y254.482 E0.0283
G1 X159.825 Y254.018 E0.02827
G1 X159.498 Y253.507 E0.0283
G1 X159.242 Y252.958 E0.02826
G1 X159.06 Y252.38 E0.02827
G1 X158.955 Y251.782 E0.02832
G1 X158.931 Y251.415 E0.01716
G1 X158.92 Y250.958 E0.02132
G1 X158.92 Y248.41 E0.11886
G1 X158.881 Y245.636 E0.12941
G1 X158.766 Y242.929 E0.12639
G1 X158.579 Y240.294 E0.12322
G1 X158.309 Y237.566 E0.12788
G1 X157.965 Y234.882 E0.12623
G1 X157.552 Y232.254 E0.12409
G1 X157.053 Y229.567 E0.12748
G1 X156.488 Y226.941 E0.1253
G1 X155.85 Y224.336 E0.12511
G1 X155.135 Y221.739 E0.12565
G1 X154.341 Y219.147 E0.12646
G1 X153.469 Y216.563 E0.12722
G1 X152.551 Y214.073 E0.12379
G1 X151.533 Y211.538 E0.12743
G1 X150.453 Y209.056 E0.12626
G1 X149.327 Y206.655 E0.1237
G1 X148.085 Y204.188 E0.12884
G1 X146.739 Y201.699 E0.13199
G1 X146.315 Y200.941 E0.04051
G1 X146.054 Y200.394 E0.02827
G1 X145.868 Y199.817 E0.02828
G1 X145.76 Y199.22 E0.0283
G1 X145.732 Y198.838 E0.01787
G1 X145.72 Y198.37 E0.02184
G1 X145.72 Y134.472 E2.98067
G1 X145.681 Y131.698 E0.12941
G1 X145.566 Y128.991 E0.12639
G1 X145.379 Y126.356 E0.12322
G1 X145.109 Y123.628 E0.12788
G1 X144.765 Y120.944 E0.12623
G1 X144.352 Y118.316 E0.12409
G1 X143.853 Y115.629 E0.12748
G1 X143.288 Y113.003 E0.1253
G1 X142.65 Y110.398 E0.12511
G1 X141.935 Y107.801 E0.12565
G1 X141.141 Y105.209 E0.12646
G1 X140.269 Y102.625 E0.12722
G1 X139.351 Y100.135 E0.12379
G1 X138.333 Y97.6 E0.12743
G1 X137.253 Y95.118 E0.12626
G1 X136.127 Y92.717 E0.1237
G1 X134.883 Y90.247 E0.12901
G1 X133.628 Y87.923 E0.12321
G1 X132.268 Y85.563 E0.12706
G1 X130.856 Y83.268 E0.1257
G1 X129.39 Y81.03 E0.1248
G1 X127.844 Y78.81 E0.12619
G1 X126.223 Y76.617 E0.12721
G1 X124.575 Y74.514 E0.12463
G1 X122.828 Y72.41 E0.12757
G1 X121.129 Y70.474 E0.12015
G1 X120.76 Y69.993 E0.02828
G1 X120.457 Y69.468 E0.02828
G1 X120.226 Y68.907 E0.0283
G1 X120.071 Y68.321 E0.02828
G1 X119.988 Y67.581 E0.03474
G1 X119.976 Y67.114 E0.02179
G1 X119.976 Y50.568 E0.77183
G1 X119.985 Y49.903 E0.03102
G1 X120.034 Y49.298 E0.02831
G1 X120.161 Y48.706 E0.02824
G1 X120.365 Y48.135 E0.02828
G0 F12000 X120.763 Y48.223
G1 F4800 X121.039 Y47.714 E0.02701
G1 X121.383 Y47.247 E0.02706
G1 X121.787 Y46.833 E0.02698
G1 X122.245 Y46.477 E0.02706
G1 X122.747 Y46.189 E0.027
G1 X123.284 Y45.972 E0.02702
G1 X123.846 Y45.831 E0.02703
G1 X124.467 Y45.767 E0.02912
G1 X124.906 Y45.756 E0.02048
G1 X165.655 Y45.756 E1.90083
G1 X166.354 Y45.766 E0.03261
G1 X166.931 Y45.815 E0.02701
G1 X167.497 Y45.942 E0.02706
G1 X168.039 Y46.146 E0.02701
G1 X168.548 Y46.422 E0.02701
G1 X169.014 Y46.766 E0.02702
G1 X169.429 Y47.171 E0.02705
G1 X169.783 Y47.629 E0.027
G1 X170.072 Y48.131 E0.02702
G1 X170.288 Y48.668 E0.027
G1 X170.406 Y49.109 E0.0213
G1 X170.548 Y49.793 E0.03259
G1 X179.596 Y97.23 E2.2527
G1 X179.727 Y97.985 E0.03574
G1 X179.787 Y98.561 E0.02701
G1 X179.766 Y99.14 E0.02703
G1 X179.658 Y99.744 E0.02862
G1 X179.39 Y100.791 E0.05041
G1 X179.205 Y101.477 E0.03314
G1 X178.566 Y104.136 E0.12757
G1 X178.011 Y106.776 E0.12584
G1 X177.525 Y109.453 E0.12692
G1 X177.119 Y112.124 E0.12603
G1 X176.789 Y114.798 E0.12568
G1 X176.534 Y117.484 E0.12586
G1 X176.353 Y120.211 E0.12749
G1 X176.251 Y122.905 E0.12576
G1 X176.224 Y125.236 E0.10874
G1 X176.224 Y250.622 E5.84892
G1 X176.214 Y251.349 E0.03392
G1 X176.166 Y251.926 E0.02701
G1 X176.039 Y252.491 E0.02701
G1 X175.835 Y253.034 E0.02706
G1 X175.559 Y253.543 E0.02701
G1 X175.216 Y254.009 E0.02699
G1 X174.811 Y254.424 E0.02705
G1 X174.353 Y254.779 E0.02703
G1 X173.851 Y255.068 E0.02702
G1 X173.314 Y255.285 E0.02702
G1 X172.752 Y255.426 E0.02703
G1 X172.132 Y255.489 E0.02907
G1 X171.694 Y255.5 E0.02044
G1 X164.173 Y255.5 E0.35083
G1 X163.475 Y255.491 E0.03256
G1 X162.897 Y255.443 E0.02705
G1 X162.332 Y255.317 E0.027
G1 X161.79 Y255.114 E0.027
G1 X161.28 Y254.838 E0.02705
G1 X160.813 Y254.495 E0.02703
G1 X160.398 Y254.091 E0.02702
G1 X160.043 Y253.633 E0.02703
G1 X159.754 Y253.131 E0.02702
G1 X159.536 Y252.594 E0.02704
G1 X159.395 Y252.033 E0.02698
G1 X159.331 Y251.404 E0.02949
G1 X159.32 Y250.958 E0.02081
G1 X159.32 Y248.404 E0.11914
G1 X159.281 Y245.613 E0.13021
G1 X159.166 Y242.92 E0.12574
G1 X158.978 Y240.259 E0.12444
G1 X158.705 Y237.511 E0.12882
G1 X158.363 Y234.84 E0.12561
G1 X157.942 Y232.156 E0.12673
G1 X157.451 Y229.515 E0.12531
G1 X156.873 Y226.833 E0.12798
G1 X156.238 Y224.24 E0.12453
G1 X155.518 Y221.621 E0.1267
G1 X154.727 Y219.039 E0.12597
G1 X153.852 Y216.445 E0.1277
G1 X152.906 Y213.88 E0.12753
G1 X151.913 Y211.407 E0.12431
G1 X150.83 Y208.919 E0.12658
G1 X149.669 Y206.442 E0.12761
G1 X148.451 Y204.024 E0.1263
G1 X147.119 Y201.56 E0.13066
G1 X146.664 Y200.746 E0.0435
G1 X146.417 Y200.222 E0.02702
G1 X146.244 Y199.669 E0.02703
G1 X146.132 Y198.825 E0.03972
G1 X146.12 Y198.37 E0.02123
G1 X146.12 Y134.466 E2.98095
G1 X146.081 Y131.675 E0.13021
G1 X145.966 Y128.982 E0.12574
G1 X145.778 Y126.321 E0.12444
G1 X145.505 Y123.573 E0.12882
G1 X145.163 Y120.902 E0.12561
G1 X144.742 Y118.218 E0.12673
G1 X144.251 Y115.577 E0.12531
G1 X143.673 Y112.895 E0.12798
G1 X143.038 Y110.302 E0.12453
G1 X142.318 Y107.683 E0.1267
G1 X141.527 Y105.101 E0.12597
G1 X140.652 Y102.507 E0.1277
G1 X139.706 Y99.942 E0.12753
G1 X138.713 Y97.469 E0.12431
G1 X137.63 Y94.981 E0.12658
G1 X136.469 Y92.504 E0.12761
G1 X135.25 Y90.083 E0.12644
G1 X133.969 Y87.712 E0.12571
G1 X132.621 Y85.375 E0.12585
G1 X131.204 Y83.071 E0.12617
G1 X129.704 Y80.781 E0.1277
G1 X128.166 Y78.573 E0.12552
G1 X126.544 Y76.378 E0.12731
G1 X124.882 Y74.257 E0.1257
G1 X123.153 Y72.175 E0.12624
G1 X121.429 Y70.21 E0.12194
G1 X121.078 Y69.75 E0.02699
G1 X120.794 Y69.245 E0.02703
G1 X120.581 Y68.706 E0.02703
G1 X120.445 Y68.143 E0.02702
G1 X120.388 Y67.569 E0.02691
G1 X120.376 Y67.114 E0.02123
G1 X120.376 Y50.573 E0.77159
G1 X120.385 Y49.908 E0.03102
G1 X120.433 Y49.331 E0.02701
G1 X120.56 Y48.766 E0.02701
G1 X120.763 Y48.223 E0.02704
G10
G1 F600 Z0.7
