;FLAVOR:RepRap
;TIME:955
;Filament used: 2.12704m
;Layer height: 0.2
;MINX:119.16
;MINY:126.485
;MINZ:0.3
;MAXX:180.84
;MAXY:173.515
;MAXZ:7.5
;Generated with Cura_SteamEngine 5.2.1
T0
M190 S100
M104 S260
M109 S260
M82 ;absolute extrusion mode
print_start
M83 ;relative extrusion mode
G10
;LAYER_COUNT:35
;LAYER:0
M107
G1 F600 Z0.7
G0 F12000 X121.069 Y127.782 Z0.7
;TYPE:SKIRT
G1 F600 Z0.3
G11
G1 F4800 X121.594 Y127.387 E0.03065
G1 X122.164 Y127.059 E0.03068
G1 X122.769 Y126.803 E0.03064
G1 X123.4 Y126.622 E0.03062
G1 X124.049 Y126.519 E0.03065
G1 X124.418 Y126.496 E0.01725
G1 X124.89 Y126.485 E0.02202
G1 X174.733 Y126.485 E2.32504
G1 X175.508 Y126.496 E0.03616
G1 X176.163 Y126.545 E0.03064
G1 X176.808 Y126.673 E0.03067
G1 X177.432 Y126.879 E0.03065
G1 X178.026 Y127.159 E0.03063
G1 X178.582 Y127.509 E0.03065
G1 X179.091 Y127.925 E0.03066
G1 X179.546 Y128.398 E0.03062
G1 X179.94 Y128.924 E0.03066
G1 X180.268 Y129.494 E0.03068
G1 X180.523 Y130.099 E0.03063
G1 X180.704 Y130.73 E0.03062
G1 X180.806 Y131.379 E0.03065
G1 X180.829 Y131.743 E0.01701
G1 X180.84 Y132.215 E0.02202
G1 X180.84 Y167.446 E1.64343
G1 X180.831 Y168.173 E0.03392
G1 X180.783 Y168.828 E0.03064
G1 X180.655 Y169.473 E0.03067
G1 X180.451 Y170.097 E0.03062
G1 X180.172 Y170.692 E0.03066
G1 X179.823 Y171.248 E0.03062
G1 X179.409 Y171.758 E0.03064
G1 X178.936 Y172.214 E0.03065
G1 X178.411 Y172.609 E0.03065
G1 X177.842 Y172.938 E0.03066
G1 X177.237 Y173.195 E0.03066
G1 X176.606 Y173.377 E0.03063
G1 X175.957 Y173.48 E0.03065
G1 X175.582 Y173.504 E0.01753
G1 X175.11 Y173.515 E0.02202
G1 X125.197 Y173.515 E2.32831
G1 X124.499 Y173.506 E0.03256
G1 X123.844 Y173.457 E0.03064
G1 X123.2 Y173.33 E0.03062
G1 X122.576 Y173.125 E0.03064
G1 X121.981 Y172.845 E0.03067
G1 X121.425 Y172.496 E0.03062
G1 X120.915 Y172.082 E0.03064
G1 X120.459 Y171.609 E0.03065
G1 X120.064 Y171.083 E0.03068
G1 X119.736 Y170.514 E0.03064
G1 X119.479 Y169.91 E0.03062
G1 X119.298 Y169.278 E0.03067
G1 X119.194 Y168.629 E0.03066
G1 X119.171 Y168.252 E0.01762
G1 X119.16 Y167.773 E0.02235
G1 X119.16 Y132.486 E1.64604
G1 X119.169 Y131.821 E0.03102
G1 X119.218 Y131.166 E0.03064
G1 X119.346 Y130.521 E0.03067
G1 X119.552 Y129.897 E0.03065
G1 X119.831 Y129.303 E0.03061
G1 X120.181 Y128.747 E0.03065
G1 X120.596 Y128.237 E0.03067
G1 X121.069 Y127.782 E0.03062
G0 F12000 X121.457 Y127.98
G1 F4800 X121.976 Y127.619 E0.02949
G1 X122.536 Y127.326 E0.02948
G1 X123.129 Y127.106 E0.0295
G1 X123.745 Y126.962 E0.02951
G1 X124.429 Y126.896 E0.03205
G1 X124.89 Y126.885 E0.02151
G1 X174.733 Y126.885 E2.32504
G1 X175.503 Y126.896 E0.03592
G1 X176.133 Y126.945 E0.02948
G1 X176.752 Y127.073 E0.02949
G1 X177.35 Y127.278 E0.02949
G1 X177.917 Y127.557 E0.02948
G1 X178.445 Y127.905 E0.0295
G1 X178.924 Y128.317 E0.02947
G1 X179.347 Y128.787 E0.0295
G1 X179.708 Y129.306 E0.02949
G1 X180.001 Y129.866 E0.02948
G1 X180.22 Y130.459 E0.02949
G1 X180.363 Y131.075 E0.0295
G1 X180.429 Y131.754 E0.03182
G1 X180.44 Y132.215 E0.02151
G1 X180.44 Y167.441 E1.6432
G1 X180.431 Y168.168 E0.03392
G1 X180.383 Y168.798 E0.02947
G1 X180.256 Y169.417 E0.02948
G1 X180.052 Y170.016 E0.02952
G1 X179.774 Y170.584 E0.0295
G1 X179.427 Y171.112 E0.02947
G1 X179.015 Y171.592 E0.02951
G1 X178.547 Y172.016 E0.02946
G1 X178.029 Y172.378 E0.02948
G1 X177.469 Y172.672 E0.0295
G1 X176.877 Y172.892 E0.02946
G1 X176.261 Y173.037 E0.02952
G1 X175.571 Y173.104 E0.03234
G1 X175.11 Y173.115 E0.02151
G1 X125.203 Y173.115 E2.32803
G1 X124.505 Y173.106 E0.03256
G1 X123.874 Y173.057 E0.02952
G1 X123.255 Y172.93 E0.02948
G1 X122.657 Y172.726 E0.02947
G1 X122.089 Y172.448 E0.0295
G1 X121.561 Y172.1 E0.0295
G1 X121.081 Y171.689 E0.02948
G1 X120.657 Y171.22 E0.02949
G1 X120.295 Y170.702 E0.02948
G1 X120.002 Y170.142 E0.02948
G1 X119.782 Y169.549 E0.0295
G1 X119.638 Y168.934 E0.02946
G1 X119.571 Y168.241 E0.03248
G1 X119.56 Y167.773 E0.02184
G1 X119.56 Y132.491 E1.64581
G1 X119.569 Y131.826 E0.03102
G1 X119.618 Y131.196 E0.02948
G1 X119.746 Y130.577 E0.02949
G1 X119.95 Y129.979 E0.02947
G1 X120.229 Y129.411 E0.02952
G1 X120.577 Y128.884 E0.02946
G1 X120.989 Y128.404 E0.02951
G1 X121.457 Y127.98 E0.02946
G0 F12000 X121.844 Y128.188
G1 F4800 X122.355 Y127.862 E0.02827
G1 X122.905 Y127.606 E0.0283
G1 X123.483 Y127.424 E0.02827
G1 X124.081 Y127.32 E0.02831
G1 X124.44 Y127.296 E0.01678
G1 X124.89 Y127.285 E0.021
G1 X174.799 Y127.285 E2.32812
G1 X175.497 Y127.295 E0.03256
G1 X176.101 Y127.344 E0.02827
G1 X176.694 Y127.472 E0.0283
G1 X177.265 Y127.676 E0.02828
G1 X177.804 Y127.954 E0.02829
G1 X178.301 Y128.3 E0.02825
G1 X178.749 Y128.709 E0.0283
G1 X179.139 Y129.173 E0.02827
G1 X179.465 Y129.685 E0.02831
G1 X179.721 Y130.234 E0.02826
G1 X179.902 Y130.813 E0.0283
G1 X180.005 Y131.41 E0.02826
G1 X180.029 Y131.766 E0.01664
G1 X180.04 Y132.215 E0.02095
G1 X180.04 Y167.436 E1.64297
G1 X180.031 Y168.163 E0.03392
G1 X179.983 Y168.767 E0.02826
G1 X179.857 Y169.36 E0.02828
G1 X179.653 Y169.931 E0.02828
G1 X179.377 Y170.471 E0.02829
G1 X179.031 Y170.969 E0.02829
G1 X178.623 Y171.418 E0.0283
G1 X178.16 Y171.809 E0.02827
G1 X177.649 Y172.136 E0.0283
G1 X177.1 Y172.393 E0.02828
G1 X176.522 Y172.575 E0.02827
G1 X175.925 Y172.679 E0.02827
G1 X175.56 Y172.704 E0.01707
G1 X175.11 Y172.715 E0.021
G1 X125.208 Y172.715 E2.3278
G1 X124.51 Y172.706 E0.03256
G1 X123.905 Y172.658 E0.02831
G1 X123.312 Y172.531 E0.02829
G1 X122.741 Y172.327 E0.02828
G1 X122.202 Y172.05 E0.02827
G1 X121.704 Y171.705 E0.02826
G1 X121.255 Y171.297 E0.0283
G1 X120.865 Y170.833 E0.02827
G1 X120.538 Y170.322 E0.0283
G1 X120.282 Y169.773 E0.02826
G1 X120.1 Y169.195 E0.02827
G1 X119.995 Y168.597 E0.02832
G1 X119.971 Y168.23 E0.01716
G1 X119.96 Y167.773 E0.02132
G1 X119.96 Y132.497 E1.64553
G1 X119.969 Y131.832 E0.03102
G1 X120.018 Y131.227 E0.02831
G1 X120.145 Y130.635 E0.02824
G1 X120.349 Y130.064 E0.02828
G1 X120.626 Y129.525 E0.02827
G1 X120.972 Y129.027 E0.02829
G1 X121.38 Y128.578 E0.0283
G1 X121.844 Y128.188 E0.02827
G0 F12000 X122.229 Y128.406
G1 F4800 X122.731 Y128.118 E0.027
G1 X123.268 Y127.901 E0.02702
G1 X123.83 Y127.76 E0.02703
G1 X124.451 Y127.696 E0.02912
G1 X124.89 Y127.685 E0.02048
G1 X174.793 Y127.685 E2.32784
G1 X175.491 Y127.695 E0.03256
G1 X176.068 Y127.744 E0.02701
G1 X176.634 Y127.871 E0.02706
G1 X177.176 Y128.075 E0.02701
G1 X177.685 Y128.351 E0.02701
G1 X178.151 Y128.695 E0.02702
G1 X178.566 Y129.1 E0.02705
G1 X178.921 Y129.558 E0.02703
G1 X179.209 Y130.06 E0.027
G1 X179.426 Y130.597 E0.02702
G1 X179.566 Y131.159 E0.02702
G1 X179.629 Y131.777 E0.02898
G1 X179.64 Y132.215 E0.02044
G1 X179.64 Y167.431 E1.64273
G1 X179.631 Y168.158 E0.03392
G1 X179.584 Y168.735 E0.027
G1 X179.457 Y169.301 E0.02706
G1 X179.255 Y169.843 E0.02698
G1 X178.979 Y170.353 E0.02705
G1 X178.636 Y170.82 E0.02703
G1 X178.232 Y171.235 E0.02702
G1 X177.775 Y171.591 E0.02702
G1 X177.273 Y171.88 E0.02702
G1 X176.736 Y172.098 E0.02704
G1 X176.175 Y172.24 E0.02699
G1 X175.549 Y172.304 E0.02935
G1 X175.11 Y172.315 E0.02048
G1 X125.213 Y172.315 E2.32756
G1 X124.515 Y172.306 E0.03256
G1 X123.937 Y172.258 E0.02705
G1 X123.372 Y172.132 E0.027
G1 X122.83 Y171.929 E0.027
G1 X122.32 Y171.653 E0.02705
G1 X121.853 Y171.31 E0.02703
G1 X121.438 Y170.906 E0.02702
G1 X121.083 Y170.448 E0.02703
G1 X120.794 Y169.946 E0.02702
G1 X120.576 Y169.409 E0.02704
G1 X120.435 Y168.848 E0.02698
G1 X120.371 Y168.219 E0.02949
G1 X120.36 Y167.773 E0.02081
G1 X120.36 Y132.502 E1.6453
G1 X120.369 Y131.837 E0.03102
G1 X120.417 Y131.26 E0.02701
G1 X120.544 Y130.695 E0.02701
G1 X120.747 Y130.152 E0.02704
G1 X121.023 Y129.643 E0.02701
G1 X121.367 Y129.176 E0.02706
G1 X121.771 Y128.762 E0.02698
G1 X122.229 Y128.406 E0.02706
G10
G1 F600 Z0.7
;MESH:??????.STL
G0 F12000 X133.323 Y156.649 Z0.7
;TYPE:WALL-INNER
G1 F600 Z0.3
G11
G1 F4800 X133.177 Y156.433 E0.01216
G1 X133.091 Y156.278 E0.00827
G1 X132.984 Y156.037 E0.0123
G1 X132.931 Y155.886 E0.00747
G1 X132.847 Y155.553 E0.01602
G1 X132.81 Y155.16 E0.01841
G1 X132.813 Y155.031 E0.00602
G1 X132.849 Y154.669 E0.01697
G1 X132.959 Y154.255 E0.01998
G1 X133.134 Y153.867 E0.01985
G1 X133.379 Y153.506 E0.02035
G1 X133.677 Y153.198 E0.01999
G1 X134.039 Y152.934 E0.0209
G1 X134.426 Y152.741 E0.02017
G1 X134.788 Y152.629 E0.01768
G1 X134.89 Y152.609 E0.00485
G1 X135.227 Y152.568 E0.01584
G1 X135.339 Y152.566 E0.00523
G1 X135.661 Y152.582 E0.01504
G1 X136.045 Y152.659 E0.01827
G1 X136.167 Y152.698 E0.00597
G1 X136.503 Y152.835 E0.01693
G1 X136.885 Y153.07 E0.02092
G1 X137.169 Y153.317 E0.01756
G1 X137.237 Y153.388 E0.00459
G1 X137.473 Y153.684 E0.01766
G1 X137.663 Y154.017 E0.01788
G1 X137.703 Y154.106 E0.00455
G1 X137.833 Y154.483 E0.0186
G1 X137.892 Y154.821 E0.01601
G1 X137.906 Y154.986 E0.00772
G1 X137.902 Y155.316 E0.01539
G1 X137.849 Y155.669 E0.01665
G1 X137.803 Y155.846 E0.00853
G1 X137.683 Y156.169 E0.01607
G1 X137.476 Y156.54 E0.01982
G1 X137.204 Y156.878 E0.02024
G1 X136.943 Y157.113 E0.01638
G1 X136.806 Y157.213 E0.00791
G1 X136.58 Y157.352 E0.01238
G1 X136.422 Y157.432 E0.00826
G1 X136.167 Y157.532 E0.01278
G1 X136.011 Y157.578 E0.00759
G1 X135.727 Y157.639 E0.01355
G1 X135.597 Y157.653 E0.0061
G1 X135.296 Y157.664 E0.01405
G1 X135.168 Y157.656 E0.00598
G1 X134.904 Y157.622 E0.01242
G1 X134.739 Y157.587 E0.00787
G1 X134.49 Y157.511 E0.01214
G1 X134.33 Y157.446 E0.00806
G1 X134.092 Y157.325 E0.01245
G1 X133.983 Y157.261 E0.0059
G1 X133.74 Y157.082 E0.01408
G1 X133.616 Y156.973 E0.0077
G1 X133.433 Y156.784 E0.01227
G1 X133.323 Y156.649 E0.00812
G0 F12000 X133.903 Y156.695
G1 F4800 X133.72 Y156.506 E0.01227
G1 X133.654 Y156.425 E0.00487
G1 X133.508 Y156.209 E0.01216
G1 X133.457 Y156.116 E0.00495
G1 X133.35 Y155.875 E0.0123
G1 X133.318 Y155.784 E0.0045
G1 X133.241 Y155.484 E0.01445
G1 X133.21 Y155.143 E0.01597
G1 X133.242 Y154.741 E0.01881
G1 X133.335 Y154.393 E0.0168
G1 X133.482 Y154.063 E0.01685
G1 X133.688 Y153.76 E0.01709
G1 X133.94 Y153.5 E0.01689
G1 X134.241 Y153.279 E0.01742
G1 X134.569 Y153.115 E0.01711
G1 X134.885 Y153.017 E0.01543
G1 X135.219 Y152.97 E0.01573
G1 X135.322 Y152.966 E0.00481
G1 X135.649 Y152.984 E0.01528
G1 X135.985 Y153.058 E0.01605
G1 X136.354 Y153.208 E0.01858
G1 X136.644 Y153.389 E0.01595
G1 X136.894 Y153.607 E0.01547
G1 X137.149 Y153.921 E0.01887
G1 X137.324 Y154.235 E0.01677
G1 X137.441 Y154.564 E0.01629
G1 X137.501 Y154.909 E0.01633
G1 X137.504 Y155.285 E0.01754
G1 X137.443 Y155.657 E0.01758
G1 X137.319 Y156.004 E0.01719
G1 X137.144 Y156.317 E0.01673
G1 X136.948 Y156.564 E0.01471
G1 X136.877 Y156.638 E0.00478
G1 X136.679 Y156.812 E0.0123
G1 X136.597 Y156.873 E0.00477
G1 X136.371 Y157.012 E0.01238
G1 X136.276 Y157.059 E0.00494
G1 X136.021 Y157.159 E0.01278
G1 X135.927 Y157.187 E0.00458
G1 X135.658 Y157.245 E0.01284
G1 X135.296 Y157.264 E0.01691
G1 X134.955 Y157.226 E0.01601
G1 X134.856 Y157.204 E0.00473
G1 X134.608 Y157.128 E0.0121
G1 X134.512 Y157.089 E0.00483
G1 X134.208 Y156.93 E0.016
G1 X133.978 Y156.76 E0.01334
G1 X133.903 Y156.695 E0.00463
G0 F12000 X133.823 Y155.954
;TYPE:WALL-OUTER
G1 F4800 X133.705 Y155.682 E0.01383
G1 X133.635 Y155.415 E0.01288
G1 X133.61 Y155.135 E0.01311
G1 X133.633 Y154.832 E0.01417
G1 X133.705 Y154.548 E0.01367
G1 X133.831 Y154.259 E0.01471
G1 X133.997 Y154.014 E0.0138
G1 X134.203 Y153.802 E0.01379
G1 X134.444 Y153.624 E0.01398
G1 X134.725 Y153.484 E0.01464
G1 X134.992 Y153.403 E0.01302
G1 X135.282 Y153.366 E0.01364
G1 X135.596 Y153.381 E0.01466
G1 X135.85 Y153.435 E0.01211
G1 X136.14 Y153.548 E0.01452
G1 X136.414 Y153.717 E0.01502
G1 X136.632 Y153.912 E0.01364
G1 X136.813 Y154.137 E0.01347
G1 X136.951 Y154.381 E0.01308
G1 X137.056 Y154.674 E0.01452
G1 X137.105 Y154.967 E0.01386
G1 X137.105 Y155.254 E0.01339
G1 X137.05 Y155.576 E0.01524
G1 X136.955 Y155.839 E0.01304
G1 X136.812 Y156.093 E0.0136
G1 X136.625 Y156.326 E0.01394
G1 X136.415 Y156.512 E0.01309
G1 X136.13 Y156.687 E0.0156
G1 X135.875 Y156.787 E0.01278
G1 X135.589 Y156.851 E0.01367
G1 X135.27 Y156.863 E0.01489
G1 X134.973 Y156.822 E0.01399
G1 X134.725 Y156.746 E0.0121
G1 X134.455 Y156.612 E0.01406
G1 X134.191 Y156.417 E0.01531
G1 X133.986 Y156.201 E0.01389
G1 X133.823 Y155.954 E0.0138
G10
G1 F600 Z0.7
G0 F12000 X133.26 Y156.169 Z0.7
G0 X125.56 Y167.115
;TYPE:WALL-INNER
G1 F600 Z0.3
G11
G1 F4800 X174.44 Y167.115 E2.28012
G1 X174.44 Y151.007 E0.7514
G1 F4637.7 X174.426 Y150.568 E0.02121
G1 F4560.6 X174.375 Y150.733 E0.00848
G1 F4717.4 X174.279 Y150.979 E0.01253
G1 F4800 X174.21 Y151.13 E0.00774
G1 X174.085 Y151.356 E0.01205
G1 X173.99 Y151.494 E0.00782
G1 X173.824 Y151.7 E0.01234
G1 X173.705 Y151.824 E0.00802
G1 X173.508 Y151.997 E0.01223
G1 X173.371 Y152.098 E0.00794
G1 X173.145 Y152.237 E0.01238
G1 X172.987 Y152.317 E0.00826
G1 X172.732 Y152.416 E0.01276
G1 X172.576 Y152.463 E0.0076
G1 X172.329 Y152.516 E0.01178
G1 X172.162 Y152.538 E0.00786
G1 X171.904 Y152.549 E0.01205
G1 X171.733 Y152.541 E0.00799
G1 X171.469 Y152.507 E0.01242
G1 X171.303 Y152.472 E0.00791
G1 X171.056 Y152.396 E0.01205
G1 X170.895 Y152.331 E0.0081
G1 X170.588 Y152.171 E0.01615
G1 X170.24 Y151.914 E0.02018
G1 X169.998 Y151.669 E0.01606
G1 X169.888 Y151.534 E0.00812
G1 X169.709 Y151.266 E0.01503
G1 X169.55 Y150.922 E0.01768
G1 X169.51 Y150.819 E0.00515
G1 X169.408 Y150.411 E0.01962
G1 X169.378 Y150.09 E0.01504
G1 X169.378 Y149.916 E0.00812
G1 X169.41 Y149.576 E0.01593
G1 X169.517 Y149.16 E0.02004
G1 X169.656 Y148.837 E0.0164
G1 X169.728 Y148.704 E0.00705
G1 X169.888 Y148.466 E0.01338
G1 X169.986 Y148.343 E0.00734
G1 X170.234 Y148.091 E0.01649
G1 X170.588 Y147.829 E0.02054
G1 X170.895 Y147.669 E0.01615
G1 X171.056 Y147.604 E0.0081
G1 X171.303 Y147.528 E0.01205
G1 X171.469 Y147.493 E0.00791
G1 X171.733 Y147.459 E0.01242
G1 X171.904 Y147.451 E0.00799
G1 X172.162 Y147.462 E0.01205
G1 X172.329 Y147.484 E0.00786
G1 X172.576 Y147.537 E0.01178
G1 X172.732 Y147.584 E0.0076
G1 X172.987 Y147.683 E0.01276
G1 X173.144 Y147.762 E0.0082
G1 X173.37 Y147.9 E0.01235
G1 X173.507 Y148.002 E0.00797
G1 X173.706 Y148.176 E0.01233
G1 X173.824 Y148.299 E0.00795
G1 X173.987 Y148.502 E0.01214
G1 X174.081 Y148.639 E0.00775
G1 X174.208 Y148.866 E0.01213
G1 X174.279 Y149.02 E0.00791
G1 F4717.4 X174.375 Y149.268 E0.01262
G1 F4560.6 X174.426 Y149.44 E0.00881
G1 F4637.7 X174.44 Y148.993 E0.02159
G1 F4800 X174.44 Y140.952 E0.37509
G1 X174.44 Y132.885 E0.3763
G1 X125.561 Y132.886 E2.28008
G1 F4860.8 X125.556 Y149.65 E0.77222
G1 F4898 X125.583 Y149.481 E0.00782
G1 F4836.3 X125.646 Y149.229 E0.01203
G1 F4800 X125.699 Y149.078 E0.00747
G1 X125.806 Y148.837 E0.0123
G1 X125.892 Y148.682 E0.00827
G1 X126.038 Y148.466 E0.01216
G1 X126.148 Y148.331 E0.00812
G1 X126.331 Y148.142 E0.01227
G1 X126.455 Y148.033 E0.0077
G1 X126.666 Y147.877 E0.01224
G1 X126.807 Y147.79 E0.00773
G1 X127.045 Y147.669 E0.01245
G1 X127.205 Y147.604 E0.00806
G1 X127.454 Y147.528 E0.01214
G1 X127.619 Y147.493 E0.00787
G1 X127.883 Y147.459 E0.01242
G1 X128.054 Y147.451 E0.00799
G1 X128.312 Y147.462 E0.01205
G1 X128.479 Y147.484 E0.00786
G1 X128.726 Y147.537 E0.01178
G1 X128.882 Y147.584 E0.0076
G1 X129.223 Y147.722 E0.01716
G1 X129.519 Y147.9 E0.01611
G1 X129.657 Y148.002 E0.008
G1 X129.918 Y148.236 E0.01635
G1 X130.196 Y148.582 E0.0207
G1 X130.383 Y148.912 E0.01769
G1 X130.424 Y149.006 E0.00478
G1 X130.55 Y149.377 E0.01828
G1 X130.614 Y149.753 E0.01779
G1 X130.621 Y149.871 E0.00551
G1 X130.619 Y150.174 E0.01413
G1 X130.608 Y150.284 E0.00516
G1 X130.541 Y150.657 E0.01768
G1 X130.397 Y151.058 E0.01988
G1 X130.184 Y151.436 E0.02024
G1 X129.906 Y151.776 E0.02049
G1 X129.585 Y152.056 E0.01987
G1 X129.212 Y152.284 E0.02039
G1 X128.837 Y152.433 E0.01882
G1 X128.726 Y152.464 E0.00538
G1 X128.474 Y152.517 E0.01201
G1 X128.312 Y152.538 E0.00762
G1 X128.054 Y152.549 E0.01205
G1 X127.883 Y152.541 E0.00799
G1 X127.619 Y152.507 E0.01242
G1 X127.454 Y152.472 E0.00787
G1 X127.205 Y152.396 E0.01214
G1 X127.045 Y152.331 E0.00806
G1 X126.807 Y152.21 E0.01245
G1 X126.666 Y152.123 E0.00773
G1 X126.455 Y151.967 E0.01224
G1 X126.331 Y151.858 E0.0077
G1 X126.148 Y151.669 E0.01227
G1 X126.038 Y151.534 E0.00812
G1 X125.892 Y151.318 E0.01216
G1 X125.806 Y151.163 E0.00827
G1 X125.699 Y150.922 E0.0123
G1 X125.646 Y150.771 E0.00747
