;FLAVOR:RepRap
;TIME:3010
;Filament used: 5.99008m
;Layer height: 0.2
;MINX:110.987
;MINY:130.849
;MINZ:0.3
;MAXX:189.013
;MAXY:169.149
;MAXZ:36.3
;Generated with Cura_SteamEngine 5.2.1
T0
M190 S100
M104 S260
M109 S260
M82 ;absolute extrusion mode
print_start
M83 ;relative extrusion mode
G10
;LAYER_COUNT:181
;LAYER:0
M107
G1 F600 Z0.7
G0 F12000 X112.903 Y132.141 Z0.7
;TYPE:SKIRT
G1 F600 Z0.3
G11
G1 F4800 X113.429 Y131.747 E0.03066
G1 X113.998 Y131.42 E0.03061
G1 X114.604 Y131.164 E0.03069
G1 X115.235 Y130.984 E0.03061
G1 X115.884 Y130.882 E0.03065
G1 X116.245 Y130.86 E0.01687
G1 X116.717 Y130.849 E0.02202
G1 X126.762 Y130.851 E0.46857
G1 X127.461 Y130.861 E0.03261
G1 X128.116 Y130.91 E0.03064
G1 X128.761 Y131.038 E0.03067
G1 X129.385 Y131.244 E0.03065
G1 X129.979 Y131.524 E0.03063
G1 X130.728 Y132.02 E0.04191
G1 X131.98 Y133.007 E0.07437
G1 X134.125 Y134.639 E0.12573
G1 X136.318 Y136.21 E0.12584
G1 X138.5 Y137.683 E0.12281
G1 X140.783 Y139.131 E0.12611
G1 X143.093 Y140.505 E0.12538
G1 X145.424 Y141.805 E0.1245
G1 X147.776 Y143.031 E0.12373
G1 X150.2 Y144.209 E0.12572
G1 X152.624 Y145.302 E0.12404
G1 X155.146 Y146.354 E0.12747
G1 X157.601 Y147.299 E0.12271
G1 X160.131 Y148.192 E0.12515
G1 X162.669 Y149.007 E0.12435
G1 X165.213 Y149.745 E0.12356
G1 X167.861 Y150.432 E0.12761
G1 X170.455 Y151.027 E0.12415
G1 X173.05 Y151.547 E0.12346
G1 X175.728 Y152.005 E0.12674
G1 X178.315 Y152.372 E0.12188
G1 X181.023 Y152.679 E0.12713
G1 X183.003 Y152.846 E0.09269
G1 X183.55 Y152.9 E0.02564
G1 X184.198 Y153.004 E0.03061
G1 X184.829 Y153.187 E0.03065
G1 X185.191 Y153.33 E0.01816
G1 X185.496 Y153.464 E0.01554
G1 X186.08 Y153.764 E0.03063
G1 X186.624 Y154.134 E0.03069
G1 X187.118 Y154.566 E0.03061
G1 X187.579 Y155.083 E0.03231
G1 X187.747 Y155.298 E0.01273
G1 X188.119 Y155.839 E0.03063
G1 X188.506 Y156.617 E0.04053
G1 X188.61 Y156.877 E0.01306
G1 X188.816 Y157.501 E0.03065
G1 X188.945 Y158.145 E0.03064
G1 X188.995 Y158.788 E0.03008
G1 X189.013 Y159.851 E0.04959
G1 X189.011 Y162.133 E0.10645
G1 X189.001 Y162.82 E0.03205
G1 X188.952 Y163.475 E0.03064
G1 X188.823 Y164.119 E0.03064
G1 X188.617 Y164.743 E0.03065
G1 X188.337 Y165.337 E0.03063
G1 X187.987 Y165.893 E0.03065
G1 X187.572 Y166.402 E0.03064
G1 X187.098 Y166.857 E0.03065
G1 X186.572 Y167.251 E0.03066
G1 X186.002 Y167.578 E0.03065
G1 X185.397 Y167.834 E0.03064
G1 X184.765 Y168.014 E0.03065
G1 X184.214 Y168.106 E0.02606
G1 X183.268 Y168.214 E0.04442
G1 X180.556 Y168.563 E0.12755
G1 X177.944 Y168.973 E0.12333
G1 X177.415 Y169.063 E0.02503
G1 X176.655 Y169.138 E0.03562
G1 X176.181 Y169.149 E0.02212
G1 X171.835 Y169.149 E0.20273
G1 X171.118 Y169.138 E0.03345
G1 X170.515 Y169.095 E0.0282
G1 X169.172 Y168.923 E0.06316
G1 X167.581 Y168.733 E0.07474
G1 X164.869 Y168.47 E0.1271
G1 X162.245 Y168.291 E0.12269
G1 X159.549 Y168.183 E0.12586
G1 X157.042 Y168.151 E0.11695
G1 X130.667 Y168.15 E1.23032
G1 X129.786 Y168.139 E0.0411
G1 X128.86 Y168.098 E0.04324
G1 X128.069 Y168.029 E0.03704
G1 X127.791 Y167.996 E0.01306
G1 X126.939 Y167.871 E0.04017
G1 X126.64 Y167.818 E0.01416
G1 X125.666 Y167.612 E0.04644
G1 X124.867 Y167.402 E0.03854
G1 X123.957 Y167.116 E0.0445
G1 X123.144 Y166.819 E0.04038
G1 X122.776 Y166.668 E0.01856
G1 X122.158 Y166.398 E0.03146
G1 X121.902 Y166.278 E0.01319
G1 X121.021 Y165.831 E0.04608
G1 X120.304 Y165.422 E0.03851
G1 X119.473 Y164.895 E0.0459
G1 X118.934 Y164.519 E0.03066
G1 X118.568 Y164.249 E0.02122
G1 X117.959 Y163.769 E0.03617
G1 X117.709 Y163.559 E0.01523
G1 X117.112 Y163.025 E0.03736
G1 X116.909 Y162.834 E0.013
G1 X116.414 Y162.343 E0.03252
G1 X115.865 Y161.756 E0.03749
G1 X115.259 Y161.042 E0.04369
G1 X115.084 Y160.822 E0.01311
G1 X114.472 Y159.999 E0.04784
G1 X114.072 Y159.406 E0.03337
G1 X113.906 Y159.144 E0.01447
G1 X113.454 Y158.383 E0.04129
G1 X113.292 Y158.089 E0.01566
G1 X112.849 Y157.215 E0.04571
G1 X112.544 Y156.539 E0.03459
G1 X112.277 Y155.883 E0.03304
G1 X112.169 Y155.593 E0.01444
G1 X111.882 Y154.753 E0.04141
G1 X111.791 Y154.461 E0.01427
G1 X111.635 Y153.903 E0.02703
G1 X111.415 Y152.976 E0.04444
G1 X111.338 Y152.6 E0.0179
G1 X111.197 Y151.758 E0.03982
G1 X111.094 Y150.928 E0.03901
G1 X111.024 Y150.01 E0.04295
G1 X111.011 Y149.725 E0.01331
G1 X110.987 Y148.348 E0.06424
G1 X110.988 Y136.847 E0.53649
G1 X110.998 Y136.177 E0.03126
G1 X111.047 Y135.522 E0.03064
G1 X111.176 Y134.878 E0.03064
G1 X111.382 Y134.254 E0.03065
G1 X111.663 Y133.66 E0.03065
G1 X112.013 Y133.105 E0.03061
G1 X112.429 Y132.596 E0.03066
G1 X112.903 Y132.141 E0.03065
G0 F12000 X113.291 Y132.34
G1 F4800 X113.81 Y131.979 E0.02949
G1 X114.371 Y131.687 E0.0295
G1 X114.964 Y131.468 E0.02949
G1 X115.579 Y131.325 E0.02945
G1 X116.256 Y131.26 E0.03173
G1 X116.717 Y131.249 E0.02151
G1 X126.757 Y131.251 E0.46834
G1 X127.456 Y131.261 E0.03261
G1 X128.086 Y131.309 E0.02947
G1 X128.705 Y131.438 E0.0295
G1 X129.303 Y131.643 E0.02949
G1 X129.87 Y131.922 E0.02948
G1 X130.48 Y132.334 E0.03434
G1 X131.712 Y133.305 E0.07317
G1 X133.896 Y134.966 E0.12799
G1 X136.067 Y136.522 E0.1246
G1 X138.309 Y138.035 E0.12617
G1 X140.586 Y139.48 E0.1258
G1 X142.872 Y140.84 E0.12408
G1 X145.223 Y142.151 E0.12557
G1 X147.623 Y143.402 E0.12625
G1 X150.01 Y144.562 E0.1238
G1 X152.471 Y145.672 E0.12594
G1 X154.985 Y146.72 E0.12705
G1 X157.473 Y147.677 E0.12435
G1 X160.013 Y148.574 E0.12566
G1 X162.541 Y149.386 E0.12386
G1 X165.149 Y150.142 E0.12666
G1 X167.735 Y150.814 E0.12464
G1 X170.359 Y151.416 E0.12558
G1 X173.011 Y151.946 E0.12616
G1 X175.641 Y152.396 E0.12447
G1 X178.285 Y152.771 E0.12457
G1 X180.978 Y153.077 E0.12643
G1 X182.963 Y153.244 E0.09292
G1 X183.51 Y153.298 E0.02564
G1 X184.134 Y153.4 E0.02949
G1 X185.03 Y153.696 E0.04402
G1 X185.335 Y153.83 E0.01554
G1 X185.897 Y154.121 E0.02952
G1 X186.417 Y154.48 E0.02948
G1 X186.888 Y154.901 E0.02947
G1 X187.264 Y155.329 E0.02658
G1 X187.432 Y155.544 E0.01273
G1 X187.789 Y156.066 E0.0295
G1 X188.134 Y156.766 E0.0364
G1 X188.238 Y157.026 E0.01306
G1 X188.436 Y157.627 E0.02952
G1 X188.555 Y158.247 E0.02945
G1 X188.595 Y158.795 E0.02563
G1 X188.613 Y159.851 E0.04927
G1 X188.611 Y162.127 E0.10617
G1 X188.601 Y162.814 E0.03205
G1 X188.552 Y163.444 E0.02948
G1 X188.424 Y164.063 E0.02949
G1 X188.219 Y164.661 E0.02949
G1 X187.94 Y165.228 E0.02948
G1 X187.591 Y165.755 E0.02949
G1 X187.179 Y166.235 E0.02951
G1 X186.709 Y166.658 E0.0295
G1 X186.19 Y167.019 E0.02949
G1 X185.63 Y167.311 E0.02946
G1 X185.037 Y167.531 E0.0295
G1 X184.169 Y167.709 E0.04133
G1 X183.17 Y167.823 E0.0469
G1 X180.514 Y168.165 E0.12492
G1 X177.88 Y168.578 E0.12437
G1 X177.347 Y168.669 E0.02522
G1 X176.644 Y168.738 E0.03295
G1 X176.181 Y168.749 E0.0216
G1 X171.841 Y168.749 E0.20245
G1 X171.124 Y168.738 E0.03345
G1 X170.566 Y168.699 E0.02609
G1 X169.176 Y168.521 E0.06537
G1 X167.618 Y168.335 E0.07319
G1 X164.899 Y168.072 E0.12743
G1 X162.255 Y167.891 E0.12362
G1 X159.57 Y167.783 E0.12535
G1 X157.047 Y167.751 E0.1177
G1 X130.672 Y167.75 E1.23032
G1 X129.791 Y167.739 E0.0411
G1 X128.879 Y167.698 E0.04259
G1 X128.107 Y167.631 E0.03615
G1 X127.849 Y167.6 E0.01212
G1 X126.997 Y167.475 E0.04017
G1 X126.72 Y167.426 E0.01312
G1 X125.766 Y167.225 E0.04548
G1 X124.985 Y167.019 E0.03768
G1 X124.092 Y166.74 E0.04364
G1 X123.458 Y166.511 E0.03144
G1 X122.936 Y166.302 E0.02623
G1 X122.081 Y165.921 E0.04366
G1 X121.216 Y165.482 E0.04525
G1 X120.516 Y165.083 E0.03759
G1 X119.914 Y164.707 E0.03311
G1 X119.163 Y164.191 E0.0425
G1 X118.808 Y163.928 E0.02061
G1 X118.207 Y163.455 E0.03568
G1 X117.976 Y163.261 E0.01407
G1 X117.191 Y162.55 E0.04941
G1 X116.696 Y162.059 E0.03252
G1 X116.159 Y161.484 E0.0367
G1 X115.565 Y160.785 E0.04279
G1 X115.403 Y160.582 E0.01212
G1 X114.956 Y159.989 E0.03464
G1 X114.404 Y159.182 E0.04561
G1 X114.25 Y158.939 E0.01342
G1 X113.798 Y158.178 E0.04129
G1 X113.648 Y157.906 E0.01449
G1 X113.213 Y157.048 E0.04487
G1 X112.915 Y156.388 E0.03378
G1 X112.648 Y155.732 E0.03304
G1 X112.548 Y155.464 E0.01334
G1 X112.261 Y154.624 E0.04141
G1 X112.177 Y154.353 E0.01323
G1 X111.965 Y153.577 E0.03752
G1 X111.805 Y152.886 E0.03309
G1 X111.73 Y152.522 E0.01734
G1 X111.591 Y151.693 E0.03921
G1 X111.491 Y150.882 E0.03812
G1 X111.423 Y149.982 E0.0421
G1 X111.411 Y149.718 E0.01233
G1 X111.387 Y148.348 E0.06392
G1 X111.388 Y136.853 E0.53621
G1 X111.398 Y136.183 E0.03126
G1 X111.447 Y135.553 E0.02948
G1 X111.575 Y134.934 E0.02949
G1 X111.781 Y134.336 E0.0295
G1 X112.06 Y133.769 E0.02948
G1 X112.409 Y133.242 E0.02949
G1 X112.821 Y132.763 E0.02947
G1 X113.291 Y132.34 E0.0295
G0 F12000 X113.677 Y132.548
G1 F4800 X114.189 Y132.223 E0.02829
G1 X114.739 Y131.967 E0.0283
G1 X115.318 Y131.786 E0.0283
G1 X115.915 Y131.683 E0.02826
G1 X116.267 Y131.66 E0.01645
G1 X116.716 Y131.649 E0.02095
G1 X126.751 Y131.65 E0.46811
G1 X127.45 Y131.66 E0.03261
G1 X128.054 Y131.709 E0.02827
G1 X128.647 Y131.837 E0.0283
G1 X129.218 Y132.041 E0.02828
G1 X129.757 Y132.319 E0.02829
G1 X130.232 Y132.648 E0.02695
G1 X131.479 Y133.631 E0.07407
G1 X133.643 Y135.277 E0.12683
G1 X135.85 Y136.859 E0.12667
G1 X138.092 Y138.372 E0.12617
G1 X140.357 Y139.809 E0.12513
G1 X142.68 Y141.19 E0.12606
G1 X145.038 Y142.506 E0.12597
G1 X147.414 Y143.744 E0.12498
G1 X149.865 Y144.935 E0.12712
G1 X152.331 Y146.048 E0.12621
G1 X154.835 Y147.092 E0.12655
G1 X157.301 Y148.041 E0.12326
G1 X159.863 Y148.945 E0.12673
G1 X162.454 Y149.777 E0.12694
G1 X165.033 Y150.525 E0.12526
G1 X167.618 Y151.196 E0.12458
G1 X170.304 Y151.813 E0.12856
G1 X172.936 Y152.339 E0.1252
G1 X175.584 Y152.792 E0.12532
G1 X178.221 Y153.166 E0.12424
G1 X180.936 Y153.474 E0.12746
G1 X182.924 Y153.642 E0.09307
G1 X183.471 Y153.696 E0.02564
G1 X184.069 Y153.795 E0.02827
G1 X184.869 Y154.063 E0.03936
G1 X185.174 Y154.197 E0.01554
G1 X185.712 Y154.476 E0.02827
G1 X186.208 Y154.825 E0.02829
G1 X186.655 Y155.235 E0.02829
G1 X186.949 Y155.576 E0.021
G1 X187.117 Y155.791 E0.01273
G1 X187.458 Y156.292 E0.02827
G1 X187.763 Y156.915 E0.03236
G1 X187.867 Y157.175 E0.01306
G1 X188.055 Y157.751 E0.02826
G1 X188.165 Y158.347 E0.02827
G1 X188.195 Y158.802 E0.02127
G1 X188.213 Y159.851 E0.04894
G1 X188.212 Y162.121 E0.10589
G1 X188.202 Y162.808 E0.03205
G1 X188.153 Y163.412 E0.02827
G1 X188.025 Y164.005 E0.0283
G1 X187.82 Y164.576 E0.0283
G1 X187.542 Y165.115 E0.02829
G1 X187.196 Y165.612 E0.02825
G1 X186.787 Y166.06 E0.0283
G1 X186.323 Y166.45 E0.02827
G1 X185.812 Y166.776 E0.02827
G1 X185.262 Y167.031 E0.02828
G1 X184.683 Y167.212 E0.0283
G1 X184.123 Y167.311 E0.02653
G1 X183.149 Y167.422 E0.04573
G1 X180.438 Y167.771 E0.1275
G1 X177.829 Y168.18 E0.12319
G1 X177.28 Y168.274 E0.02598
G1 X176.633 Y168.338 E0.03033
G1 X176.181 Y168.349 E0.02109
G1 X171.847 Y168.349 E0.20217
G1 X171.13 Y168.338 E0.03345
G1 X170.617 Y168.302 E0.02399
G1 X169.253 Y168.127 E0.06415
G1 X167.665 Y167.938 E0.0746
G1 X164.929 Y167.673 E0.12822
G1 X162.262 Y167.49 E0.1247
G1 X159.591 Y167.384 E0.12469
G1 X157.052 Y167.351 E0.11845
G1 X130.677 Y167.35 E1.23032
G1 X129.796 Y167.339 E0.0411
G1 X128.898 Y167.299 E0.04193
G1 X128.144 Y167.233 E0.03531
G1 X127.055 Y167.079 E0.0513
G1 X126.8 Y167.035 E0.01207
G1 X126.082 Y166.888 E0.03419
G1 X125.31 Y166.695 E0.03712
G1 X124.443 Y166.435 E0.04222
G1 X123.442 Y166.076 E0.04961
G1 X123.096 Y165.935 E0.01743
G1 X122.26 Y165.563 E0.04268
G1 X121.412 Y165.133 E0.04435
G1 X120.728 Y164.744 E0.03671
G1 X119.931 Y164.239 E0.04401
G1 X119.269 Y163.774 E0.03774
G1 X118.948 Y163.532 E0.01875
G1 X118.455 Y163.142 E0.02932
G1 X118.242 Y162.963 E0.01298
G1 X117.645 Y162.429 E0.03736
G1 X117.473 Y162.266 E0.01105
G1 X116.837 Y161.629 E0.04199
G1 X116.453 Y161.213 E0.02641
G1 X115.872 Y160.528 E0.0419
G1 X115.723 Y160.341 E0.01115
G1 X115.135 Y159.551 E0.04594
G1 X114.735 Y158.958 E0.03337
G1 X114.594 Y158.735 E0.01231
G1 X114.142 Y157.974 E0.04129
G1 X114.004 Y157.724 E0.01332
G1 X113.576 Y156.881 E0.0441
G1 X113.285 Y156.237 E0.03297
G1 X113.018 Y155.581 E0.03304
G1 X112.926 Y155.334 E0.0123
G1 X112.639 Y154.494 E0.04141
G1 X112.562 Y154.246 E0.01211
G1 X112.355 Y153.487 E0.0367
G1 X112.164 Y152.652 E0.03996
G1 X112.096 Y152.297 E0.01686
G1 X111.986 Y151.628 E0.03163
G1 X111.889 Y150.836 E0.03722
G1 X111.822 Y149.953 E0.04131
G1 X111.811 Y149.711 E0.0113
G1 X111.787 Y148.348 E0.06359
G1 X111.788 Y136.859 E0.53593
G1 X111.798 Y136.189 E0.03126
G1 X111.846 Y135.585 E0.02826
G1 X111.975 Y134.992 E0.02831
G1 X112.179 Y134.422 E0.02824
G1 X112.458 Y133.883 E0.02831
G1 X112.804 Y133.386 E0.02825
G1 X113.213 Y132.938 E0.0283
G1 X113.677 Y132.548 E0.02827
G0 F12000 X114.062 Y132.767
G1 F4800 X114.564 Y132.479 E0.027
G1 X115.102 Y132.263 E0.02704
G1 X115.664 Y132.122 E0.02703
G1 X116.279 Y132.06 E0.02883
G1 X116.716 Y132.049 E0.02039
G1 X126.745 Y132.05 E0.46783
G1 X127.444 Y132.06 E0.03261
G1 X128.021 Y132.109 E0.02701
G1 X128.587 Y132.236 E0.02706
G1 X129.129 Y132.44 E0.02701
G1 X129.638 Y132.716 E0.02701
G1 X129.985 Y132.962 E0.01984
G1 X131.239 Y133.951 E0.0745
G1 X133.414 Y135.605 E0.12746
G1 X135.621 Y137.187 E0.12667
G1 X137.884 Y138.714 E0.12735
G1 X140.134 Y140.141 E0.12429
G1 X142.486 Y141.54 E0.12766
G1 X144.85 Y142.859 E0.12628
G1 X147.247 Y144.108 E0.12608
G1 X149.704 Y145.302 E0.12743
G1 X152.149 Y146.405 E0.12512
G1 X154.674 Y147.458 E0.12762
G1 X157.182 Y148.423 E0.12535
G1 X159.744 Y149.327 E0.12673
G1 X162.316 Y150.153 E0.12601
G1 X164.935 Y150.913 E0.12721
G1 X167.533 Y151.588 E0.12521
G1 X170.234 Y152.207 E0.12926
G1 X172.828 Y152.726 E0.1234
G1 X175.532 Y153.189 E0.12797
G1 X178.195 Y153.566 E0.12546
G1 X180.886 Y153.872 E0.12634
G1 X182.885 Y154.04 E0.09358
G1 X183.432 Y154.094 E0.02564
G1 X184.003 Y154.191 E0.02702
G1 X184.708 Y154.429 E0.03471
G1 X185.013 Y154.563 E0.01554
G1 X185.526 Y154.832 E0.02702
G1 X185.998 Y155.169 E0.02705
G1 X186.418 Y155.568 E0.02702
G1 X186.633 Y155.822 E0.01552
G1 X186.801 Y156.037 E0.01273
G1 X187.126 Y156.517 E0.02704
G1 X187.392 Y157.063 E0.02833
G1 X187.496 Y157.323 E0.01306
G1 X187.673 Y157.875 E0.02704
G1 X187.773 Y158.445 E0.027
G1 X187.795 Y158.809 E0.01701
G1 X187.813 Y159.851 E0.04861
G1 X187.812 Y162.115 E0.10561
G1 X187.802 Y162.802 E0.03205
G1 X187.753 Y163.379 E0.02701
G1 X187.626 Y163.945 E0.02706
G1 X187.422 Y164.487 E0.02701
G1 X187.145 Y164.996 E0.02703
G1 X186.801 Y165.462 E0.02702
G1 X186.397 Y165.876 E0.02698
G1 X185.939 Y166.231 E0.02703
G1 X185.436 Y166.519 E0.02704
G1 X184.899 Y166.736 E0.02702
G1 X184.078 Y166.914 E0.03919
G1 X183.119 Y167.023 E0.04502
G1 X180.361 Y167.378 E0.12971
G1 X177.778 Y167.784 E0.12197
G1 X177.213 Y167.88 E0.02673
G1 X176.622 Y167.938 E0.0277
G1 X176.181 Y167.949 E0.02058
G1 X171.854 Y167.95 E0.20184
G1 X171.137 Y167.939 E0.03345
G1 X170.668 Y167.905 E0.02194
G1 X169.278 Y167.727 E0.06537
G1 X167.702 Y167.539 E0.07404
G1 X164.997 Y167.277 E0.12677
G1 X162.305 Y167.092 E0.12587
G1 X159.576 Y166.983 E0.1274
G1 X157.057 Y166.951 E0.11751
G1 X130.682 Y166.95 E1.23032
G1 X129.801 Y166.939 E0.0411
G1 X128.724 Y166.886 E0.0503
G1 X127.965 Y166.809 E0.03559
G1 X127.113 Y166.684 E0.04017
G1 X126.881 Y166.643 E0.01099
G1 X125.964 Y166.45 E0.04371
G1 X125.219 Y166.255 E0.03592
G1 X124.56 Y166.053 E0.03215
G1 X123.591 Y165.705 E0.04803
G1 X123.257 Y165.569 E0.01682
G1 X122.439 Y165.205 E0.04176
G1 X121.608 Y164.784 E0.04345
G1 X121.112 Y164.506 E0.02652
G1 X120.16 Y163.911 E0.05237
G1 X119.509 Y163.454 E0.0371
G1 X119.196 Y163.218 E0.01829
G1 X118.703 Y162.828 E0.02932
G1 X118.509 Y162.664 E0.01185
G1 X117.754 Y161.982 E0.04746
G1 X117.259 Y161.491 E0.03252
G1 X116.747 Y160.942 E0.03502
G1 X116.178 Y160.271 E0.04104
G1 X116.042 Y160.1 E0.01019
G1 X115.467 Y159.328 E0.0449
G1 X115.067 Y158.735 E0.03337
G1 X114.938 Y158.531 E0.01126
G1 X114.486 Y157.77 E0.04129
G1 X114.36 Y157.541 E0.01219
G1 X113.94 Y156.714 E0.04327
G1 X113.656 Y156.086 E0.03215
G1 X113.389 Y155.43 E0.03304
G1 X113.305 Y155.205 E0.0112
G1 X112.947 Y154.138 E0.0525
G1 X112.744 Y153.396 E0.03588
G1 X112.584 Y152.705 E0.03309
G1 X112.515 Y152.367 E0.01609
G1 X112.353 Y151.366 E0.0473
G1 X112.286 Y150.789 E0.0271
G1 X112.221 Y149.925 E0.04042
G1 X112.211 Y149.703 E0.01037
G1 X112.187 Y148.348 E0.06322
G1 X112.187 Y136.865 E0.53565
