;FLAVOR:RepRap
;TIME:5322
;Filament used: 15.354m
;Layer height: 0.2
;MINX:65.6
;MINY:80.6
;MINZ:0.3
;MAXX:234.4
;MAXY:192.9
;MAXZ:33.1
;Generated with Cura_SteamEngine 5.2.1
T0
M190 S100
M104 S260
M109 S260
M82 ;absolute extrusion mode
print_start
M83 ;relative extrusion mode
G10
;LAYER_COUNT:165
;LAYER:0
M107
G1 F600 Z0.7
G0 F12000 X68.042 Y91.499 Z0.7
;TYPE:SKIRT
G1 F600 Z0.3
G11
G1 F4800 X68.612 Y91.172 E0.03065
G1 X69.217 Y90.916 E0.03064
G1 X69.877 Y90.73 E0.03199
G1 X73.067 Y90.045 E0.1522
G1 X75.606 Y89.423 E0.12194
G1 X78.224 Y88.699 E0.12671
G1 X80.785 Y87.913 E0.12496
G1 X83.3 Y87.062 E0.12385
G1 X85.807 Y86.134 E0.1247
G1 X88.305 Y85.129 E0.1256
G1 X90.755 Y84.061 E0.12467
G1 X93.174 Y82.924 E0.12468
G1 X96.203 Y81.383 E0.15853
G1 X96.472 Y81.24 E0.01421
G1 X97.07 Y80.968 E0.03065
G1 X97.697 Y80.77 E0.03067
G1 X98.343 Y80.65 E0.03065
G1 X98.906 Y80.611 E0.02633
G1 X99.562 Y80.6 E0.0306
G1 X200.377 Y80.601 E4.70275
G1 X201.08 Y80.612 E0.0328
G1 X201.736 Y80.662 E0.03069
G1 X202.38 Y80.791 E0.03064
G1 X203.003 Y80.998 E0.03062
G1 X203.485 Y81.219 E0.02473
G1 X205.637 Y82.337 E0.11312
G1 X208.055 Y83.514 E0.12545
G1 X210.479 Y84.609 E0.12407
G1 X212.974 Y85.654 E0.12618
G1 X215.466 Y86.615 E0.12459
G1 X217.984 Y87.504 E0.12456
G1 X220.54 Y88.327 E0.12526
G1 X223.064 Y89.062 E0.12263
G1 X225.679 Y89.743 E0.12605
G1 X228.294 Y90.347 E0.12519
G1 X229.103 Y90.509 E0.03849
G1 X230.126 Y90.729 E0.04881
G1 X230.759 Y90.905 E0.03065
G1 X231.365 Y91.158 E0.03063
G1 X231.937 Y91.482 E0.03067
G1 X232.464 Y91.873 E0.03061
G1 X232.941 Y92.326 E0.03069
G1 X233.359 Y92.833 E0.03065
G1 X233.712 Y93.386 E0.0306
G1 X233.995 Y93.979 E0.03065
G1 X234.205 Y94.602 E0.03067
G1 X234.337 Y95.245 E0.03062
G1 X234.389 Y95.857 E0.02865
G1 X234.4 Y96.33 E0.02207
G1 X234.399 Y110.349 E0.65395
G1 X234.389 Y111.07 E0.03364
G1 X234.34 Y111.725 E0.03064
G1 X234.212 Y112.369 E0.03063
G1 X234.007 Y112.993 E0.03064
G1 X233.727 Y113.588 E0.03067
G1 X233.377 Y114.144 E0.03065
G1 X232.945 Y114.672 E0.03182
G1 X232.087 Y115.594 E0.05875
G1 X231.685 Y116.015 E0.02715
G1 X229.894 Y117.999 E0.12468
G1 X228.149 Y120.047 E0.12551
G1 X226.477 Y122.122 E0.12431
G1 X224.869 Y124.242 E0.12412
G1 X223.286 Y126.452 E0.12681
G1 X221.811 Y128.639 E0.12305
G1 X220.364 Y130.927 E0.12628
G1 X219.01 Y133.204 E0.12358
G1 X217.71 Y135.539 E0.12466
G1 X216.473 Y137.916 E0.125
G1 X215.298 Y140.339 E0.12562
G1 X214.208 Y142.761 E0.12389
G1 X213.177 Y145.233 E0.12494
G1 X212.207 Y147.76 E0.12626
G1 X211.332 Y150.249 E0.12307
G1 X210.51 Y152.814 E0.12564
G1 X209.765 Y155.387 E0.12495
G1 X209.101 Y157.949 E0.12346
G1 X208.499 Y160.577 E0.12576
G1 X207.97 Y163.233 E0.12633
G1 X207.53 Y165.82 E0.12241
G1 X207.151 Y168.5 E0.12626
G1 X206.854 Y171.138 E0.12383
G1 X206.631 Y173.797 E0.12447
G1 X206.482 Y176.47 E0.12488
G1 X206.4 Y180.454 E0.18588
G1 X206.399 Y186.838 E0.2978
G1 X206.389 Y187.565 E0.03392
G1 X206.341 Y188.22 E0.03064
G1 X206.212 Y188.865 E0.03068
G1 X206.007 Y189.489 E0.03064
G1 X205.727 Y190.083 E0.03063
G1 X205.377 Y190.639 E0.03065
G1 X204.963 Y191.149 E0.03064
G1 X204.489 Y191.604 E0.03065
G1 X203.964 Y191.999 E0.03065
G1 X203.394 Y192.326 E0.03065
G1 X202.789 Y192.582 E0.03064
G1 X202.158 Y192.763 E0.03062
G1 X201.509 Y192.866 E0.03065
G1 X201.142 Y192.889 E0.01715
G1 X200.67 Y192.9 E0.02202
G1 X99.637 Y192.9 E4.71292
G1 X98.939 Y192.891 E0.03256
G1 X98.284 Y192.842 E0.03064
G1 X97.64 Y192.715 E0.03062
G1 X97.016 Y192.51 E0.03064
G1 X96.421 Y192.23 E0.03067
G1 X95.865 Y191.881 E0.03062
G1 X95.355 Y191.467 E0.03064
G1 X94.899 Y190.994 E0.03065
G1 X94.504 Y190.468 E0.03068
G1 X94.176 Y189.899 E0.03064
G1 X93.919 Y189.295 E0.03062
G1 X93.738 Y188.663 E0.03067
G1 X93.634 Y188.014 E0.03066
G1 X93.611 Y187.637 E0.01762
G1 X93.6 Y187.158 E0.02235
G1 X93.6 Y180.384 E0.31599
G1 X93.562 Y177.72 E0.12428
G1 X93.448 Y175.024 E0.12587
G1 X93.261 Y172.396 E0.1229
G1 X92.992 Y169.677 E0.12745
G1 X92.659 Y167.077 E0.12227
G1 X92.237 Y164.392 E0.12679
G1 X91.75 Y161.771 E0.12436
G1 X91.19 Y159.169 E0.12416
G1 X90.553 Y156.568 E0.12492
G1 X89.85 Y154.015 E0.12352
G1 X89.057 Y151.423 E0.12644
G1 X88.199 Y148.882 E0.12511
G1 X87.274 Y146.372 E0.12478
G1 X86.273 Y143.879 E0.12532
G1 X85.211 Y141.439 E0.12413
G1 X84.084 Y139.036 E0.12381
G1 X82.861 Y136.606 E0.1269
G1 X81.612 Y134.294 E0.12258
G1 X80.25 Y131.932 E0.12719
G1 X78.877 Y129.701 E0.1222
G1 X77.388 Y127.427 E0.12679
G1 X75.872 Y125.251 E0.12371
G1 X74.278 Y123.094 E0.12511
G1 X72.624 Y120.983 E0.1251
G1 X70.92 Y118.931 E0.12442
G1 X69.152 Y116.92 E0.12491
G1 X67.062 Y114.68 E0.14291
G1 X66.644 Y114.173 E0.03065
G1 X66.29 Y113.619 E0.03067
G1 X66.006 Y113.027 E0.03063
G1 X65.797 Y112.404 E0.03065
G1 X65.664 Y111.761 E0.03063
G1 X65.613 Y111.162 E0.02804
G1 X65.6 Y110.67 E0.02296
G1 X65.601 Y96.593 E0.65665
G1 X65.611 Y95.929 E0.03098
G1 X65.66 Y95.274 E0.03064
G1 X65.789 Y94.629 E0.03068
G1 X65.996 Y94.006 E0.03062
G1 X66.276 Y93.412 E0.03063
G1 X66.627 Y92.856 E0.03067
G1 X67.042 Y92.347 E0.03064
G1 X67.516 Y91.892 E0.03065
G1 X68.042 Y91.499 E0.03063
G0 F12000 X68.424 Y91.731
G1 F4800 X68.984 Y91.439 E0.02946
G1 X69.577 Y91.22 E0.02949
G1 X69.961 Y91.121 E0.0185
G1 X73.149 Y90.437 E0.1521
G1 X75.727 Y89.805 E0.12382
G1 X78.319 Y89.088 E0.12545
G1 X80.915 Y88.291 E0.12668
G1 X83.431 Y87.441 E0.12388
G1 X85.978 Y86.498 E0.12669
G1 X88.448 Y85.504 E0.1242
G1 X90.906 Y84.432 E0.12509
G1 X93.359 Y83.279 E0.12644
G1 X96.37 Y81.747 E0.15759
G1 X96.66 Y81.593 E0.01532
G1 X97.236 Y81.333 E0.02948
G1 X97.84 Y81.147 E0.02948
G1 X98.463 Y81.039 E0.02949
G1 X98.914 Y81.011 E0.02108
G1 X99.562 Y81 E0.03023
G1 X200.371 Y81.001 E4.70247
G1 X201.074 Y81.012 E0.0328
G1 X201.704 Y81.061 E0.02948
G1 X202.323 Y81.19 E0.0295
G1 X202.921 Y81.396 E0.0295
G1 X203.301 Y81.574 E0.01957
G1 X205.441 Y82.686 E0.1125
G1 X207.894 Y83.88 E0.12726
G1 X210.339 Y84.984 E0.12514
G1 X212.812 Y86.02 E0.12507
G1 X215.336 Y86.993 E0.12618
G1 X217.865 Y87.886 E0.12511
G1 X220.4 Y88.702 E0.12423
G1 X222.965 Y89.45 E0.12463
G1 X225.593 Y90.134 E0.12667
G1 X228.224 Y90.741 E0.12595
G1 X229.093 Y90.916 E0.04135
G1 X230.042 Y91.12 E0.04528
G1 X230.65 Y91.291 E0.02946
G1 X231.232 Y91.538 E0.02949
G1 X231.778 Y91.857 E0.0295
G1 X232.28 Y92.242 E0.02951
G1 X232.729 Y92.687 E0.02949
G1 X233.118 Y93.185 E0.02948
G1 X233.441 Y93.728 E0.02947
G1 X233.693 Y94.308 E0.0295
G1 X233.87 Y94.915 E0.02949
G1 X233.969 Y95.539 E0.02947
G1 X233.989 Y95.868 E0.01538
G1 X234 Y96.33 E0.02156
G1 X234 Y110.343 E0.65367
G1 X233.99 Y111.064 E0.03364
G1 X233.941 Y111.695 E0.02952
G1 X233.813 Y112.314 E0.02949
G1 X233.608 Y112.912 E0.02949
G1 X233.329 Y113.479 E0.02948
G1 X232.981 Y114.007 E0.0295
G1 X232.652 Y114.399 E0.02387
G1 X231.798 Y115.317 E0.05849
G1 X231.398 Y115.736 E0.02702
G1 X229.576 Y117.755 E0.12686
G1 X227.867 Y119.76 E0.12289
G1 X226.146 Y121.896 E0.12796
G1 X224.54 Y124.013 E0.12395
G1 X222.979 Y126.193 E0.12507
G1 X221.469 Y128.432 E0.12598
G1 X220.025 Y130.714 E0.12597
G1 X218.667 Y133 E0.12403
G1 X217.356 Y135.352 E0.12561
G1 X216.108 Y137.75 E0.1261
G1 X214.951 Y140.136 E0.1237
G1 X213.832 Y142.622 E0.12717
G1 X212.806 Y145.084 E0.12442
G1 X211.832 Y147.62 E0.12672
G1 X210.949 Y150.131 E0.12416
G1 X210.128 Y152.696 E0.12563
G1 X209.382 Y155.272 E0.1251
G1 X208.709 Y157.87 E0.12519
G1 X208.111 Y160.481 E0.12495
G1 X207.577 Y163.159 E0.12738
G1 X207.133 Y165.769 E0.1235
G1 X206.756 Y168.432 E0.12546
G1 X206.453 Y171.132 E0.12674
G1 X206.23 Y173.778 E0.12387
G1 X206.082 Y176.44 E0.12437
G1 X206 Y180.446 E0.18691
G1 X206 Y186.833 E0.29794
G1 X205.99 Y187.56 E0.03392
G1 X205.941 Y188.19 E0.02948
G1 X205.813 Y188.809 E0.02949
G1 X205.608 Y189.407 E0.02949
G1 X205.33 Y189.975 E0.0295
G1 X204.982 Y190.502 E0.02946
G1 X204.57 Y190.982 E0.02951
G1 X204.101 Y191.406 E0.02949
G1 X203.582 Y191.767 E0.02949
G1 X203.022 Y192.06 E0.02948
G1 X202.429 Y192.279 E0.02949
G1 X201.813 Y192.423 E0.02951
G1 X201.131 Y192.489 E0.03196
G1 X200.67 Y192.5 E0.02151
G1 X99.643 Y192.5 E4.71264
G1 X98.945 Y192.491 E0.03256
G1 X98.314 Y192.442 E0.02952
G1 X97.695 Y192.315 E0.02948
G1 X97.097 Y192.111 E0.02947
G1 X96.529 Y191.833 E0.0295
G1 X96.001 Y191.485 E0.0295
G1 X95.521 Y191.074 E0.02948
G1 X95.097 Y190.605 E0.02949
G1 X94.735 Y190.087 E0.02948
G1 X94.442 Y189.527 E0.02948
G1 X94.222 Y188.934 E0.0295
G1 X94.078 Y188.319 E0.02946
G1 X94.011 Y187.626 E0.03248
G1 X94 Y187.158 E0.02184
G1 X94 Y180.384 E0.31599
G1 X93.962 Y177.697 E0.12535
G1 X93.848 Y175.015 E0.12522
G1 X93.66 Y172.361 E0.12411
G1 X93.392 Y169.662 E0.12652
G1 X93.047 Y166.963 E0.12693
G1 X92.639 Y164.363 E0.12277
G1 X92.141 Y161.685 E0.12706
G1 X91.576 Y159.062 E0.12516
G1 X90.95 Y156.505 E0.1228
G1 X90.22 Y153.855 E0.12822
G1 X89.446 Y151.325 E0.12342
G1 X88.571 Y148.732 E0.12766
G1 X87.657 Y146.252 E0.12329
G1 X86.646 Y143.736 E0.12649
G1 X85.568 Y141.259 E0.12601
G1 X84.446 Y138.865 E0.12333
G1 X83.212 Y136.415 E0.12796
G1 X81.953 Y134.084 E0.12358
G1 X80.619 Y131.77 E0.12459
G1 X79.193 Y129.453 E0.12691
G1 X77.734 Y127.225 E0.12423
G1 X76.178 Y124.99 E0.12703
G1 X74.613 Y122.872 E0.12284
G1 X72.918 Y120.709 E0.12819
G1 X71.245 Y118.694 E0.12217
G1 X69.445 Y116.648 E0.12712
G1 X67.354 Y114.407 E0.14298
G1 X66.953 Y113.918 E0.0295
G1 X66.617 Y113.383 E0.02947
G1 X66.351 Y112.81 E0.02947
G1 X66.159 Y112.207 E0.02952
G1 X66.045 Y111.586 E0.02945
G1 X66.012 Y111.149 E0.02044
G1 X66 Y110.67 E0.02235
G1 X66.001 Y96.599 E0.65637
G1 X66.011 Y95.935 E0.03098
G1 X66.06 Y95.305 E0.02948
G1 X66.189 Y94.686 E0.0295
G1 X66.394 Y94.088 E0.02949
G1 X66.674 Y93.521 E0.0295
G1 X67.022 Y92.994 E0.02946
G1 X67.435 Y92.515 E0.0295
G1 X67.904 Y92.091 E0.02949
G1 X68.424 Y91.731 E0.0295
G0 F12000 X68.802 Y91.974
G1 F4800 X69.352 Y91.719 E0.02828
G1 X70.045 Y91.512 E0.03374
G1 X73.223 Y90.83 E0.15162
G1 X75.832 Y90.19 E0.12531
G1 X78.461 Y89.463 E0.12724
G1 X80.991 Y88.687 E0.12344
G1 X83.592 Y87.807 E0.12809
G1 X86.13 Y86.868 E0.12623
G1 X88.608 Y85.87 E0.12461
G1 X91.057 Y84.802 E0.12463
G1 X93.532 Y83.64 E0.12754
G1 X96.536 Y82.111 E0.15724
G1 X96.847 Y81.946 E0.01642
G1 X97.4 Y81.698 E0.02827
G1 X97.981 Y81.525 E0.02828
G1 X98.58 Y81.429 E0.0283
G1 X98.921 Y81.411 E0.01593
G1 X99.562 Y81.4 E0.02991
G1 X200.365 Y81.401 E4.70219
G1 X201.068 Y81.412 E0.0328
G1 X201.672 Y81.461 E0.02827
G1 X202.265 Y81.589 E0.0283
G1 X202.835 Y81.795 E0.02827
G1 X203.116 Y81.929 E0.01452
G1 X205.275 Y83.051 E0.1135
G1 X207.706 Y84.234 E0.12611
G1 X210.169 Y85.346 E0.12606
G1 X212.65 Y86.385 E0.12547
G1 X215.208 Y87.372 E0.1279
G1 X217.714 Y88.257 E0.12397
G1 X220.314 Y89.094 E0.12741
G1 X222.858 Y89.835 E0.1236
G1 X225.508 Y90.525 E0.12774
G1 X228.127 Y91.13 E0.12539
G1 X229.009 Y91.307 E0.04196
G1 X229.958 Y91.511 E0.04528
G1 X230.541 Y91.677 E0.02828
G1 X231.097 Y91.918 E0.02827
G1 X231.617 Y92.231 E0.02831
G1 X232.09 Y92.609 E0.02824
G1 X232.511 Y93.046 E0.02831
G1 X232.87 Y93.535 E0.0283
G1 X233.161 Y94.066 E0.02825
G1 X233.38 Y94.632 E0.02831
G1 X233.523 Y95.221 E0.02827
G1 X233.589 Y95.879 E0.03085
G1 X233.6 Y96.33 E0.02104
G1 X233.6 Y110.338 E0.65344
G1 X233.59 Y111.059 E0.03364
G1 X233.541 Y111.663 E0.02827
G1 X233.414 Y112.256 E0.02829
G1 X233.21 Y112.827 E0.02828
G1 X232.932 Y113.366 E0.02829
G1 X232.586 Y113.864 E0.02829
G1 X232.359 Y114.127 E0.01621
G1 X231.509 Y115.041 E0.05822
G1 X231.095 Y115.474 E0.02795
G1 X229.291 Y117.474 E0.12564
G1 X227.534 Y119.534 E0.1263
G1 X225.848 Y121.627 E0.12537
G1 X224.212 Y123.784 E0.12629
G1 X222.649 Y125.966 E0.1252
G1 X221.132 Y128.216 E0.12658
G1 X219.702 Y130.476 E0.12475
G1 X218.317 Y132.808 E0.12652
G1 X216.987 Y135.194 E0.12742
G1 X215.758 Y137.555 E0.12416
G1 X214.584 Y139.977 E0.12555
G1 X213.47 Y142.453 E0.12665
G1 X212.428 Y144.953 E0.12634
G1 X211.453 Y147.492 E0.12687
G1 X210.577 Y149.981 E0.12309
G1 X209.749 Y152.568 E0.12671
G1 X208.994 Y155.174 E0.12656
G1 X208.319 Y157.777 E0.12544
G1 X207.713 Y160.426 E0.12676
G1 X207.191 Y163.05 E0.1248
G1 X206.737 Y165.711 E0.12592
G1 X206.357 Y168.402 E0.12677
G1 X206.059 Y171.054 E0.12449
G1 X205.831 Y173.758 E0.12658
G1 X205.682 Y176.437 E0.12516
G1 X205.6 Y180.438 E0.18668
G1 X205.6 Y186.827 E0.29803
G1 X205.59 Y187.554 E0.03392
G1 X205.541 Y188.159 E0.02831
G1 X205.414 Y188.751 E0.02824
G1 X205.21 Y189.322 E0.02828
G1 X204.932 Y189.861 E0.02829
G1 X204.586 Y190.359 E0.02829
G1 X204.178 Y190.807 E0.02827
G1 X203.714 Y191.198 E0.0283
G1 X203.203 Y191.524 E0.02827
G1 X202.653 Y191.78 E0.0283
G1 X202.075 Y191.961 E0.02825
G1 X201.477 Y192.065 E0.02831
G1 X201.119 Y192.089 E0.01674
G1 X200.67 Y192.1 E0.02095
G1 X99.648 Y192.1 E4.71241
G1 X98.95 Y192.091 E0.03256
G1 X98.345 Y192.043 E0.02831
G1 X97.752 Y191.916 E0.02829
G1 X97.181 Y191.712 E0.02828
G1 X96.642 Y191.435 E0.02827
G1 X96.144 Y191.09 E0.02826
G1 X95.695 Y190.682 E0.0283
G1 X95.305 Y190.218 E0.02827
G1 X94.978 Y189.707 E0.0283
G1 X94.722 Y189.158 E0.02826
G1 X94.54 Y188.58 E0.02827
G1 X94.435 Y187.982 E0.02832
G1 X94.411 Y187.615 E0.01716
G1 X94.4 Y187.158 E0.02132
G1 X94.4 Y180.449 E0.31296
G1 X94.361 Y177.675 E0.12941
G1 X94.246 Y174.968 E0.12639
G1 X94.059 Y172.333 E0.12322
G1 X93.789 Y169.605 E0.12788
G1 X93.445 Y166.921 E0.12623
G1 X93.032 Y164.293 E0.12409
G1 X92.533 Y161.606 E0.12748
G1 X91.968 Y158.98 E0.1253
G1 X91.33 Y156.375 E0.12511
G1 X90.615 Y153.778 E0.12565
G1 X89.821 Y151.186 E0.12646
G1 X88.949 Y148.602 E0.12722
G1 X88.031 Y146.112 E0.12379
G1 X87.013 Y143.577 E0.12743
G1 X85.933 Y141.095 E0.12626
G1 X84.807 Y138.694 E0.1237
G1 X83.563 Y136.224 E0.12901
G1 X82.308 Y133.9 E0.12321
G1 X80.948 Y131.54 E0.12706
G1 X79.536 Y129.245 E0.1257
G1 X78.07 Y127.007 E0.1248
G1 X76.524 Y124.787 E0.12619
G1 X74.903 Y122.594 E0.12721
G1 X73.255 Y120.491 E0.12463
G1 X71.519 Y118.4 E0.12677
G1 X69.74 Y116.377 E0.12567
G1 X67.647 Y114.134 E0.14311
G1 X67.263 Y113.665 E0.02828
G1 X66.945 Y113.149 E0.02827
G1 X66.697 Y112.595 E0.02831
G1 X66.524 Y112.014 E0.02828
G1 X66.412 Y111.137 E0.04124
G1 X66.4 Y110.67 E0.02179
G1 X66.401 Y96.605 E0.65609
G1 X66.411 Y95.941 E0.03098
G1 X66.46 Y95.336 E0.02831
G1 X66.588 Y94.744 E0.02825
G1 X66.793 Y94.173 E0.0283
G1 X67.071 Y93.634 E0.02829
G1 X67.417 Y93.137 E0.02825
G1 X67.827 Y92.69 E0.02829
G1 X68.291 Y92.3 E0.02827
G1 X68.802 Y91.974 E0.02827
G0 F12000 X69.178 Y92.231
G1 F4800 X69.715 Y92.015 E0.027
G1 X70.129 Y91.903 E0.02001
G1 X73.33 Y91.216 E0.15272
G1 X75.928 Y90.579 E0.12478
G1 X78.557 Y89.852 E0.12724
G1 X81.121 Y89.065 E0.12511
G1 X83.722 Y88.185 E0.12809
G1 X86.27 Y87.243 E0.12672
G1 X88.751 Y86.244 E0.12476
G1 X91.238 Y85.159 E0.12657
G1 X93.717 Y83.995 E0.12775
G1 X97.035 Y82.3 E0.1738
G1 X97.564 Y82.064 E0.02702
G1 X98.121 Y81.904 E0.02703
G1 X98.928 Y81.811 E0.03789
G1 X99.562 Y81.8 E0.02958
G1 X200.359 Y81.801 E4.70191
G1 X201.062 Y81.812 E0.0328
G1 X201.639 Y81.861 E0.02701
G1 X202.204 Y81.988 E0.02701
G1 X202.932 Y82.284 E0.03666
G1 X205.11 Y83.415 E0.11448
G1 X207.516 Y84.587 E0.12484
G1 X210.029 Y85.722 E0.12863
G1 X212.488 Y86.751 E0.12434
G1 X215.098 Y87.758 E0.1305
G1 X217.574 Y88.632 E0.12248
G1 X220.184 Y89.473 E0.12791
G1 X222.782 Y90.23 E0.12623
G1 X225.388 Y90.908 E0.12561
G1 X228.03 Y91.518 E0.12648
G1 X228.925 Y91.698 E0.04259
G1 X229.874 Y91.902 E0.04528
G1 X230.43 Y92.062 E0.02699
G1 X230.96 Y92.298 E0.02706
G1 X231.451 Y92.604 E0.02699
G1 X231.896 Y92.975 E0.02703
G1 X232.286 Y93.404 E0.02705
G1 X232.613 Y93.882 E0.02702
G1 X232.871 Y94.4 E0.02699
G1 X233.055 Y94.95 E0.02705
G1 X233.162 Y95.519 E0.02701
G1 X233.189 Y95.891 E0.0174
G1 X233.2 Y96.33 E0.02048
G1 X233.2 Y110.332 E0.65316
G1 X233.19 Y111.053 E0.03364
G1 X233.142 Y111.631 E0.02705
G1 X233.015 Y112.196 E0.02701
G1 X232.811 Y112.738 E0.02701
G1 X232.535 Y113.247 E0.02701
G1 X232.066 Y113.855 E0.03582
G1 X231.22 Y114.765 E0.05796
G1 X230.792 Y115.213 E0.0289
G1 X228.99 Y117.209 E0.12544
G1 X227.235 Y119.269 E0.12624
G1 X225.517 Y121.401 E0.12772
G1 X223.901 Y123.531 E0.12472
G1 X222.308 Y125.756 E0.12765
G1 X220.806 Y127.984 E0.12534
G1 X219.354 Y130.279 E0.12668
G1 X217.966 Y132.614 E0.12671
G1 X216.656 Y134.966 E0.12558
G1 X215.387 Y137.403 E0.12817
