;FLAVOR:RepRap
;TIME:3039
;Filament used: 10.1635m
;Layer height: 0.2
;MINX:48.889
;MINY:32.828
;MINZ:0.3
;MAXX:267.172
;MAXY:251.111
;MAXZ:4.3
;Generated with Cura_SteamEngine 5.2.1
T0
M190 S100
M104 S260
M109 S260
M82 ;absolute extrusion mode
print_start
M83 ;relative extrusion mode
G10
;LAYER_COUNT:19
;LAYER:0
M107
G1 F600 Z0.7
G0 F12000 X64.809 Y50.778 Z0.7
;TYPE:SKIRT
G1 F600 Z0.3
G11
G1 F4800 X66.136 Y49.459 E0.08728
G1 X66.734 Y48.853 E0.03971
G1 X80.766 Y34.821 E0.92568
G1 X81.247 Y34.353 E0.03131
G1 X81.745 Y33.924 E0.03066
G1 X82.291 Y33.559 E0.03064
G1 X82.878 Y33.263 E0.03067
G1 X83.496 Y33.04 E0.03065
G1 X84.137 Y32.895 E0.03066
G1 X84.79 Y32.828 E0.03062
G1 X85.447 Y32.84 E0.03065
G1 X86.097 Y32.933 E0.03063
G1 X86.732 Y33.104 E0.03068
G1 X87.341 Y33.35 E0.03064
G1 X87.915 Y33.669 E0.03063
G1 X88.447 Y34.055 E0.03066
G1 X88.708 Y34.285 E0.01623
G1 X89.025 Y34.587 E0.02042
G1 X265.137 Y210.696 E11.61789
G1 X265.649 Y211.223 E0.03427
G1 X266.077 Y211.721 E0.03063
G1 X266.442 Y212.268 E0.03068
G1 X266.738 Y212.855 E0.03067
G1 X266.96 Y213.473 E0.03063
G1 X267.105 Y214.113 E0.03061
G1 X267.172 Y214.767 E0.03067
G1 X267.158 Y215.424 E0.03065
G1 X267.065 Y216.074 E0.03063
G1 X266.894 Y216.708 E0.03063
G1 X266.647 Y217.317 E0.03066
G1 X266.328 Y217.891 E0.03063
G1 X265.941 Y218.423 E0.03069
G1 X265.714 Y218.681 E0.01603
G1 X265.413 Y218.998 E0.02039
G1 X251.41 Y233.002 E0.9238
G1 X249.894 Y234.51 E0.09975
G1 X249.301 Y235.111 E0.03938
G1 X235.303 Y249.109 E0.92344
G1 X234.814 Y249.585 E0.03183
G1 X234.316 Y250.014 E0.03066
G1 X233.77 Y250.379 E0.03064
G1 X233.183 Y250.675 E0.03067
G1 X232.565 Y250.898 E0.03065
G1 X231.925 Y251.044 E0.03062
G1 X231.271 Y251.111 E0.03067
G1 X230.614 Y251.099 E0.03065
G1 X229.964 Y251.006 E0.03063
G1 X229.329 Y250.836 E0.03066
G1 X228.72 Y250.589 E0.03066
G1 X228.146 Y250.271 E0.03061
G1 X227.614 Y249.885 E0.03066
G1 X227.329 Y249.633 E0.01775
G1 X227.093 Y249.409 E0.01518
G1 X50.886 Y73.203 E11.62422
G1 X50.418 Y72.723 E0.03127
G1 X49.988 Y72.225 E0.03069
G1 X49.623 Y71.679 E0.03064
G1 X49.326 Y71.093 E0.03065
G1 X49.103 Y70.475 E0.03065
G1 X48.957 Y69.835 E0.03062
G1 X48.889 Y69.182 E0.03063
G1 X48.901 Y68.525 E0.03065
G1 X48.993 Y67.874 E0.03067
G1 X49.163 Y67.24 E0.03062
G1 X49.409 Y66.63 E0.03068
G1 X49.727 Y66.056 E0.03061
G1 X50.113 Y65.524 E0.03066
G1 X50.353 Y65.251 E0.01696
G1 X50.676 Y64.912 E0.02184
G1 X64.809 Y50.778 E0.93238
G10
G1 F600 Z0.7
G0 F12000 X65.655 Y51.629 Z0.7
G1 F600 Z0.3
G11
G1 F4800 X67.012 Y50.28 E0.08926
G1 X67.559 Y49.724 E0.03638
G1 X81.603 Y35.681 E0.92644
G1 X82.084 Y35.213 E0.03131
G1 X82.526 Y34.838 E0.02704
G1 X83.016 Y34.528 E0.02705
G1 X83.543 Y34.289 E0.02699
G1 X84.098 Y34.124 E0.02701
G1 X84.671 Y34.037 E0.02704
G1 X85.25 Y34.03 E0.02701
G1 X85.825 Y34.102 E0.02703
G1 X86.384 Y34.253 E0.02701
G1 X86.918 Y34.48 E0.02707
G1 X87.415 Y34.777 E0.02701
G1 X87.887 Y35.16 E0.02835
G1 X88.177 Y35.435 E0.01864
G1 X264.276 Y211.532 E11.61706
G1 X264.788 Y212.059 E0.03427
G1 X265.162 Y212.502 E0.02704
G1 X265.472 Y212.991 E0.02701
G1 X265.711 Y213.519 E0.02704
G1 X265.876 Y214.074 E0.02701
G1 X265.962 Y214.647 E0.02703
G1 X265.969 Y215.226 E0.02701
G1 X265.896 Y215.801 E0.02704
G1 X265.745 Y216.36 E0.02701
G1 X265.518 Y216.893 E0.02702
G1 X265.22 Y217.39 E0.02703
G1 X264.839 Y217.86 E0.02822
G1 X264.564 Y218.15 E0.01864
G1 X250.564 Y232.151 E0.9236
G1 X249.038 Y233.668 E0.10037
G1 X248.453 Y234.263 E0.03892
G1 X234.466 Y248.25 E0.92271
G1 X233.977 Y248.726 E0.03183
G1 X233.535 Y249.1 E0.02701
G1 X233.045 Y249.41 E0.02705
G1 X232.518 Y249.65 E0.02701
G1 X231.963 Y249.815 E0.02701
G1 X231.39 Y249.902 E0.02704
G1 X230.811 Y249.909 E0.02701
G1 X230.236 Y249.837 E0.02703
G1 X229.677 Y249.686 E0.02701
G1 X229.143 Y249.46 E0.02705
G1 X228.646 Y249.162 E0.02703
G1 X228.156 Y248.762 E0.02951
G1 X227.841 Y248.462 E0.02029
G1 X51.745 Y72.365 E11.61696
G1 X51.277 Y71.885 E0.03127
G1 X50.902 Y71.443 E0.02704
G1 X50.591 Y70.954 E0.02703
G1 X50.351 Y70.427 E0.02701
G1 X50.186 Y69.872 E0.02701
G1 X50.098 Y69.299 E0.02704
G1 X50.09 Y68.72 E0.02701
G1 X50.162 Y68.145 E0.02703
G1 X50.313 Y67.586 E0.02701
G1 X50.539 Y67.052 E0.02705
G1 X50.836 Y66.555 E0.02701
G1 X51.226 Y66.074 E0.02889
G1 X51.524 Y65.76 E0.02019
G1 X65.655 Y51.629 E0.93221
G10
G1 F600 Z0.7
G0 F12000 X66.695 Y50.031 Z0.7
G1 F600 Z0.3
G11
G1 F4800 X67.274 Y49.443 E0.03849
G1 X81.324 Y35.394 E0.92684
G1 X81.805 Y34.926 E0.03131
G1 X82.267 Y34.533 E0.02829
G1 X82.776 Y34.204 E0.02827
G1 X83.324 Y33.944 E0.02829
G1 X83.901 Y33.759 E0.02827
G1 X84.498 Y33.652 E0.02829
G1 X85.104 Y33.624 E0.0283
G1 X85.708 Y33.676 E0.02828
G1 X86.3 Y33.807 E0.02828
G1 X86.869 Y34.014 E0.02824
G1 X87.407 Y34.295 E0.02831
G1 X87.903 Y34.644 E0.02829
G1 X88.16 Y34.868 E0.0159
G1 X88.46 Y35.152 E0.01927
G1 X264.563 Y211.254 E11.61736
G1 X265.075 Y211.781 E0.03427
G1 X265.468 Y212.242 E0.02826
G1 X265.797 Y212.752 E0.02831
G1 X266.056 Y213.3 E0.02827
G1 X266.24 Y213.878 E0.0283
G1 X266.347 Y214.474 E0.02825
G1 X266.375 Y215.08 E0.0283
G1 X266.323 Y215.684 E0.02828
G1 X266.191 Y216.276 E0.02829
G1 X265.983 Y216.845 E0.02826
G1 X265.702 Y217.383 E0.02831
G1 X265.353 Y217.878 E0.02825
G1 X265.131 Y218.133 E0.01577
G1 X264.847 Y218.432 E0.01924
G1 X250.846 Y232.435 E0.9237
G1 X249.323 Y233.949 E0.10017
G1 X248.736 Y234.546 E0.03906
G1 X234.745 Y248.536 E0.92294
G1 X234.256 Y249.012 E0.03183
G1 X233.794 Y249.406 E0.02832
G1 X233.285 Y249.735 E0.02827
G1 X232.737 Y249.994 E0.02827
G1 X232.16 Y250.179 E0.02827
G1 X231.563 Y250.287 E0.0283
G1 X230.957 Y250.315 E0.0283
G1 X230.353 Y250.263 E0.02828
G1 X229.761 Y250.133 E0.02827
G1 X229.192 Y249.925 E0.02826
G1 X228.654 Y249.645 E0.02829
G1 X228.158 Y249.296 E0.02829
G1 X227.88 Y249.052 E0.01725
G1 X227.558 Y248.745 E0.02075
G1 X51.458 Y72.644 E11.61723
G1 X50.99 Y72.164 E0.03127
G1 X50.597 Y71.703 E0.02826
G1 X50.267 Y71.194 E0.0283
G1 X50.007 Y70.647 E0.02825
G1 X49.822 Y70.069 E0.02831
G1 X49.713 Y69.473 E0.02826
G1 X49.685 Y68.867 E0.0283
G1 X49.736 Y68.263 E0.02828
G1 X49.866 Y67.671 E0.02827
G1 X50.073 Y67.101 E0.02829
G1 X50.353 Y66.563 E0.02829
G1 X50.702 Y66.067 E0.02829
G1 X50.935 Y65.799 E0.01657
G1 X51.241 Y65.477 E0.02072
G1 X66.695 Y50.031 E1.01923
G0 F12000 X66.42 Y49.74
G1 F4800 X67.016 Y49.135 E0.03962
G1 X81.045 Y35.107 E0.92545
G1 X81.526 Y34.639 E0.03131
G1 X82.006 Y34.228 E0.02948
G1 X82.534 Y33.881 E0.02947
G1 X83.102 Y33.603 E0.0295
G1 X83.7 Y33.398 E0.02949
G1 X84.32 Y33.271 E0.02952
G1 X84.95 Y33.223 E0.02947
G1 X85.581 Y33.255 E0.02947
G1 X86.203 Y33.367 E0.02948
G1 X86.807 Y33.556 E0.02952
G1 X87.381 Y33.819 E0.02945
G1 X87.918 Y34.153 E0.0295
G1 X88.434 Y34.576 E0.03112
G1 X88.743 Y34.869 E0.01986
G1 X264.85 Y210.975 E11.61762
G1 X265.362 Y211.502 E0.03427
G1 X265.773 Y211.982 E0.02948
G1 X266.12 Y212.511 E0.02951
G1 X266.398 Y213.078 E0.02946
G1 X266.602 Y213.677 E0.02952
G1 X266.728 Y214.296 E0.02947
G1 X266.776 Y214.927 E0.02952
G1 X266.743 Y215.558 E0.02947
G1 X266.631 Y216.18 E0.02948
G1 X266.442 Y216.783 E0.02948
G1 X266.178 Y217.357 E0.02947
G1 X265.843 Y217.894 E0.02952
G1 X265.423 Y218.407 E0.03093
G1 X265.13 Y218.715 E0.01983
G1 X251.128 Y232.719 E0.92377
G1 X249.609 Y234.229 E0.09991
G1 X249.019 Y234.829 E0.03925
G1 X235.024 Y248.823 E0.92321
G1 X234.535 Y249.299 E0.03183
G1 X234.055 Y249.71 E0.02948
G1 X233.527 Y250.058 E0.0295
G1 X232.959 Y250.336 E0.0295
G1 X232.361 Y250.54 E0.02947
G1 X231.742 Y250.668 E0.02949
G1 X231.111 Y250.716 E0.02952
G1 X230.48 Y250.684 E0.02947
G1 X229.858 Y250.572 E0.02948
G1 X229.254 Y250.384 E0.02951
G1 X228.68 Y250.12 E0.02947
G1 X228.143 Y249.786 E0.0295
G1 X227.605 Y249.343 E0.03251
G1 X227.275 Y249.028 E0.02128
G1 X51.172 Y72.924 E11.61742
G1 X50.704 Y72.444 E0.03127
G1 X50.292 Y71.964 E0.02951
G1 X49.944 Y71.436 E0.0295
G1 X49.666 Y70.869 E0.02946
G1 X49.461 Y70.271 E0.02949
G1 X49.333 Y69.652 E0.02949
G1 X49.284 Y69.021 E0.02952
G1 X49.316 Y68.39 E0.02947
G1 X49.427 Y67.768 E0.02947
G1 X49.615 Y67.164 E0.02951
G1 X49.878 Y66.589 E0.02949
G1 X50.211 Y66.052 E0.02947
G1 X50.644 Y65.525 E0.03182
G1 X50.958 Y65.194 E0.02128
G1 X66.42 Y49.74 E1.01975
G10
G1 F600 Z0.7
;MESH:??????.STL
G0 F12000 X55.687 Y68.953 Z0.7
;TYPE:WALL-INNER
G1 F600 Z0.3
G11
G1 F4800 X231.047 Y244.313 E11.56838
G1 X237.679 Y237.68 E0.43754
G1 X244.313 Y231.047 E0.43761
G1 X68.953 Y55.687 E11.56838
G1 X55.687 Y68.953 E0.87515
G0 F12000 X55.121 Y68.953
G1 F4800 X231.047 Y244.879 E11.60572
G1 X237.962 Y237.963 E0.45621
G1 X244.879 Y231.047 E0.45628
G1 X68.953 Y55.121 E11.60572
G1 X55.121 Y68.953 E0.91249
G0 F12000 X54.555 Y68.953
;TYPE:WALL-OUTER
G1 F4800 X231.047 Y245.445 E11.64305
G1 X238.245 Y238.246 E0.47488
G1 X245.445 Y231.047 E0.47495
G1 X68.953 Y54.555 E11.64305
G1 X54.555 Y68.953 E0.94983
G10
G0 F12000 X54.937 Y68.953
G0 X231.047 Y244.43
G0 X231.386 Y243.831
G11
G0 X231.329 Y243.774
;TYPE:SKIN
G1 F4800 X56.224 Y68.669 E11.55155
G0 F12000 X56.507 Y68.387
G1 F4800 X231.612 Y243.491 E11.55152
G0 F12000 X231.894 Y243.208
G1 F4800 X56.79 Y68.104 E11.55149
G0 F12000 X57.073 Y67.821
G1 F4800 X232.177 Y242.925 E11.55149
G0 F12000 X232.46 Y242.642
G1 F4800 X57.356 Y67.538 E11.55149
G0 F12000 X57.639 Y67.255
G1 F4800 X232.743 Y242.36 E11.55152
G0 F12000 X233.026 Y242.077
G1 F4800 X57.921 Y66.972 E11.55155
G0 F12000 X58.204 Y66.69
G1 F4800 X233.309 Y241.794 E11.55152
G0 F12000 X233.592 Y241.511
G1 F4800 X58.487 Y66.407 E11.55152
G0 F12000 X58.77 Y66.124
G1 F4800 X233.874 Y241.228 E11.55149
G0 F12000 X234.157 Y240.945
G1 F4800 X59.053 Y65.841 E11.55149
G0 F12000 X59.336 Y65.558
G1 F4800 X234.44 Y240.663 E11.55152
G0 F12000 X234.723 Y240.38
G1 F4800 X59.619 Y65.275 E11.55152
G0 F12000 X59.901 Y64.993
G1 F4800 X235.006 Y240.097 E11.55152
G0 F12000 X235.289 Y239.814
G1 F4800 X60.184 Y64.71 E11.55152
G0 F12000 X60.467 Y64.427
G1 F4800 X235.571 Y239.531 E11.55149
G0 F12000 X235.854 Y239.248
G1 F4800 X60.75 Y64.144 E11.55149
G0 F12000 X61.033 Y63.861
G1 F4800 X236.137 Y238.966 E11.55152
G0 F12000 X236.42 Y238.683
G1 F4800 X61.316 Y63.578 E11.55152
G0 F12000 X61.598 Y63.295
G1 F4800 X236.703 Y238.4 E11.55155
G0 F12000 X236.986 Y238.117
G1 F4800 X61.881 Y63.013 E11.55152
G0 F12000 X62.164 Y62.73
G1 F4800 X237.268 Y237.834 E11.55149
G0 F12000 X237.551 Y237.551
G1 F4800 X62.447 Y62.447 E11.55149
G0 F12000 X62.73 Y62.164
G1 F4800 X237.834 Y237.268 E11.55149
G0 F12000 X238.117 Y236.986
G1 F4800 X63.013 Y61.881 E11.55152
G0 F12000 X63.295 Y61.598
G1 F4800 X238.4 Y236.703 E11.55155
G0 F12000 X238.683 Y236.42
G1 F4800 X63.578 Y61.316 E11.55152
G0 F12000 X63.861 Y61.033
G1 F4800 X238.966 Y236.137 E11.55152
G0 F12000 X239.248 Y235.854
G1 F4800 X64.144 Y60.75 E11.55149
G0 F12000 X64.427 Y60.467
G1 F4800 X239.531 Y235.571 E11.55149
G0 F12000 X239.814 Y235.289
G1 F4800 X64.71 Y60.184 E11.55152
G0 F12000 X64.993 Y59.901
G1 F4800 X240.097 Y235.006 E11.55152
G0 F12000 X240.38 Y234.723
G1 F4800 X65.275 Y59.619 E11.55152
G0 F12000 X65.558 Y59.336
G1 F4800 X240.663 Y234.44 E11.55152
G0 F12000 X240.945 Y234.157
G1 F4800 X65.841 Y59.053 E11.55149
G0 F12000 X66.124 Y58.77
G1 F4800 X241.228 Y233.874 E11.55149
G0 F12000 X241.511 Y233.592
G1 F4800 X66.407 Y58.487 E11.55152
G0 F12000 X66.69 Y58.204
G1 F4800 X241.794 Y233.309 E11.55152
G0 F12000 X242.077 Y233.026
G1 F4800 X66.972 Y57.921 E11.55155
G0 F12000 X67.255 Y57.639
G1 F4800 X242.36 Y232.743 E11.55152
G0 F12000 X242.642 Y232.46
G1 F4800 X67.538 Y57.356 E11.55149
G0 F12000 X67.821 Y57.073
G1 F4800 X242.925 Y232.177 E11.55149
G0 F12000 X243.208 Y231.894
G1 F4800 X68.104 Y56.79 E11.55149
G0 F12000 X68.387 Y56.507
G1 F4800 X243.491 Y231.612 E11.55152
G0 F12000 X243.774 Y231.329
G1 F4800 X68.669 Y56.224 E11.55155
G1 X68.599 Y56.154
G0 F12000 X68.682 Y56.238
G10
G1 F600 Z0.7
;MESH:??????.STL(1)
G0 F12000 X68.682 Y56.238 Z0.7
G0 X71.747 Y52.892
;TYPE:WALL-INNER
G1 F600 Z0.3
G11
G1 F4800 X247.108 Y228.253 E11.56844
G1 X253.741 Y221.619 E0.43761
G1 X260.374 Y214.986 E0.43757
G1 X85.013 Y39.626 E11.56841
G1 X71.747 Y52.892 E0.87515
G0 F12000 X71.181 Y52.892
G1 F4800 X247.108 Y228.819 E11.60578
G1 X254.024 Y221.902 E0.45628
G1 X260.94 Y214.986 E0.45624
G1 X85.013 Y39.06 E11.60575
G1 X71.181 Y52.892 E0.91249
G0 F12000 X70.615 Y52.892
;TYPE:WALL-OUTER
G1 F4800 X247.108 Y229.385 E11.64312
G1 X254.307 Y222.185 E0.47495
G1 X261.506 Y214.986 E0.47491
G1 X85.013 Y38.494 E11.64309
G1 X70.615 Y52.892 E0.94983
G0 F12000 X70.997 Y52.892
G0 X72.008 Y52.774
G0 X72.063 Y52.83
;TYPE:SKIN
G1 F4800 X247.169 Y227.935 E11.55159
G0 F12000 X247.452 Y227.653
G1 F4800 X72.346 Y52.547 E11.55162
G0 F12000 X72.629 Y52.264
G1 F4800 X247.734 Y227.37 E11.55159
G0 F12000 X248.017 Y227.087
G1 F4800 X72.911 Y51.981 E11.55162
G0 F12000 X73.194 Y51.698
G1 F4800 X248.3 Y226.804 E11.55162
G0 F12000 X248.583 Y226.521
G1 F4800 X73.477 Y51.415 E11.55162
G0 F12000 X73.76 Y51.133
G1 F4800 X248.866 Y226.238 E11.55159
G0 F12000 X249.149 Y225.955
G1 F4800 X74.043 Y50.85 E11.55159
G0 F12000 X74.326 Y50.567
G1 F4800 X249.431 Y225.673 E11.55159
G0 F12000 X249.714 Y225.39
G1 F4800 X74.608 Y50.284 E11.55162
G0 F12000 X74.891 Y50.001
G1 F4800 X249.997 Y225.107 E11.55162
G0 F12000 X250.28 Y224.824
G1 F4800 X75.174 Y49.718 E11.55162
G0 F12000 X75.457 Y49.435
G1 F4800 X250.563 Y224.541 E11.55162
G0 F12000 X250.846 Y224.258
G1 F4800 X75.74 Y49.153 E11.55159
G0 F12000 X76.023 Y48.87
G1 F4800 X251.128 Y223.976 E11.55159
G0 F12000 X251.411 Y223.693
G1 F4800 X76.306 Y48.587 E11.55159
G0 F12000 X76.588 Y48.304
G1 F4800 X251.694 Y223.41 E11.55162
G0 F12000 X251.977 Y223.127
G1 F4800 X76.871 Y48.021 E11.55162
G0 F12000 X77.154 Y47.738
G1 F4800 X252.26 Y222.844 E11.55162
G0 F12000 X252.543 Y222.561
G1 F4800 X77.437 Y47.456 E11.55159
G0 F12000 X77.72 Y47.173
G1 F4800 X252.826 Y222.279 E11.55162
G0 F12000 X253.108 Y221.996
G1 F4800 X78.003 Y46.89 E11.55159
G0 F12000 X78.285 Y46.607
G1 F4800 X253.391 Y221.713 E11.55162
G0 F12000 X253.674 Y221.43
G1 F4800 X78.568 Y46.324 E11.55162
G0 F12000 X78.851 Y46.041
G1 F4800 X253.957 Y221.147 E11.55162
G0 F12000 X254.24 Y220.864
G1 F4800 X79.134 Y45.759 E11.55159
G0 F12000 X79.417 Y45.476
G1 F4800 X254.523 Y220.581 E11.55159
G0 F12000 X254.805 Y220.299
G1 F4800 X79.7 Y45.193 E11.55159
G0 F12000 X79.982 Y44.91
G1 F4800 X255.088 Y220.016 E11.55162
G0 F12000 X255.371 Y219.733
G1 F4800 X80.265 Y44.627 E11.55162
G0 F12000 X80.548 Y44.344
G1 F4800 X255.654 Y219.45 E11.55162
G0 F12000 X255.937 Y219.167
G1 F4800 X80.831 Y44.061 E11.55162
G0 F12000 X81.114 Y43.779
G1 F4800 X256.22 Y218.884 E11.55159
G0 F12000 X256.502 Y218.602
G1 F4800 X81.397 Y43.496 E11.55159
G0 F12000 X81.68 Y43.213
G1 F4800 X256.785 Y218.319 E11.55159
G0 F12000 X257.068 Y218.036
G1 F4800 X81.962 Y42.93 E11.55162
G0 F12000 X82.245 Y42.647
G1 F4800 X257.351 Y217.753 E11.55162
G0 F12000 X257.634 Y217.47
G1 F4800 X82.528 Y42.364 E11.55162
G0 F12000 X82.811 Y42.082
G1 F4800 X257.917 Y217.187 E11.55159
G0 F12000 X258.2 Y216.905
G1 F4800 X83.094 Y41.799 E11.55162
G0 F12000 X83.377 Y41.516
G1 F4800 X258.482 Y216.622 E11.55159
G0 F12000 X258.765 Y216.339
G1 F4800 X83.659 Y41.233 E11.55162
G0 F12000 X83.942 Y40.95
G1 F4800 X259.048 Y216.056 E11.55162
G0 F12000 X259.331 Y215.773
G1 F4800 X84.225 Y40.667 E11.55162
G0 F12000 X84.508 Y40.384
G1 F4800 X259.614 Y215.49 E11.55162
G0 F12000 X259.897 Y215.207
G1 F4800 X84.791 Y40.102 E11.55159
G1 X84.721 Y40.032
G0 F12000 X84.804 Y40.115
G10
G1 F600 Z0.7
;MESH:NONMESH
G0 F12000 X84.804 Y40.115 Z0.7
G0 X56.489 Y68.716
;TIME_ELAPSED:359.119921
;LAYER:1
M106 S17
;MESH:??????.STL
G0 F18000 X56.489 Y68.716 Z0.9
;TYPE:WALL-INNER
G1 F600 Z0.5
G11
G1 F9000 X231.284 Y243.511 E7.6874
G1 X237.397 Y237.398 E0.26885
G1 X243.511 Y231.284 E0.26889
G1 X68.716 Y56.489 E7.6874
G1 X56.489 Y68.716 E0.53774
G0 F18000 X55.923 Y68.716
G1 F9000 X231.284 Y244.077 E7.71229
G1 X237.679 Y237.681 E0.28127
G1 X244.077 Y231.284 E0.28136
G1 X68.716 Y55.923 E7.71229
G1 X55.923 Y68.716 E0.56263
G0 F18000 X55.357 Y68.716
G1 F9000 X231.284 Y244.643 E7.73719
G1 X237.962 Y237.964 E0.29372
G1 X244.643 Y231.284 E0.29381
G1 X68.716 Y55.357 E7.73719
G1 X55.357 Y68.716 E0.58752
