;FLAVOR:RepRap
;TIME:3324
;Filament used: 6.9439m
;Layer height: 0.2
;MINX:104.6
;MINY:106.6
;MINZ:0.3
;MAXX:195.4
;MAXY:193.4
;MAXZ:30.1
;Generated with Cura_SteamEngine 5.2.1
T0
M190 S100
M104 S260
M109 S260
M82 ;absolute extrusion mode
print_start
M83 ;relative extrusion mode
G10
;LAYER_COUNT:150
;LAYER:0
M107
G1 F600 Z0.7
G0 F12000 X126.427 Y109.154 Z0.7
;TYPE:SKIRT
G1 F600 Z0.3
G11
G1 F4800 X126.941 Y108.629 E0.03427
G1 X127.261 Y108.344 E0.01999
G1 X128.032 Y107.772 E0.04478
G1 X128.277 Y107.622 E0.0134
G1 X129.032 Y107.237 E0.03953
G1 X129.322 Y107.117 E0.01464
G1 X130.095 Y106.864 E0.03794
G1 X130.302 Y106.813 E0.00994
G1 X131.057 Y106.683 E0.03574
G1 X131.547 Y106.634 E0.02297
G1 X132.006 Y106.608 E0.02145
G1 X132.567 Y106.6 E0.02617
G1 X187.293 Y106.6 E2.55282
G1 X188.256 Y106.616 E0.04493
G1 X188.911 Y106.667 E0.03065
G1 X189.315 Y106.739 E0.01914
G1 X189.805 Y106.846 E0.0234
G1 X190.437 Y107.025 E0.03064
G1 X191.016 Y107.258 E0.02911
G1 X191.765 Y107.646 E0.03935
G1 X192.029 Y107.81 E0.0145
G1 X192.673 Y108.279 E0.03716
G1 X192.831 Y108.413 E0.00966
G1 X193.376 Y108.946 E0.03556
G1 X193.661 Y109.267 E0.02002
G1 X194.225 Y110.027 E0.04415
G1 X194.376 Y110.273 E0.01346
G1 X194.767 Y111.042 E0.04024
G1 X194.886 Y111.331 E0.01458
G1 X195.136 Y112.095 E0.0375
G1 X195.187 Y112.302 E0.00994
G1 X195.317 Y113.056 E0.03569
G1 X195.366 Y113.545 E0.02292
G1 X195.392 Y114.005 E0.02149
G1 X195.4 Y114.567 E0.02622
G1 X195.399 Y169.357 E2.55581
G1 X195.384 Y170.253 E0.0418
G1 X195.333 Y170.908 E0.03065
G1 X195.261 Y171.311 E0.0191
G1 X195.155 Y171.798 E0.02325
G1 X194.977 Y172.431 E0.03067
G1 X194.747 Y173.006 E0.02889
G1 X194.353 Y173.768 E0.04002
G1 X194.192 Y174.027 E0.01423
G1 X193.729 Y174.663 E0.0367
G1 X193.592 Y174.825 E0.0099
G1 X193.054 Y175.376 E0.03592
G1 X192.733 Y175.661 E0.02002
G1 X191.974 Y176.225 E0.04411
G1 X191.733 Y176.373 E0.01319
G1 X190.977 Y176.759 E0.0396
G1 X190.683 Y176.881 E0.01485
G1 X189.905 Y177.136 E0.03819
G1 X189.698 Y177.187 E0.00994
G1 X188.943 Y177.317 E0.03574
G1 X188.453 Y177.366 E0.02297
G1 X187.994 Y177.392 E0.02145
G1 X187.433 Y177.4 E0.02617
G1 X185.499 Y177.4 E0.09022
G1 X182.83 Y177.438 E0.12451
G1 X180.134 Y177.552 E0.12587
G1 X177.504 Y177.739 E0.12299
G1 X174.795 Y178.007 E0.12698
G1 X172.184 Y178.341 E0.12279
G1 X169.502 Y178.763 E0.12665
G1 X166.881 Y179.25 E0.12436
G1 X164.279 Y179.81 E0.12416
G1 X161.678 Y180.447 E0.12492
G1 X159.093 Y181.158 E0.12506
G1 X156.556 Y181.935 E0.12377
G1 X153.982 Y182.803 E0.12671
G1 X151.49 Y183.723 E0.12391
G1 X149 Y184.722 E0.12515
G1 X146.549 Y185.789 E0.1247
G1 X144.146 Y186.916 E0.12381
G1 X141.716 Y188.139 E0.1269
G1 X139.404 Y189.388 E0.12258
G1 X137.076 Y190.731 E0.12537
G1 X134.629 Y192.238 E0.13406
G1 X134.135 Y192.551 E0.02728
G1 X133.56 Y192.868 E0.03063
G1 X132.951 Y193.113 E0.03062
G1 X132.316 Y193.282 E0.03065
G1 X131.428 Y193.386 E0.04171
G1 X130.92 Y193.4 E0.02371
G1 X110.637 Y193.4 E0.94615
G1 X109.939 Y193.391 E0.03256
G1 X109.284 Y193.342 E0.03064
G1 X108.64 Y193.215 E0.03062
G1 X108.016 Y193.01 E0.03064
G1 X107.421 Y192.73 E0.03067
G1 X106.865 Y192.381 E0.03062
G1 X106.355 Y191.967 E0.03064
G1 X105.899 Y191.494 E0.03065
G1 X105.504 Y190.968 E0.03068
G1 X105.176 Y190.399 E0.03064
G1 X104.919 Y189.795 E0.03062
G1 X104.738 Y189.163 E0.03067
G1 X104.634 Y188.514 E0.03066
G1 X104.611 Y188.137 E0.01762
G1 X104.6 Y187.658 E0.02235
G1 X104.601 Y152.63 E1.63396
G1 X104.611 Y151.927 E0.0328
G1 X104.66 Y151.272 E0.03064
G1 X104.788 Y150.628 E0.03063
G1 X104.994 Y150.004 E0.03065
G1 X105.274 Y149.41 E0.03063
G1 X105.624 Y148.854 E0.03065
G1 X105.859 Y148.551 E0.01789
G1 X106.184 Y148.16 E0.02372
G1 X107.914 Y146.017 E0.12847
G1 X109.534 Y143.89 E0.12472
G1 X111.095 Y141.715 E0.12488
G1 X112.591 Y139.501 E0.12464
G1 X114.03 Y137.236 E0.12518
G1 X115.405 Y134.93 E0.12524
G1 X116.696 Y132.621 E0.1234
G1 X117.941 Y130.234 E0.12558
G1 X119.107 Y127.838 E0.1243
G1 X120.214 Y125.389 E0.12537
G1 X121.252 Y122.908 E0.12545
G1 X122.214 Y120.415 E0.12465
G1 X123.103 Y117.897 E0.12456
G1 X123.918 Y115.365 E0.12408
G1 X124.689 Y112.715 E0.12874
G1 X124.906 Y111.935 E0.03777
G1 X125.121 Y111.313 E0.0307
G1 X125.246 Y111.012 E0.0152
G1 X125.651 Y110.226 E0.04125
G1 X125.815 Y109.963 E0.01446
G1 X126.292 Y109.312 E0.03765
G1 X126.427 Y109.154 E0.00969
G0 F12000 X126.731 Y109.414
G1 F4800 X127.207 Y108.928 E0.03173
G1 X127.527 Y108.643 E0.01999
G1 X128.241 Y108.113 E0.04148
G1 X128.486 Y107.963 E0.0134
G1 X129.185 Y107.607 E0.03659
G1 X129.475 Y107.487 E0.01464
G1 X130.191 Y107.252 E0.03515
G1 X130.398 Y107.201 E0.00994
G1 X131.096 Y107.081 E0.03304
G1 X131.586 Y107.032 E0.02297
G1 X132.012 Y107.008 E0.0199
G1 X132.567 Y107 E0.02589
G1 X187.293 Y107 E2.55282
G1 X188.249 Y107.016 E0.0446
G1 X188.879 Y107.067 E0.02948
G1 X189.23 Y107.13 E0.01663
G1 X189.72 Y107.237 E0.0234
G1 X190.597 Y107.515 E0.04292
G1 X190.86 Y107.626 E0.01332
G1 X191.554 Y107.986 E0.03647
G1 X191.818 Y108.15 E0.0145
G1 X192.414 Y108.584 E0.03439
G1 X192.572 Y108.718 E0.00966
G1 X193.077 Y109.211 E0.03292
G1 X193.362 Y109.532 E0.02002
G1 X193.884 Y110.236 E0.04088
G1 X194.035 Y110.482 E0.01346
G1 X194.397 Y111.194 E0.03726
G1 X194.516 Y111.483 E0.01458
G1 X194.748 Y112.191 E0.03475
G1 X194.799 Y112.398 E0.00994
G1 X194.919 Y113.095 E0.03299
G1 X194.968 Y113.584 E0.02292
G1 X194.992 Y114.011 E0.01995
G1 X195 Y114.567 E0.02594
G1 X194.999 Y169.351 E2.55553
G1 X194.984 Y170.247 E0.0418
G1 X194.934 Y170.877 E0.02948
G1 X194.871 Y171.226 E0.01654
G1 X194.765 Y171.713 E0.02325
G1 X194.49 Y172.584 E0.04261
G1 X194.378 Y172.851 E0.01351
G1 X194.013 Y173.557 E0.03707
G1 X193.852 Y173.816 E0.01423
G1 X193.424 Y174.405 E0.03396
G1 X193.287 Y174.567 E0.0099
G1 X192.789 Y175.077 E0.03325
G1 X192.468 Y175.362 E0.02002
G1 X191.765 Y175.884 E0.04084
G1 X191.524 Y176.032 E0.01319
G1 X190.823 Y176.389 E0.0367
G1 X190.529 Y176.511 E0.01485
G1 X189.809 Y176.748 E0.03536
G1 X189.602 Y176.799 E0.00994
G1 X188.904 Y176.919 E0.03304
G1 X188.414 Y176.968 E0.02297
G1 X187.988 Y176.992 E0.0199
G1 X187.433 Y177 E0.02589
G1 X185.494 Y177 E0.09045
G1 X182.807 Y177.038 E0.12535
G1 X180.125 Y177.152 E0.12522
G1 X177.472 Y177.34 E0.12407
G1 X174.772 Y177.608 E0.12657
G1 X172.074 Y177.953 E0.12688
G1 X169.473 Y178.362 E0.12282
G1 X166.796 Y178.859 E0.12701
G1 X164.172 Y179.424 E0.12521
G1 X161.615 Y180.05 E0.1228
G1 X158.975 Y180.777 E0.12773
G1 X156.416 Y181.56 E0.12483
G1 X153.853 Y182.425 E0.12618
G1 X151.351 Y183.348 E0.1244
G1 X148.858 Y184.349 E0.12532
G1 X146.369 Y185.432 E0.12662
G1 X143.975 Y186.554 E0.12333
G1 X141.525 Y187.788 E0.12796
G1 X139.193 Y189.047 E0.12362
G1 X136.887 Y190.377 E0.12418
G1 X134.42 Y191.897 E0.13517
G1 X133.921 Y192.213 E0.02755
G1 X133.367 Y192.517 E0.02948
G1 X132.779 Y192.748 E0.02947
G1 X132.166 Y192.904 E0.02951
G1 X131.415 Y192.986 E0.03524
G1 X130.92 Y193 E0.0231
G1 X110.643 Y193 E0.94587
G1 X109.945 Y192.991 E0.03256
G1 X109.314 Y192.942 E0.02952
G1 X108.695 Y192.815 E0.02948
G1 X108.097 Y192.611 E0.02947
G1 X107.529 Y192.333 E0.0295
G1 X107.001 Y191.985 E0.0295
G1 X106.521 Y191.574 E0.02948
G1 X106.097 Y191.105 E0.02949
G1 X105.735 Y190.587 E0.02948
G1 X105.442 Y190.027 E0.02948
G1 X105.222 Y189.434 E0.0295
G1 X105.078 Y188.819 E0.02946
G1 X105.011 Y188.126 E0.03248
G1 X105 Y187.658 E0.02184
G1 X105.001 Y152.636 E1.63368
G1 X105.011 Y151.933 E0.0328
G1 X105.059 Y151.303 E0.02947
G1 X105.187 Y150.684 E0.02949
G1 X105.393 Y150.086 E0.0295
G1 X105.672 Y149.518 E0.02952
G1 X106.166 Y148.806 E0.04042
G1 X106.509 Y148.394 E0.02501
G1 X108.241 Y146.248 E0.12864
G1 X109.849 Y144.137 E0.12379
G1 X111.419 Y141.95 E0.12558
G1 X112.944 Y139.693 E0.12706
G1 X114.369 Y137.45 E0.12396
G1 X115.739 Y135.151 E0.12484
G1 X117.049 Y132.808 E0.12522
G1 X118.305 Y130.402 E0.12661
G1 X119.474 Y127.999 E0.12465
G1 X120.576 Y125.559 E0.12489
G1 X121.618 Y123.07 E0.12587
G1 X122.592 Y120.545 E0.12624
G1 X123.485 Y118.016 E0.12511
G1 X124.297 Y115.495 E0.12355
G1 X125.057 Y112.882 E0.12694
G1 X125.291 Y112.042 E0.04068
G1 X125.49 Y111.466 E0.02843
G1 X125.615 Y111.165 E0.0152
G1 X125.99 Y110.437 E0.0382
G1 X126.154 Y110.174 E0.01446
G1 X126.596 Y109.572 E0.03484
G1 X126.731 Y109.414 E0.00969
G0 F12000 X127.035 Y109.674
G1 F4800 X127.473 Y109.227 E0.02919
G1 X127.793 Y108.942 E0.01999
G1 X128.45 Y108.454 E0.03818
G1 X128.695 Y108.304 E0.0134
G1 X129.338 Y107.977 E0.03365
G1 X129.628 Y107.857 E0.01464
G1 X130.287 Y107.641 E0.03235
G1 X130.494 Y107.59 E0.00994
G1 X131.136 Y107.479 E0.03039
G1 X131.626 Y107.43 E0.02297
G1 X132.017 Y107.407 E0.01827
G1 X132.5 Y107.4 E0.02253
G1 X187.293 Y107.4 E2.55595
G1 X188.242 Y107.416 E0.04427
G1 X189.144 Y107.521 E0.04236
G1 X189.634 Y107.628 E0.0234
G1 X190.442 Y107.884 E0.03954
G1 X190.705 Y107.995 E0.01332
G1 X191.343 Y108.326 E0.03353
G1 X191.607 Y108.49 E0.0145
G1 X192.155 Y108.889 E0.03162
G1 X192.313 Y109.023 E0.00966
G1 X192.778 Y109.477 E0.03032
G1 X193.063 Y109.798 E0.02002
G1 X193.543 Y110.446 E0.03762
G1 X193.694 Y110.692 E0.01346
G1 X194.028 Y111.347 E0.0343
G1 X194.147 Y111.636 E0.01458
G1 X194.359 Y112.287 E0.03194
G1 X194.41 Y112.494 E0.00994
G1 X194.521 Y113.135 E0.03035
G1 X194.57 Y113.624 E0.02292
G1 X194.593 Y114.016 E0.01832
G1 X194.6 Y114.5 E0.02258
G1 X194.599 Y169.344 E2.55833
G1 X194.584 Y170.24 E0.0418
G1 X194.48 Y171.141 E0.04231
G1 X194.374 Y171.628 E0.02325
G1 X194.121 Y172.429 E0.03918
G1 X194.009 Y172.696 E0.01351
G1 X193.674 Y173.345 E0.03407
G1 X193.513 Y173.604 E0.01423
G1 X193.118 Y174.146 E0.03128
G1 X192.981 Y174.308 E0.0099
G1 X192.523 Y174.778 E0.03061
G1 X192.202 Y175.063 E0.02002
G1 X191.555 Y175.543 E0.03758
G1 X191.314 Y175.691 E0.01319
G1 X190.67 Y176.02 E0.03373
G1 X190.376 Y176.142 E0.01485
G1 X189.713 Y176.359 E0.03254
G1 X189.506 Y176.41 E0.00994
G1 X188.864 Y176.521 E0.03039
G1 X188.374 Y176.57 E0.02297
G1 X187.983 Y176.593 E0.01827
G1 X187.5 Y176.6 E0.02253
G1 X185.559 Y176.6 E0.09054
G1 X182.785 Y176.639 E0.12941
G1 X180.078 Y176.754 E0.12639
G1 X177.444 Y176.941 E0.12318
G1 X174.715 Y177.211 E0.12792
G1 X172.032 Y177.555 E0.12618
G1 X169.41 Y177.967 E0.12381
G1 X166.71 Y178.469 E0.12811
G1 X164.09 Y179.033 E0.12502
G1 X161.485 Y179.67 E0.1251
G1 X158.866 Y180.391 E0.12671
G1 X156.308 Y181.174 E0.12479
G1 X153.734 Y182.043 E0.12673
G1 X151.2 Y182.978 E0.12599
G1 X148.698 Y183.982 E0.12576
G1 X146.205 Y185.067 E0.12683
G1 X143.804 Y186.193 E0.1237
G1 X141.334 Y187.437 E0.12901
G1 X139.01 Y188.692 E0.12321
G1 X136.658 Y190.048 E0.12664
G1 X134.233 Y191.542 E0.13286
G1 X133.707 Y191.875 E0.02904
G1 X133.175 Y192.165 E0.02826
G1 X132.609 Y192.382 E0.02828
G1 X132.019 Y192.524 E0.02831
G1 X131.401 Y192.586 E0.02897
G1 X130.92 Y192.6 E0.02245
G1 X110.648 Y192.6 E0.94563
G1 X109.95 Y192.591 E0.03256
G1 X109.345 Y192.543 E0.02831
G1 X108.752 Y192.416 E0.02829
G1 X108.181 Y192.212 E0.02828
G1 X107.642 Y191.935 E0.02827
G1 X107.144 Y191.59 E0.02826
G1 X106.695 Y191.182 E0.0283
G1 X106.305 Y190.718 E0.02827
G1 X105.978 Y190.207 E0.0283
G1 X105.722 Y189.658 E0.02826
G1 X105.54 Y189.08 E0.02827
G1 X105.435 Y188.482 E0.02832
G1 X105.411 Y188.115 E0.01716
G1 X105.4 Y187.658 E0.02132
G1 X105.4 Y152.642 E1.6334
G1 X105.41 Y151.939 E0.0328
G1 X105.459 Y151.334 E0.02831
G1 X105.587 Y150.742 E0.02825
G1 X105.791 Y150.171 E0.02828
G1 X106.069 Y149.632 E0.02829
G1 X106.474 Y149.062 E0.03262
G1 X106.85 Y148.61 E0.02743
G1 X108.524 Y146.536 E0.12433
G1 X110.189 Y144.35 E0.12818
G1 X111.748 Y142.178 E0.12472
G1 X113.253 Y139.951 E0.12538
G1 X114.719 Y137.643 E0.12754
G1 X116.098 Y135.329 E0.12566
G1 X117.41 Y132.982 E0.12543
G1 X118.647 Y130.612 E0.12471
G1 X119.839 Y128.161 E0.12714
G1 X120.946 Y125.713 E0.12533
G1 X121.989 Y123.22 E0.12606
G1 X122.967 Y120.685 E0.12675
G1 X123.856 Y118.167 E0.12456
G1 X124.688 Y115.582 E0.12668
G1 X125.457 Y112.939 E0.1284
G1 X125.677 Y112.15 E0.03821
G1 X125.86 Y111.62 E0.02616
G1 X125.985 Y111.319 E0.0152
G1 X126.33 Y110.649 E0.03515
G1 X126.494 Y110.386 E0.01446
G1 X126.9 Y109.832 E0.03204
G1 X127.035 Y109.674 E0.00969
G0 F12000 X127.339 Y109.934
G1 F4800 X127.739 Y109.526 E0.02665
G1 X128.059 Y109.241 E0.01999
G1 X128.659 Y108.795 E0.03487
G1 X128.904 Y108.645 E0.0134
G1 X129.491 Y108.346 E0.03073
G1 X129.781 Y108.226 E0.01464
G1 X130.382 Y108.029 E0.0295
G1 X130.589 Y107.978 E0.00994
G1 X131.176 Y107.877 E0.02778
G1 X131.666 Y107.828 E0.02297
G1 X132.023 Y107.807 E0.01668
G1 X132.506 Y107.8 E0.02253
G1 X187.293 Y107.8 E2.55567
G1 X188.235 Y107.816 E0.04395
G1 X189.059 Y107.912 E0.0387
G1 X189.549 Y108.019 E0.0234
G1 X190.286 Y108.253 E0.03607
G1 X190.549 Y108.364 E0.01332
G1 X191.132 Y108.665 E0.03061
G1 X191.396 Y108.829 E0.0145
G1 X191.897 Y109.194 E0.02891
G1 X192.055 Y109.328 E0.00966
G1 X192.479 Y109.742 E0.02764
G1 X192.764 Y110.063 E0.02002
G1 X193.202 Y110.655 E0.03435
G1 X193.353 Y110.901 E0.01346
G1 X193.658 Y111.499 E0.03131
G1 X193.777 Y111.788 E0.01458
G1 X193.971 Y112.382 E0.02915
G1 X194.022 Y112.589 E0.00994
G1 X194.123 Y113.175 E0.02774
G1 X194.172 Y113.664 E0.02292
G1 X194.193 Y114.022 E0.01673
G1 X194.2 Y114.506 E0.02258
G1 X194.199 Y169.337 E2.55772
G1 X194.184 Y170.233 E0.0418
G1 X194.089 Y171.056 E0.03865
G1 X193.983 Y171.543 E0.02325
G1 X193.752 Y172.275 E0.03581
G1 X193.64 Y172.542 E0.01351
G1 X193.334 Y173.134 E0.03109
G1 X193.173 Y173.393 E0.01423
G1 X192.813 Y173.888 E0.02855
G1 X192.676 Y174.05 E0.0099
G1 X192.258 Y174.479 E0.02794
G1 X191.937 Y174.764 E0.02002
G1 X191.346 Y175.202 E0.03431
G1 X191.105 Y175.35 E0.01319
G1 X190.517 Y175.65 E0.03079
G1 X190.223 Y175.772 E0.01485
G1 X189.618 Y175.971 E0.02971
G1 X189.411 Y176.022 E0.00994
G1 X188.824 Y176.123 E0.02778
G1 X188.334 Y176.172 E0.02297
G1 X187.977 Y176.193 E0.01668
G1 X187.494 Y176.2 E0.02253
G1 X185.553 Y176.2 E0.09054
G1 X182.762 Y176.239 E0.13021
G1 X180.069 Y176.354 E0.12574
G1 X177.409 Y176.542 E0.12439
G1 X174.661 Y176.815 E0.12882
G1 X171.99 Y177.157 E0.12561
G1 X169.311 Y177.577 E0.12649
G1 X166.659 Y178.071 E0.12584
G1 X163.982 Y178.647 E0.12773
G1 X161.389 Y179.282 E0.12453
G1 X158.78 Y180 E0.12623
G1 X156.168 Y180.799 E0.12742
G1 X153.585 Y181.671 E0.12717
G1 X151.08 Y182.595 E0.12455
G1 X148.526 Y183.62 E0.12837
G1 X146.068 Y184.69 E0.12505
G1 X143.591 Y185.851 E0.12761
G1 X141.17 Y187.07 E0.12644
G1 X138.799 Y188.351 E0.12571
G1 X136.479 Y189.689 E0.12493
G1 X134 Y191.216 E0.13582
G1 X133.493 Y191.537 E0.02799
G1 X132.984 Y191.813 E0.02701
G1 X132.441 Y192.015 E0.02703
G1 X131.876 Y192.142 E0.02701
G1 X131.388 Y192.187 E0.02286
G1 X130.92 Y192.2 E0.02184
G1 X110.653 Y192.2 E0.9454
G1 X109.955 Y192.191 E0.03256
G1 X109.377 Y192.143 E0.02705
G1 X108.812 Y192.017 E0.027
G1 X108.27 Y191.814 E0.027
G1 X107.76 Y191.538 E0.02705
G1 X107.293 Y191.195 E0.02703
G1 X106.878 Y190.791 E0.02702
G1 X106.523 Y190.333 E0.02703
G1 X106.234 Y189.831 E0.02702
G1 X106.016 Y189.294 E0.02704
G1 X105.875 Y188.733 E0.02698
G1 X105.811 Y188.104 E0.02949
G1 X105.8 Y187.658 E0.02081
G1 X105.8 Y152.647 E1.63317
G1 X105.81 Y151.944 E0.0328
G1 X105.859 Y151.367 E0.02701
G1 X105.986 Y150.802 E0.02701
G1 X106.189 Y150.259 E0.02704
G1 X106.466 Y149.75 E0.02703
G1 X106.781 Y149.318 E0.02494
G1 X107.157 Y148.866 E0.02743
G1 X108.856 Y146.762 E0.12615
G1 X110.5 Y144.603 E0.12659
G1 X112.071 Y142.413 E0.12572
G1 X113.606 Y140.143 E0.12783
G1 X115.045 Y137.877 E0.12522
G1 X116.432 Y135.55 E0.12637
G1 X117.771 Y133.156 E0.12795
G1 X119.004 Y130.793 E0.12433
G1 X120.2 Y128.335 E0.12751
G1 X121.314 Y125.87 E0.12618
G1 X122.355 Y123.382 E0.12581
G1 X123.353 Y120.795 E0.12935
G1 X124.231 Y118.307 E0.12307
G1 X125.067 Y115.711 E0.12722
G1 X125.841 Y113.051 E0.12923
G1 X126.062 Y112.257 E0.03845
G1 X126.229 Y111.773 E0.02388
G1 X126.354 Y111.472 E0.0152
G1 X126.669 Y110.861 E0.03207
G1 X126.833 Y110.598 E0.01446
G1 X127.204 Y110.092 E0.02927
G1 X127.339 Y109.934 E0.00969
G10
G1 F600 Z0.7
G0 F12000 X112.2 Y154.2 Z0.7
G1 F600 Z0.3
G11
G1 F4800 X112.995 Y154.2 E0.03708
G1 X112.994 Y169.1 E0.69505
G1 X112.2 Y169.1 E0.03704
G1 X112.2 Y154.2 E0.69505
G0 F12000 X111.8 Y153.8
G1 F4800 X113.395 Y153.8 E0.0744
