;FLAVOR:RepRap
;TIME:5925
;Filament used: 5.7946m
;Layer height: 0.2
;MINX:99.6
;MINY:129.6
;MINZ:0.3
;MAXX:199.264
;MAXY:170.4
;MAXZ:76.1
;Generated with Cura_SteamEngine 5.2.1
T0
M190 S100
M104 S260
M109 S260
M82 ;absolute extrusion mode
print_start
M83 ;relative extrusion mode
G10
;LAYER_COUNT:380
;LAYER:0
M107
G1 F600 Z0.7
G0 F12000 X101.507 Y130.898 Z0.7
;TYPE:SKIRT
G1 F600 Z0.3
G11
G1 F4800 X102.032 Y130.504 E0.03062
G1 X102.601 Y130.175 E0.03066
G1 X103.206 Y129.919 E0.03064
G1 X103.838 Y129.738 E0.03067
G1 X104.486 Y129.634 E0.03061
G1 X104.858 Y129.611 E0.01739
G1 X105.33 Y129.6 E0.02202
G1 X125.543 Y129.6 E0.94288
G1 X126.321 Y129.611 E0.0363
G1 X126.976 Y129.66 E0.03064
G1 X127.67 Y129.802 E0.03304
G1 X128.966 Y130.157 E0.06268
G1 X131.62 Y130.847 E0.12792
G1 X134.238 Y131.449 E0.12531
G1 X136.885 Y131.98 E0.12594
G1 X139.493 Y132.427 E0.12343
G1 X142.138 Y132.803 E0.12462
G1 X142.789 Y132.886 E0.03061
G1 X146.115 Y133.458 E0.15743
G1 X148.768 Y133.835 E0.125
G1 X151.401 Y134.134 E0.12361
G1 X154.116 Y134.365 E0.12711
G1 X156.726 Y134.513 E0.12195
G1 X160.838 Y134.6 E0.19186
G1 X169.194 Y134.6 E0.38979
G1 X171.862 Y134.562 E0.12447
G1 X174.559 Y134.448 E0.12592
G1 X177.189 Y134.261 E0.12299
G1 X179.898 Y133.993 E0.12698
G1 X182.509 Y133.659 E0.12279
G1 X185.177 Y133.239 E0.12599
G1 X186.989 Y132.92 E0.08582
G1 X187.751 Y132.844 E0.03572
G1 X188.222 Y132.833 E0.02198
G1 X192.476 Y132.834 E0.19844
G1 X193.177 Y132.844 E0.0327
G1 X193.832 Y132.893 E0.03064
G1 X194.476 Y133.021 E0.03063
G1 X195.1 Y133.227 E0.03065
G1 X195.695 Y133.507 E0.03067
G1 X196.25 Y133.857 E0.03061
G1 X196.76 Y134.272 E0.03067
G1 X197.215 Y134.746 E0.03065
G1 X197.609 Y135.272 E0.03066
G1 X198.049 Y136.082 E0.043
G1 X198.499 Y137.114 E0.05252
G1 X198.839 Y137.93 E0.04124
G1 X199.054 Y138.551 E0.03066
G1 X199.192 Y139.193 E0.03063
G1 X199.251 Y139.841 E0.03035
G1 X199.264 Y140.331 E0.02287
G1 X199.264 Y144.41 E0.19027
G1 X199.255 Y145.067 E0.03065
G1 X199.207 Y145.722 E0.03064
G1 X199.078 Y146.366 E0.03064
G1 X198.834 Y147.086 E0.03546
G1 X198.497 Y147.887 E0.04054
G1 X198.053 Y148.909 E0.05198
G1 X197.755 Y149.494 E0.03063
G1 X197.388 Y150.039 E0.03065
G1 X196.958 Y150.536 E0.03066
G1 X196.47 Y150.976 E0.03065
G1 X195.933 Y151.354 E0.03063
G1 X195.354 Y151.664 E0.03064
G1 X194.741 Y151.902 E0.03067
G1 X194.104 Y152.063 E0.03065
G1 X193.267 Y152.154 E0.03927
G1 X192.776 Y152.167 E0.02291
G1 X188.524 Y152.166 E0.19834
G1 X187.444 Y152.151 E0.05038
G1 X185.258 Y152.089 E0.10201
G1 X182.596 Y152.089 E0.12418
G1 X179.898 Y152.165 E0.1259
G1 X177.272 Y152.314 E0.12269
G1 X174.552 Y152.546 E0.12734
G1 X171.922 Y152.845 E0.12347
G1 X169.269 Y153.222 E0.125
G1 X166.633 Y153.675 E0.12476
G1 X164.007 Y154.202 E0.12494
G1 X161.432 Y154.792 E0.12323
G1 X158.828 Y155.472 E0.12554
G1 X156.253 Y156.22 E0.12508
G1 X153.684 Y157.046 E0.12588
G1 X151.167 Y157.935 E0.12452
G1 X148.69 Y158.889 E0.12382
G1 X146.208 Y159.928 E0.12551
G1 X143.746 Y161.039 E0.126
G1 X141.378 Y162.191 E0.12284
G1 X138.991 Y163.435 E0.12556
G1 X136.656 Y164.74 E0.12478
G1 X134.347 Y166.116 E0.12538
G1 X132.104 Y167.54 E0.12393
G1 X129.871 Y169.048 E0.12569
G1 X129.321 Y169.429 E0.03121
G1 X128.759 Y169.77 E0.03066
G1 X128.16 Y170.039 E0.03063
G1 X127.533 Y170.234 E0.03063
G1 X126.886 Y170.352 E0.03068
G1 X126.412 Y170.387 E0.02217
G1 X125.92 Y170.4 E0.02296
G1 X105.637 Y170.4 E0.94615
G1 X104.939 Y170.391 E0.03256
G1 X104.284 Y170.342 E0.03064
G1 X103.64 Y170.215 E0.03062
G1 X103.016 Y170.01 E0.03064
G1 X102.421 Y169.73 E0.03067
G1 X101.865 Y169.381 E0.03062
G1 X101.355 Y168.967 E0.03064
G1 X100.899 Y168.494 E0.03065
G1 X100.504 Y167.968 E0.03068
G1 X100.176 Y167.399 E0.03064
G1 X99.919 Y166.795 E0.03062
G1 X99.738 Y166.163 E0.03067
G1 X99.634 Y165.514 E0.03066
G1 X99.611 Y165.137 E0.01762
G1 X99.6 Y164.658 E0.02235
G1 X99.6 Y135.627 E1.35422
G1 X99.609 Y134.938 E0.03214
G1 X99.658 Y134.283 E0.03064
G1 X99.786 Y133.639 E0.03063
G1 X99.991 Y133.015 E0.03064
G1 X100.27 Y132.42 E0.03066
G1 X100.62 Y131.864 E0.03065
G1 X101.034 Y131.354 E0.03064
G1 X101.507 Y130.898 E0.03065
G0 F12000 X101.896 Y131.097
G1 F4800 X102.414 Y130.735 E0.02948
G1 X102.974 Y130.442 E0.02948
G1 X103.567 Y130.222 E0.0295
G1 X104.182 Y130.078 E0.02946
G1 X104.869 Y130.011 E0.0322
G1 X105.33 Y130 E0.02151
G1 X125.543 Y130 E0.94288
G1 X126.315 Y130.011 E0.03602
G1 X126.946 Y130.059 E0.02952
G1 X127.565 Y130.188 E0.0295
G1 X128.865 Y130.544 E0.06287
G1 X131.527 Y131.236 E0.1283
G1 X134.176 Y131.846 E0.1268
G1 X136.776 Y132.367 E0.12369
G1 X139.441 Y132.824 E0.12613
G1 X142.103 Y133.202 E0.12542
G1 X142.738 Y133.283 E0.02986
G1 X146.062 Y133.854 E0.15733
G1 X148.698 Y134.229 E0.1242
G1 X151.393 Y134.536 E0.12653
G1 X154.058 Y134.762 E0.12476
G1 X156.724 Y134.913 E0.12456
G1 X160.829 Y135 E0.19153
G1 X169.199 Y135 E0.39044
G1 X171.85 Y134.962 E0.12367
G1 X174.603 Y134.846 E0.12853
G1 X177.221 Y134.66 E0.12243
G1 X179.921 Y134.392 E0.12657
G1 X182.619 Y134.047 E0.12688
G1 X185.247 Y133.634 E0.12409
G1 X185.881 Y133.516 E0.03008
G1 X187.057 Y133.314 E0.05566
G1 X187.762 Y133.244 E0.03305
G1 X188.222 Y133.233 E0.02146
G1 X192.47 Y133.234 E0.19816
G1 X193.171 Y133.244 E0.0327
G1 X193.802 Y133.292 E0.02952
G1 X194.421 Y133.421 E0.0295
G1 X195.019 Y133.626 E0.02949
G1 X195.586 Y133.905 E0.02948
G1 X196.113 Y134.253 E0.02946
G1 X196.593 Y134.665 E0.02951
G1 X197.016 Y135.134 E0.02946
G1 X197.377 Y135.653 E0.02949
G1 X197.682 Y136.242 E0.03094
G1 X198.129 Y137.268 E0.05221
G1 X198.469 Y138.084 E0.04124
G1 X198.675 Y138.682 E0.0295
G1 X198.804 Y139.301 E0.0295
G1 X198.852 Y139.853 E0.02585
G1 X198.864 Y140.331 E0.0223
G1 X198.865 Y144.404 E0.18999
G1 X198.856 Y145.061 E0.03065
G1 X198.807 Y145.692 E0.02952
G1 X198.679 Y146.311 E0.02949
G1 X198.465 Y146.931 E0.0306
G1 X198.13 Y147.727 E0.04029
G1 X197.686 Y148.749 E0.05198
G1 X197.398 Y149.312 E0.0295
G1 X197.041 Y149.834 E0.0295
G1 X196.621 Y150.307 E0.02951
G1 X196.145 Y150.723 E0.02949
G1 X195.621 Y151.075 E0.02945
G1 X195.056 Y151.359 E0.0295
G1 X194.46 Y151.569 E0.02948
G1 X193.842 Y151.702 E0.02949
G1 X193.254 Y151.755 E0.02754
G1 X192.776 Y151.767 E0.0223
G1 X188.529 Y151.767 E0.19811
G1 X187.455 Y151.751 E0.0501
G1 X185.269 Y151.689 E0.10201
G1 X182.584 Y151.689 E0.12525
G1 X179.899 Y151.765 E0.1253
G1 X177.216 Y151.917 E0.12536
G1 X174.544 Y152.145 E0.12509
G1 X171.852 Y152.451 E0.12638
G1 X169.222 Y152.825 E0.12392
G1 X166.552 Y153.283 E0.12637
G1 X163.918 Y153.812 E0.12532
G1 X161.339 Y154.403 E0.12342
G1 X158.73 Y155.084 E0.12578
G1 X156.114 Y155.844 E0.12707
G1 X153.576 Y156.66 E0.12436
G1 X151.027 Y157.561 E0.12611
G1 X148.541 Y158.518 E0.12426
G1 X146.024 Y159.571 E0.12727
G1 X143.613 Y160.66 E0.12341
G1 X141.169 Y161.848 E0.12676
G1 X138.818 Y163.075 E0.12371
G1 X136.462 Y164.39 E0.12586
G1 X134.149 Y165.768 E0.12559
G1 X131.871 Y167.215 E0.12589
G1 X129.594 Y168.753 E0.12818
G1 X129.093 Y169.1 E0.02843
G1 X128.552 Y169.427 E0.02949
G1 X127.974 Y169.682 E0.02947
G1 X127.368 Y169.863 E0.0295
G1 X126.744 Y169.965 E0.02949
G1 X126.399 Y169.988 E0.01613
G1 X125.92 Y170 E0.02235
G1 X105.643 Y170 E0.94587
G1 X104.945 Y169.991 E0.03256
G1 X104.314 Y169.942 E0.02952
G1 X103.695 Y169.815 E0.02948
G1 X103.097 Y169.611 E0.02947
G1 X102.529 Y169.333 E0.0295
G1 X102.001 Y168.985 E0.0295
G1 X101.521 Y168.574 E0.02948
G1 X101.097 Y168.105 E0.02949
G1 X100.735 Y167.587 E0.02948
G1 X100.442 Y167.027 E0.02948
G1 X100.222 Y166.434 E0.0295
G1 X100.078 Y165.819 E0.02946
G1 X100.011 Y165.126 E0.03248
G1 X100 Y164.658 E0.02184
G1 X100 Y135.633 E1.35394
G1 X100.009 Y134.944 E0.03214
G1 X100.058 Y134.313 E0.02952
G1 X100.185 Y133.694 E0.02948
G1 X100.389 Y133.096 E0.02947
G1 X100.668 Y132.528 E0.02952
G1 X101.015 Y132.001 E0.02943
G1 X101.427 Y131.521 E0.02951
G1 X101.896 Y131.097 E0.02949
G0 F12000 X102.282 Y131.304
G1 F4800 X102.793 Y130.978 E0.02827
G1 X103.343 Y130.721 E0.02832
G1 X103.921 Y130.539 E0.02827
G1 X104.518 Y130.435 E0.02827
G1 X104.88 Y130.411 E0.01692
G1 X105.33 Y130.4 E0.021
G1 X125.609 Y130.4 E0.94596
G1 X126.31 Y130.41 E0.0327
G1 X126.914 Y130.459 E0.02827
G1 X127.459 Y130.573 E0.02597
G1 X128.808 Y130.943 E0.06525
G1 X131.442 Y131.628 E0.12696
G1 X134.079 Y132.234 E0.12622
G1 X136.701 Y132.76 E0.12475
G1 X139.383 Y133.219 E0.12693
G1 X142.063 Y133.6 E0.12627
G1 X142.688 Y133.68 E0.02939
G1 X146.01 Y134.251 E0.15723
G1 X148.672 Y134.629 E0.12542
G1 X151.311 Y134.93 E0.1239
G1 X154.037 Y135.161 E0.12762
G1 X156.721 Y135.313 E0.1254
G1 X160.821 Y135.4 E0.1913
G1 X169.134 Y135.4 E0.38778
G1 X171.907 Y135.361 E0.12937
G1 X174.615 Y135.246 E0.12643
G1 X177.249 Y135.059 E0.12318
G1 X179.978 Y134.789 E0.12792
G1 X182.661 Y134.445 E0.12618
G1 X185.311 Y134.029 E0.12513
G1 X185.948 Y133.91 E0.03023
G1 X187.124 Y133.708 E0.05566
G1 X187.773 Y133.644 E0.03042
G1 X188.222 Y133.633 E0.02095
G1 X192.465 Y133.633 E0.19792
G1 X193.166 Y133.643 E0.0327
G1 X193.77 Y133.692 E0.02827
G1 X194.363 Y133.82 E0.0283
G1 X194.933 Y134.024 E0.02824
G1 X195.472 Y134.302 E0.02829
G1 X195.97 Y134.648 E0.02829
G1 X196.418 Y135.057 E0.0283
G1 X196.808 Y135.521 E0.02827
G1 X197.134 Y136.032 E0.02827
G1 X197.316 Y136.402 E0.01923
G1 X197.73 Y137.35 E0.04825
G1 X198.1 Y138.238 E0.04487
G1 X198.296 Y138.812 E0.02829
G1 X198.415 Y139.406 E0.02826
G1 X198.452 Y139.866 E0.02153
G1 X198.464 Y140.331 E0.0217
G1 X198.465 Y144.399 E0.18976
G1 X198.456 Y145.056 E0.03065
G1 X198.407 Y145.66 E0.02827
G1 X198.28 Y146.253 E0.02829
G1 X198.096 Y146.776 E0.02586
G1 X197.763 Y147.568 E0.04008
G1 X197.319 Y148.59 E0.05198
G1 X197.041 Y149.129 E0.02829
G1 X196.695 Y149.627 E0.02829
G1 X196.287 Y150.075 E0.02827
G1 X195.823 Y150.465 E0.02827
G1 X195.311 Y150.791 E0.02831
G1 X194.762 Y151.046 E0.02824
G1 X194.183 Y151.228 E0.02831
G1 X193.586 Y151.331 E0.02826
G1 X193.242 Y151.355 E0.01609
G1 X192.776 Y151.367 E0.02174
G1 X188.535 Y151.367 E0.19783
G1 X187.533 Y151.353 E0.04675
G1 X185.281 Y151.289 E0.10509
G1 X182.573 Y151.289 E0.12632
G1 X179.899 Y151.365 E0.12479
G1 X177.161 Y151.52 E0.12792
G1 X174.497 Y151.747 E0.12472
G1 X171.827 Y152.051 E0.12535
G1 X169.164 Y152.429 E0.12547
G1 X166.483 Y152.889 E0.12689
G1 X163.856 Y153.416 E0.12498
G1 X161.214 Y154.023 E0.12645
G1 X158.588 Y154.707 E0.12658
G1 X156.027 Y155.451 E0.1244
G1 X153.426 Y156.288 E0.12746
G1 X150.93 Y157.17 E0.12349
G1 X148.367 Y158.157 E0.12812
G1 X145.898 Y159.19 E0.12485
G1 X143.425 Y160.307 E0.12658
G1 X141.002 Y161.485 E0.12568
G1 X138.617 Y162.729 E0.12548
G1 X136.241 Y164.056 E0.12695
G1 X133.935 Y165.43 E0.12522
G1 X131.654 Y166.878 E0.12603
G1 X129.37 Y168.421 E0.12858
G1 X128.865 Y168.771 E0.02866
G1 X128.345 Y169.083 E0.02829
G1 X127.789 Y169.324 E0.02827
G1 X127.205 Y169.489 E0.02831
G1 X126.387 Y169.588 E0.03844
G1 X125.92 Y169.6 E0.02179
G1 X105.648 Y169.6 E0.94563
G1 X104.95 Y169.591 E0.03256
G1 X104.345 Y169.543 E0.02831
G1 X103.752 Y169.416 E0.02829
G1 X103.181 Y169.212 E0.02828
G1 X102.642 Y168.935 E0.02827
G1 X102.144 Y168.59 E0.02826
G1 X101.695 Y168.182 E0.0283
G1 X101.305 Y167.718 E0.02827
G1 X100.978 Y167.207 E0.0283
G1 X100.722 Y166.658 E0.02826
G1 X100.54 Y166.08 E0.02827
G1 X100.435 Y165.482 E0.02832
G1 X100.411 Y165.115 E0.01716
G1 X100.4 Y164.658 E0.02132
G1 X100.4 Y135.638 E1.35371
G1 X100.409 Y134.949 E0.03214
G1 X100.457 Y134.345 E0.02826
G1 X100.584 Y133.752 E0.02829
G1 X100.788 Y133.181 E0.02828
G1 X101.065 Y132.641 E0.02831
G1 X101.411 Y132.143 E0.02829
G1 X101.819 Y131.695 E0.02827
G1 X102.282 Y131.304 E0.02827
G0 F12000 X102.667 Y131.522
G1 F4800 X103.169 Y131.233 E0.02702
G1 X103.706 Y131.016 E0.02702
G1 X104.268 Y130.875 E0.02703
G1 X104.891 Y130.811 E0.02921
G1 X105.33 Y130.8 E0.02048
G1 X125.603 Y130.8 E0.94568
G1 X126.304 Y130.81 E0.0327
G1 X126.881 Y130.859 E0.02701
G1 X127.353 Y130.959 E0.02251
G1 X128.681 Y131.323 E0.06423
G1 X131.356 Y132.019 E0.12894
G1 X133.982 Y132.622 E0.12568
G1 X136.626 Y133.152 E0.12579
G1 X139.33 Y133.616 E0.12798
G1 X142.022 Y133.999 E0.12684
G1 X142.637 Y134.077 E0.02892
G1 X145.952 Y134.647 E0.15691
G1 X148.607 Y135.024 E0.12509
G1 X151.303 Y135.331 E0.12657
G1 X154.016 Y135.561 E0.12701
G1 X156.689 Y135.712 E0.12489
G1 X160.812 Y135.8 E0.19237
G1 X169.14 Y135.8 E0.38848
G1 X171.93 Y135.761 E0.13016
G1 X174.624 Y135.646 E0.12578
G1 X177.284 Y135.458 E0.12439
G1 X180.032 Y135.185 E0.12882
G1 X182.703 Y134.843 E0.12561
G1 X185.375 Y134.424 E0.12616
G1 X186.016 Y134.305 E0.03041
G1 X187.192 Y134.103 E0.05566
G1 X187.785 Y134.044 E0.0278
G1 X188.222 Y134.033 E0.02039
G1 X192.459 Y134.033 E0.19764
G1 X193.16 Y134.043 E0.0327
G1 X193.737 Y134.092 E0.02701
G1 X194.302 Y134.219 E0.02701
G1 X194.845 Y134.423 E0.02706
G1 X195.354 Y134.699 E0.02701
G1 X195.82 Y135.043 E0.02702
G1 X196.235 Y135.448 E0.02705
G1 X196.589 Y135.905 E0.02697
G1 X196.949 Y136.562 E0.03495
G1 X197.391 Y137.576 E0.0516
G1 X197.731 Y138.392 E0.04124
G1 X197.916 Y138.94 E0.02698
G1 X198.024 Y139.51 E0.02706
G1 X198.052 Y139.878 E0.01722
G1 X198.064 Y140.331 E0.02114
G1 X198.065 Y144.394 E0.18953
G1 X198.056 Y145.051 E0.03065
G1 X198.008 Y145.628 E0.02701
G1 X197.881 Y146.193 E0.02701
G1 X197.728 Y146.621 E0.0212
G1 X197.396 Y147.409 E0.03989
G1 X196.952 Y148.431 E0.05198
G1 X196.685 Y148.945 E0.02702
G1 X196.35 Y149.417 E0.027
G1 X195.953 Y149.839 E0.02703
G1 X195.502 Y150.202 E0.02701
G1 X195.005 Y150.5 E0.02703
G1 X194.472 Y150.727 E0.02702
G1 X193.912 Y150.878 E0.02706
G1 X193.23 Y150.955 E0.03202
G1 X192.776 Y150.967 E0.02119
G1 X188.54 Y150.967 E0.1976
G1 X187.538 Y150.953 E0.04675
G1 X185.292 Y150.889 E0.10481
G1 X182.562 Y150.889 E0.12735
G1 X179.866 Y150.965 E0.12581
G1 X177.173 Y151.118 E0.12582
G1 X174.454 Y151.349 E0.12729
G1 X171.762 Y151.656 E0.12639
G1 X169.106 Y152.033 E0.12514
G1 X166.408 Y152.496 E0.12769
G1 X163.759 Y153.028 E0.12604
G1 X161.129 Y153.632 E0.12588
G1 X158.491 Y154.32 E0.12717
G1 X155.889 Y155.075 E0.12638
G1 X153.318 Y155.902 E0.12598
G1 X150.758 Y156.807 E0.12666
G1 X148.248 Y157.774 E0.12547
G1 X145.715 Y158.833 E0.12807
G1 X143.264 Y159.94 E0.12545
G1 X140.821 Y161.128 E0.12672
G1 X138.443 Y162.368 E0.1251
G1 X136.037 Y163.712 E0.12856
G1 X133.722 Y165.091 E0.1257
G1 X131.463 Y166.526 E0.12484
G1 X129.188 Y168.062 E0.12805
G1 X128.638 Y168.443 E0.03121
G1 X128.14 Y168.739 E0.02702
G1 X127.606 Y168.964 E0.02703
G1 X127.046 Y169.113 E0.02703
G1 X126.375 Y169.188 E0.0315
G1 X125.92 Y169.2 E0.02123
G1 X105.653 Y169.2 E0.9454
G1 X104.955 Y169.191 E0.03256
G1 X104.377 Y169.143 E0.02705
G1 X103.812 Y169.017 E0.027
G1 X103.27 Y168.814 E0.027
G1 X102.76 Y168.538 E0.02705
G1 X102.293 Y168.195 E0.02703
G1 X101.878 Y167.791 E0.02702
G1 X101.523 Y167.333 E0.02703
G1 X101.234 Y166.831 E0.02702
G1 X101.016 Y166.294 E0.02704
G1 X100.875 Y165.733 E0.02698
G1 X100.811 Y165.104 E0.02949
G1 X100.8 Y164.658 E0.02081
G1 X100.8 Y135.643 E1.35347
G1 X100.809 Y134.954 E0.03214
G1 X100.857 Y134.377 E0.02701
G1 X100.983 Y133.811 E0.02705
G1 X101.186 Y133.269 E0.027
G1 X101.462 Y132.759 E0.02705
G1 X101.806 Y132.293 E0.02702
G1 X102.21 Y131.878 E0.02702
G1 X102.667 Y131.522 E0.02702
G10
G1 F600 Z0.7
G0 F12000 X139.499 Y142.485 Z0.7
G1 F600 Z0.3
G11
G1 F4800 X139.514 Y142.5 E0.00099
G1 X139.499 Y142.515 E0.00099
G1 X139.484 Y142.5 E0.00099
G1 X139.499 Y142.485 E0.00099
G0 F12000 X139.296 Y142.122
G1 F4800 X139.501 Y141.883 E0.01469
G1 X139.702 Y142.122 E0.01457
G1 X139.984 Y142.404 E0.0186
G1 X140.097 Y142.501 E0.00695
G1 X139.984 Y142.596 E0.00689
G1 X139.702 Y142.878 E0.0186
G1 X139.497 Y143.117 E0.01469
G1 X139.296 Y142.878 E0.01457
G1 X139.014 Y142.596 E0.0186
G1 X138.901 Y142.499 E0.00695
G1 X139.014 Y142.404 E0.00689
G1 X139.296 Y142.122 E0.0186
G0 F12000 X139.013 Y141.839
G1 F4800 X139.33 Y141.466 E0.02283
G1 X139.47 Y141.233 E0.01268
G1 X139.525 Y141.233 E0.00257
G1 X139.724 Y141.542 E0.01714
G1 X139.985 Y141.839 E0.01844
G1 X140.267 Y142.121 E0.0186
G1 X140.64 Y142.438 E0.02283
G1 X140.745 Y142.501 E0.00571
G1 X140.564 Y142.618 E0.01005
G1 X140.267 Y142.879 E0.01844
G1 X139.985 Y143.161 E0.0186
G1 X139.668 Y143.534 E0.02283
G1 X139.528 Y143.767 E0.01268
