;FLAVOR:RepRap
;TIME:1452
;Filament used: 1.67923m
;Layer height: 0.2
;MINX:131.6
;MINY:132.6
;MINZ:0.3
;MAXX:168.4
;MAXY:167.4
;MAXZ:18.5
;Generated with Cura_SteamEngine 5.2.1
T0
M190 S100
M104 S260
M109 S260
M82 ;absolute extrusion mode
print_start
M83 ;relative extrusion mode
G10
;LAYER_COUNT:90
;LAYER:0
M107
G1 F600 Z0.7
G0 F12000 X134.198 Y135.532 Z0.7
;TYPE:SKIRT
G1 F600 Z0.3
G11
G1 F4800 X134.789 Y134.963 E0.03827
G1 X135.212 Y134.613 E0.02561
G1 X135.696 Y134.255 E0.02808
G1 X136.066 Y134.019 E0.02047
G1 X136.43 Y133.803 E0.01974
G1 X136.961 Y133.527 E0.02792
G1 X137.379 Y133.344 E0.02129
G1 X137.774 Y133.187 E0.01983
G1 X138.344 Y132.996 E0.02804
G1 X138.556 Y132.938 E0.01025
G1 X139.173 Y132.794 E0.02955
G1 X139.763 Y132.694 E0.02791
G1 X140.214 Y132.65 E0.02114
G1 X140.911 Y132.61 E0.03257
G1 X141.506 Y132.6 E0.02776
G1 X158.403 Y132.601 E0.7882
G1 X159.288 Y132.619 E0.04129
G1 X159.685 Y132.642 E0.01855
G1 X160.194 Y132.69 E0.02385
G1 X161.024 Y132.834 E0.0393
G1 X161.568 Y132.973 E0.02619
G1 X162.151 Y133.158 E0.02853
G1 X162.585 Y133.329 E0.02176
G1 X163.016 Y133.516 E0.02192
G1 X163.756 Y133.908 E0.03906
G1 X164.233 Y134.21 E0.02634
G1 X164.717 Y134.555 E0.02773
G1 X165.075 Y134.849 E0.02161
G1 X165.438 Y135.169 E0.02257
G1 X166.023 Y135.772 E0.03919
G1 X166.383 Y136.206 E0.0263
G1 X166.745 Y136.696 E0.02842
G1 X166.974 Y137.055 E0.01986
G1 X167.221 Y137.469 E0.02249
G1 X167.602 Y138.242 E0.0402
G1 X167.813 Y138.773 E0.02665
G1 X168.007 Y139.354 E0.02857
G1 X168.12 Y139.792 E0.0211
G1 X168.206 Y140.173 E0.01822
G1 X168.305 Y140.757 E0.02763
G1 X168.351 Y141.218 E0.02161
G1 X168.389 Y141.893 E0.03154
G1 X168.4 Y142.506 E0.0286
G1 X168.399 Y157.403 E0.69491
G1 X168.381 Y158.289 E0.04134
G1 X168.359 Y158.681 E0.01831
G1 X168.312 Y159.184 E0.02357
G1 X168.168 Y160.016 E0.03939
G1 X168.028 Y160.565 E0.02643
G1 X167.842 Y161.151 E0.02868
G1 X167.677 Y161.572 E0.02109
G1 X167.494 Y161.997 E0.02158
G1 X167.096 Y162.751 E0.03977
G1 X166.79 Y163.234 E0.02667
G1 X166.452 Y163.708 E0.02716
G1 X166.147 Y164.081 E0.02248
G1 X165.836 Y164.434 E0.02195
G1 X165.23 Y165.022 E0.03939
G1 X164.792 Y165.385 E0.02654
G1 X164.304 Y165.745 E0.02829
G1 X163.923 Y165.988 E0.02108
G1 X163.496 Y166.24 E0.02313
G1 X162.74 Y166.609 E0.03924
G1 X162.22 Y166.815 E0.02609
G1 X161.656 Y167.004 E0.02775
G1 X161.444 Y167.062 E0.01025
G1 X160.827 Y167.206 E0.02955
G1 X160.237 Y167.306 E0.02791
G1 X159.786 Y167.35 E0.02114
G1 X159.089 Y167.39 E0.03257
G1 X158.494 Y167.4 E0.02776
G1 X141.597 Y167.399 E0.7882
G1 X140.711 Y167.381 E0.04134
G1 X140.313 Y167.358 E0.0186
G1 X139.805 Y167.31 E0.0238
G1 X138.976 Y167.166 E0.03925
G1 X138.432 Y167.027 E0.02619
G1 X137.849 Y166.842 E0.02853
G1 X137.409 Y166.668 E0.02207
G1 X136.977 Y166.48 E0.02198
G1 X136.242 Y166.09 E0.03881
G1 X135.767 Y165.789 E0.02623
G1 X135.281 Y165.442 E0.02786
G1 X134.897 Y165.126 E0.0232
G1 X134.535 Y164.804 E0.0226
G1 X133.968 Y164.217 E0.03807
G1 X133.617 Y163.794 E0.02564
G1 X133.255 Y163.304 E0.02842
G1 X133.022 Y162.938 E0.02024
G1 X132.774 Y162.521 E0.02263
G1 X132.395 Y161.75 E0.04008
G1 X132.185 Y161.22 E0.02659
G1 X131.996 Y160.656 E0.02775
G1 X131.938 Y160.444 E0.01025
G1 X131.794 Y159.827 E0.02955
G1 X131.694 Y159.237 E0.02791
G1 X131.65 Y158.786 E0.02114
G1 X131.61 Y158.089 E0.03257
G1 X131.6 Y157.494 E0.02776
G1 X131.601 Y142.597 E0.69491
G1 X131.619 Y141.711 E0.04134
G1 X131.642 Y141.313 E0.0186
G1 X131.69 Y140.805 E0.0238
G1 X131.834 Y139.976 E0.03925
G1 X131.973 Y139.432 E0.02619
G1 X132.161 Y138.842 E0.02889
G1 X132.332 Y138.407 E0.0218
G1 X132.516 Y137.983 E0.02156
G1 X132.908 Y137.244 E0.03902
G1 X133.21 Y136.767 E0.02634
G1 X133.55 Y136.289 E0.02736
G1 X133.873 Y135.897 E0.02369
G1 X134.198 Y135.532 E0.0228
G0 F12000 X134.497 Y135.798
G1 F4800 X135.044 Y135.271 E0.03543
G1 X135.467 Y134.921 E0.02561
G1 X135.915 Y134.59 E0.02598
G1 X136.27 Y134.363 E0.01966
G1 X136.634 Y134.147 E0.01974
G1 X137.126 Y133.891 E0.02587
G1 X137.527 Y133.716 E0.02041
G1 X137.922 Y133.559 E0.01983
G1 X138.45 Y133.382 E0.02598
G1 X138.88 Y133.27 E0.02073
G1 X139.261 Y133.184 E0.01822
G1 X139.807 Y133.092 E0.02583
G1 X140.24 Y133.049 E0.0203
G1 X140.918 Y133.01 E0.03168
G1 X141.506 Y133 E0.02743
G1 X158.293 Y133 E0.78307
G1 X159.28 Y133.019 E0.04605
G1 X159.647 Y133.04 E0.01715
G1 X160.156 Y133.088 E0.02385
G1 X160.925 Y133.222 E0.03641
G1 X161.469 Y133.361 E0.02619
G1 X162.009 Y133.532 E0.02642
G1 X162.426 Y133.696 E0.0209
G1 X162.857 Y133.883 E0.02192
G1 X163.542 Y134.246 E0.03616
G1 X164.019 Y134.548 E0.02634
G1 X164.467 Y134.868 E0.02568
G1 X164.81 Y135.149 E0.02068
G1 X165.173 Y135.469 E0.02257
G1 X165.715 Y136.028 E0.03632
G1 X166.075 Y136.462 E0.0263
G1 X166.41 Y136.915 E0.02628
G1 X166.631 Y137.26 E0.01911
G1 X166.878 Y137.674 E0.02249
G1 X167.231 Y138.39 E0.03724
G1 X167.442 Y138.921 E0.02665
G1 X167.621 Y139.459 E0.02645
G1 X167.73 Y139.88 E0.02029
G1 X167.816 Y140.261 E0.01822
G1 X167.908 Y140.802 E0.0256
G1 X167.952 Y141.244 E0.02072
G1 X167.989 Y141.901 E0.0307
G1 X168 Y142.506 E0.02823
G1 X167.999 Y157.395 E0.69453
G1 X167.981 Y158.281 E0.04134
G1 X167.96 Y158.644 E0.01696
G1 X167.913 Y159.147 E0.02357
G1 X167.78 Y159.918 E0.0365
G1 X167.64 Y160.467 E0.02643
G1 X167.468 Y161.009 E0.02653
G1 X167.309 Y161.413 E0.02025
G1 X167.126 Y161.838 E0.02158
G1 X166.758 Y162.537 E0.03685
G1 X166.452 Y163.02 E0.02667
G1 X166.139 Y163.459 E0.02515
G1 X165.847 Y163.816 E0.02151
G1 X165.536 Y164.169 E0.02195
G1 X164.975 Y164.714 E0.03648
G1 X164.537 Y165.077 E0.02654
G1 X164.085 Y165.41 E0.02619
G1 X163.719 Y165.643 E0.02024
G1 X163.292 Y165.895 E0.02313
G1 X162.593 Y166.238 E0.03632
G1 X162.073 Y166.444 E0.02609
G1 X161.55 Y166.618 E0.02571
G1 X161.12 Y166.73 E0.02073
G1 X160.739 Y166.816 E0.01822
G1 X160.193 Y166.908 E0.02583
G1 X159.76 Y166.951 E0.0203
G1 X159.082 Y166.99 E0.03168
G1 X158.494 Y167 E0.02743
G1 X141.605 Y166.999 E0.78783
G1 X140.719 Y166.981 E0.04134
G1 X140.351 Y166.96 E0.01719
G1 X139.843 Y166.912 E0.0238
G1 X139.075 Y166.778 E0.03637
G1 X138.531 Y166.639 E0.02619
G1 X137.991 Y166.468 E0.02642
G1 X137.569 Y166.302 E0.02115
G1 X137.137 Y166.114 E0.02198
G1 X136.456 Y165.752 E0.03598
G1 X135.981 Y165.451 E0.02623
G1 X135.531 Y165.13 E0.02578
G1 X135.163 Y164.827 E0.02224
G1 X134.801 Y164.505 E0.0226
G1 X134.276 Y163.962 E0.03523
G1 X133.925 Y163.539 E0.02564
G1 X133.59 Y163.085 E0.02632
G1 X133.366 Y162.734 E0.01942
G1 X133.118 Y162.317 E0.02263
G1 X132.767 Y161.603 E0.03711
G1 X132.557 Y161.073 E0.02659
G1 X132.382 Y160.55 E0.02573
G1 X132.27 Y160.12 E0.02073
G1 X132.184 Y159.739 E0.01822
G1 X132.092 Y159.193 E0.02583
G1 X132.049 Y158.76 E0.0203
G1 X132.01 Y158.082 E0.03168
G1 X132 Y157.494 E0.02743
G1 X132.001 Y142.605 E0.69453
G1 X132.019 Y141.719 E0.04134
G1 X132.04 Y141.351 E0.01719
G1 X132.088 Y140.843 E0.0238
G1 X132.222 Y140.075 E0.03637
G1 X132.361 Y139.531 E0.02619
G1 X132.534 Y138.984 E0.02676
G1 X132.699 Y138.567 E0.02092
G1 X132.883 Y138.143 E0.02156
G1 X133.246 Y137.458 E0.03616
G1 X133.548 Y136.981 E0.02634
G1 X133.863 Y136.538 E0.02536
G1 X134.172 Y136.163 E0.02267
G1 X134.497 Y135.798 E0.0228
G0 F12000 X134.796 Y136.064
G1 F4800 X135.299 Y135.579 E0.03259
G1 X135.722 Y135.229 E0.02561
G1 X136.134 Y134.925 E0.02388
G1 X136.475 Y134.707 E0.01888
G1 X136.839 Y134.491 E0.01974
G1 X137.291 Y134.256 E0.02376
G1 X137.675 Y134.087 E0.01957
G1 X138.07 Y133.93 E0.01983
G1 X138.555 Y133.768 E0.02385
G1 X138.968 Y133.66 E0.01991
G1 X139.349 Y133.574 E0.01822
G1 X139.852 Y133.489 E0.0238
G1 X140.266 Y133.448 E0.01941
G1 X140.926 Y133.41 E0.03084
G1 X141.506 Y133.4 E0.02706
G1 X158.293 Y133.4 E0.78307
G1 X159.272 Y133.419 E0.04568
G1 X159.61 Y133.438 E0.01579
G1 X160.119 Y133.486 E0.02385
G1 X160.826 Y133.609 E0.03348
G1 X161.37 Y133.748 E0.02619
G1 X161.867 Y133.906 E0.02433
G1 X162.267 Y134.063 E0.02004
G1 X162.698 Y134.25 E0.02192
G1 X163.328 Y134.583 E0.03324
G1 X163.805 Y134.885 E0.02634
G1 X164.218 Y135.18 E0.02368
G1 X164.546 Y135.449 E0.01979
G1 X164.909 Y135.769 E0.02257
G1 X165.407 Y136.283 E0.03338
G1 X165.767 Y136.717 E0.0263
G1 X166.075 Y137.134 E0.02418
G1 X166.287 Y137.465 E0.01834
G1 X166.534 Y137.879 E0.02249
G1 X166.859 Y138.537 E0.03423
G1 X167.07 Y139.068 E0.02665
G1 X167.235 Y139.564 E0.02438
G1 X167.34 Y139.968 E0.01947
G1 X167.426 Y140.349 E0.01822
G1 X167.51 Y140.847 E0.02356
G1 X167.552 Y141.27 E0.01983
G1 X167.589 Y141.909 E0.02986
G1 X167.6 Y142.506 E0.02785
G1 X167.599 Y157.386 E0.69411
G1 X167.581 Y158.272 E0.04134
G1 X167.562 Y158.607 E0.01565
G1 X167.515 Y159.11 E0.02357
G1 X167.392 Y159.819 E0.03357
G1 X167.252 Y160.368 E0.02643
G1 X167.094 Y160.867 E0.02442
G1 X166.942 Y161.255 E0.01944
G1 X166.759 Y161.68 E0.02158
G1 X166.42 Y162.323 E0.03391
G1 X166.114 Y162.806 E0.02667
G1 X165.826 Y163.21 E0.02314
G1 X165.547 Y163.552 E0.02059
G1 X165.236 Y163.905 E0.02195
G1 X164.719 Y164.406 E0.03358
G1 X164.281 Y164.769 E0.02654
G1 X163.866 Y165.075 E0.02405
G1 X163.516 Y165.299 E0.01938
G1 X163.089 Y165.551 E0.02313
G1 X162.445 Y165.866 E0.03344
G1 X161.925 Y166.072 E0.02609
G1 X161.445 Y166.232 E0.0236
G1 X161.032 Y166.34 E0.01991
G1 X160.651 Y166.426 E0.01822
G1 X160.148 Y166.511 E0.0238
G1 X159.734 Y166.552 E0.01941
G1 X159.074 Y166.59 E0.03084
G1 X158.494 Y166.6 E0.02706
G1 X141.614 Y166.599 E0.78741
G1 X140.728 Y166.581 E0.04134
G1 X140.388 Y166.562 E0.01588
G1 X139.88 Y166.514 E0.0238
G1 X139.174 Y166.391 E0.03343
G1 X138.63 Y166.252 E0.02619
G1 X138.133 Y166.094 E0.02433
G1 X137.728 Y165.935 E0.0203
G1 X137.296 Y165.747 E0.02198
G1 X136.67 Y165.415 E0.03305
G1 X136.195 Y165.114 E0.02623
G1 X135.781 Y164.818 E0.02374
G1 X135.429 Y164.528 E0.02127
G1 X135.067 Y164.206 E0.0226
G1 X134.584 Y163.706 E0.03243
G1 X134.233 Y163.283 E0.02564
G1 X133.925 Y162.866 E0.02418
G1 X133.709 Y162.529 E0.01867
G1 X133.461 Y162.112 E0.02263
G1 X133.138 Y161.455 E0.03415
G1 X132.928 Y160.925 E0.02659
G1 X132.768 Y160.445 E0.0236
G1 X132.66 Y160.032 E0.01991
G1 X132.574 Y159.651 E0.01822
G1 X132.489 Y159.148 E0.0238
G1 X132.448 Y158.734 E0.01941
G1 X132.41 Y158.074 E0.03084
G1 X132.4 Y157.494 E0.02706
G1 X132.401 Y142.614 E0.69411
G1 X132.419 Y141.728 E0.04134
G1 X132.438 Y141.388 E0.01588
G1 X132.486 Y140.88 E0.0238
G1 X132.609 Y140.174 E0.03343
G1 X132.748 Y139.63 E0.02619
G1 X132.908 Y139.127 E0.02462
G1 X133.066 Y138.726 E0.02011
G1 X133.25 Y138.302 E0.02156
G1 X133.583 Y137.672 E0.03324
G1 X133.885 Y137.195 E0.02634
G1 X134.176 Y136.788 E0.02334
G1 X134.471 Y136.429 E0.02168
G1 X134.796 Y136.064 E0.0228
G0 F12000 X135.094 Y136.33
G1 F4800 X135.554 Y135.887 E0.02979
G1 X135.977 Y135.537 E0.02561
G1 X136.353 Y135.259 E0.02181
G1 X136.679 Y135.051 E0.01804
G1 X137.043 Y134.835 E0.01974
G1 X137.456 Y134.62 E0.02172
G1 X137.823 Y134.459 E0.01869
G1 X138.218 Y134.302 E0.01983
G1 X138.661 Y134.154 E0.02179
G1 X139.056 Y134.05 E0.01905
G1 X139.437 Y133.964 E0.01822
G1 X139.896 Y133.887 E0.02171
G1 X140.292 Y133.847 E0.01857
G1 X140.733 Y133.818 E0.02062
G1 X141.506 Y133.8 E0.03607
G1 X158.293 Y133.8 E0.78307
G1 X159.263 Y133.819 E0.04526
G1 X159.572 Y133.837 E0.01444
G1 X160.081 Y133.885 E0.02385
G1 X160.727 Y133.997 E0.03058
G1 X161.271 Y134.136 E0.02619
G1 X161.725 Y134.28 E0.02222
G1 X162.108 Y134.43 E0.01919
G1 X162.539 Y134.617 E0.02192
G1 X163.114 Y134.921 E0.03034
G1 X163.591 Y135.223 E0.02634
G1 X163.968 Y135.492 E0.0216
G1 X164.281 Y135.749 E0.01889
G1 X164.644 Y136.069 E0.02257
G1 X165.1 Y136.539 E0.03055
G1 X165.46 Y136.973 E0.0263
G1 X165.741 Y137.353 E0.02205
G1 X165.944 Y137.67 E0.01756
G1 X166.191 Y138.084 E0.02249
G1 X166.487 Y138.685 E0.03125
G1 X166.698 Y139.216 E0.02665
G1 X166.849 Y139.668 E0.02223
G1 X166.95 Y140.056 E0.0187
G1 X167.036 Y140.437 E0.01822
G1 X167.113 Y140.891 E0.02148
G1 X167.136 Y141.095 E0.00958
G1 X167.181 Y141.73 E0.0297
G1 X167.2 Y142.506 E0.03621
G1 X167.199 Y157.378 E0.69374
G1 X167.181 Y158.264 E0.04134
G1 X167.164 Y158.57 E0.0143
G1 X167.117 Y159.073 E0.02357
G1 X167.005 Y159.72 E0.03063
G1 X166.865 Y160.269 E0.02643
G1 X166.72 Y160.725 E0.02232
G1 X166.575 Y161.097 E0.01862
G1 X166.392 Y161.522 E0.02158
G1 X166.082 Y162.109 E0.03097
G1 X165.776 Y162.592 E0.02667
G1 X165.513 Y162.961 E0.02114
G1 X165.246 Y163.287 E0.01966
G1 X164.935 Y163.64 E0.02195
G1 X164.464 Y164.098 E0.03065
G1 X164.026 Y164.461 E0.02654
G1 X163.647 Y164.741 E0.02198
G1 X163.313 Y164.954 E0.01848
G1 X162.886 Y165.206 E0.02313
G1 X162.298 Y165.494 E0.03054
G1 X161.778 Y165.7 E0.02609
G1 X161.339 Y165.846 E0.02158
G1 X160.944 Y165.95 E0.01905
G1 X160.563 Y166.036 E0.01822
G1 X160.104 Y166.113 E0.02171
G1 X159.708 Y166.153 E0.01857
G1 X159.267 Y166.182 E0.02062
G1 X158.494 Y166.2 E0.03607
G1 X141.622 Y166.199 E0.78703
G1 X140.736 Y166.181 E0.04134
G1 X140.426 Y166.163 E0.01449
G1 X139.918 Y166.115 E0.0238
G1 X139.273 Y166.003 E0.03054
G1 X138.729 Y165.864 E0.02619
G1 X138.275 Y165.72 E0.02222
G1 X137.888 Y165.568 E0.0194
G1 X137.456 Y165.38 E0.02198
G1 X136.884 Y165.077 E0.03019
G1 X136.409 Y164.776 E0.02623
G1 X136.031 Y164.506 E0.02167
G1 X135.695 Y164.229 E0.02031
G1 X135.333 Y163.907 E0.0226
G1 X134.892 Y163.451 E0.02959
G1 X134.541 Y163.028 E0.02564
G1 X134.259 Y162.647 E0.02211
G1 X134.053 Y162.325 E0.01783
G1 X133.805 Y161.908 E0.02263
G1 X133.51 Y161.308 E0.03119
G1 X133.3 Y160.778 E0.02659
G1 X133.154 Y160.339 E0.02158
G1 X133.05 Y159.944 E0.01905
G1 X132.964 Y159.563 E0.01822
G1 X132.887 Y159.104 E0.02171
G1 X132.847 Y158.708 E0.01857
G1 X132.818 Y158.267 E0.02062
G1 X132.8 Y157.494 E0.03607
G1 X132.801 Y142.622 E0.69374
G1 X132.819 Y141.736 E0.04134
G1 X132.837 Y141.426 E0.01449
G1 X132.885 Y140.918 E0.0238
G1 X132.997 Y140.273 E0.03054
G1 X133.136 Y139.729 E0.02619
G1 X133.282 Y139.27 E0.02247
G1 X133.433 Y138.885 E0.01929
G1 X133.617 Y138.461 E0.02156
G1 X133.921 Y137.886 E0.03034
G1 X134.223 Y137.409 E0.02634
G1 X134.489 Y137.037 E0.02133
G1 X134.769 Y136.695 E0.02062
G1 X135.094 Y136.33 E0.0228
G10
G1 F600 Z0.7
;MESH:????????????.STL
G0 F12000 X147.024 Y151.931 Z0.7
;TYPE:WALL-INNER
G1 F600 Z0.3
G11
G1 F4800 X146.934 Y151.787 E0.00792
G1 X146.739 Y151.399 E0.02026
G1 X146.676 Y151.243 E0.00785
G1 X146.55 Y150.833 E0.02001
G1 X146.521 Y150.712 E0.0058
G1 X146.459 Y150.231 E0.02262
G1 X146.452 Y150.105 E0.00589
G1 X146.47 Y149.636 E0.02189
G1 X146.492 Y149.468 E0.0079
G1 X146.581 Y149.055 E0.01971
G1 X146.628 Y148.898 E0.00764
G1 X146.791 Y148.485 E0.02071
G1 X146.87 Y148.328 E0.0082
G1 X147.097 Y147.959 E0.02021
G1 X147.198 Y147.823 E0.0079
G1 X147.485 Y147.497 E0.02026
G1 X147.609 Y147.378 E0.00802
G1 X147.946 Y147.107 E0.02017
G1 X148.082 Y147.015 E0.00766
G1 X148.455 Y146.805 E0.01997
G1 X148.611 Y146.734 E0.008
G1 X149.02 Y146.589 E0.02024
G1 X149.187 Y146.545 E0.00806
G1 X149.619 Y146.472 E0.02044
G1 X149.786 Y146.459 E0.00781
G1 X150.214 Y146.459 E0.01997
G1 X150.381 Y146.472 E0.00781
G1 X150.813 Y146.545 E0.02044
G1 X150.98 Y146.589 E0.00806
G1 X151.389 Y146.734 E0.02024
G1 X151.545 Y146.805 E0.008
G1 X151.918 Y147.015 E0.01997
G1 X152.054 Y147.107 E0.00766
G1 X152.391 Y147.378 E0.02017
G1 X152.515 Y147.497 E0.00802
G1 X152.802 Y147.823 E0.02026
G1 X152.903 Y147.96 E0.00794
G1 X153.13 Y148.328 E0.02017
G1 X153.209 Y148.485 E0.0082
G1 X153.372 Y148.898 E0.02071
G1 X153.419 Y149.055 E0.00764
G1 X153.508 Y149.468 E0.01971
G1 X153.53 Y149.636 E0.0079
G1 X153.548 Y150.105 E0.02189
G1 X153.54 Y150.231 E0.00589
G1 X153.479 Y150.712 E0.02262
G1 X153.449 Y150.833 E0.00582
G1 X153.324 Y151.243 E0.01999
G1 X153.261 Y151.399 E0.00785
G1 X153.066 Y151.786 E0.02021
G1 X152.976 Y151.931 E0.00796
G1 X152.68 Y152.329 E0.02314
G1 X152.297 Y152.706 E0.02507
G1 X152.161 Y152.816 E0.00816
G1 X151.803 Y153.057 E0.02013
G1 X151.652 Y153.141 E0.00806
G1 X151.258 Y153.317 E0.02013
G1 X151.106 Y153.371 E0.00752
G1 X150.606 Y153.499 E0.02408
G1 X150.086 Y153.547 E0.02436
G1 X149.914 Y153.547 E0.00802
G1 X149.481 Y153.51 E0.02027
G1 X149.311 Y153.481 E0.00804
G1 X148.894 Y153.371 E0.02012
G1 X148.742 Y153.317 E0.00752
G1 X148.348 Y153.141 E0.02013
G1 X148.197 Y153.057 E0.00806
G1 X147.839 Y152.816 E0.02013
