;FLAVOR:RepRap
;TIME:1804
;Filament used: 5.66946m
;Layer height: 0.2
;MINX:111.3
;MINY:98.1
;MINZ:0.3
;MAXX:188.7
;MAXY:180.4
;MAXZ:8.5
;Generated with Cura_SteamEngine 5.2.1
T0
M190 S100
M104 S260
M109 S260
M82 ;absolute extrusion mode
print_start
M83 ;relative extrusion mode
G10
;LAYER_COUNT:40
;LAYER:0
M107
G1 F600 Z0.7
G0 F12000 X112.742 Y99.846 Z0.7
;TYPE:SKIRT
G1 F600 Z0.3
G11
G1 F4800 X113.216 Y99.391 E0.03065
G1 X113.742 Y98.998 E0.03063
G1 X114.312 Y98.671 E0.03065
G1 X114.917 Y98.415 E0.03064
G1 X115.549 Y98.235 E0.03065
G1 X116.198 Y98.133 E0.03065
G1 X116.558 Y98.111 E0.01682
G1 X117.03 Y98.1 E0.02202
G1 X182.67 Y98.101 E3.06193
G1 X183.368 Y98.111 E0.03256
G1 X184.023 Y98.16 E0.03064
G1 X184.668 Y98.288 E0.03067
G1 X185.292 Y98.494 E0.03065
G1 X185.886 Y98.774 E0.03063
G1 X186.442 Y99.124 E0.03065
G1 X186.951 Y99.54 E0.03066
G1 X187.406 Y100.013 E0.03062
G1 X187.8 Y100.539 E0.03066
G1 X188.128 Y101.109 E0.03068
G1 X188.383 Y101.714 E0.03063
G1 X188.564 Y102.345 E0.03062
G1 X188.666 Y102.994 E0.03065
G1 X188.689 Y103.358 E0.01701
G1 X188.7 Y103.83 E0.02202
G1 X188.699 Y172.352 E3.19637
G1 X188.685 Y173.241 E0.04147
G1 X188.635 Y173.896 E0.03064
G1 X188.564 Y174.299 E0.01909
G1 X188.457 Y174.793 E0.02358
G1 X188.279 Y175.426 E0.03067
G1 X188.047 Y176.006 E0.02914
G1 X187.653 Y176.768 E0.04002
G1 X187.492 Y177.027 E0.01423
G1 X187.029 Y177.663 E0.0367
G1 X186.892 Y177.825 E0.0099
G1 X186.354 Y178.376 E0.03592
G1 X186.033 Y178.661 E0.02002
G1 X185.274 Y179.225 E0.04411
G1 X185.033 Y179.373 E0.01319
G1 X184.277 Y179.759 E0.0396
G1 X183.983 Y179.881 E0.01485
G1 X183.205 Y180.136 E0.03819
G1 X182.998 Y180.187 E0.00994
G1 X182.243 Y180.317 E0.03574
G1 X181.753 Y180.366 E0.02297
G1 X181.294 Y180.392 E0.02145
G1 X180.733 Y180.4 E0.02617
G1 X178.414 Y180.399 E0.10818
G1 X177.544 Y180.384 E0.04059
G1 X176.889 Y180.333 E0.03065
G1 X176.492 Y180.262 E0.01881
G1 X175.637 Y180.07 E0.04088
G1 X173.281 Y179.437 E0.1138
G1 X170.71 Y178.823 E0.1233
G1 X168.075 Y178.272 E0.12557
G1 X165.426 Y177.795 E0.12556
G1 X162.779 Y177.397 E0.12486
G1 X160.149 Y177.076 E0.12359
G1 X157.466 Y176.825 E0.1257
G1 X154.774 Y176.65 E0.12584
G1 X152.146 Y176.555 E0.12267
G1 X149.445 Y176.533 E0.126
G1 X146.785 Y176.585 E0.12411
G1 X144.088 Y176.716 E0.12596
G1 X141.426 Y176.921 E0.12454
G1 X138.785 Y177.199 E0.12388
G1 X136.125 Y177.555 E0.12519
G1 X133.481 Y177.986 E0.12496
G1 X130.865 Y178.488 E0.12426
G1 X128.262 Y179.064 E0.12436
G1 X125.242 Y179.831 E0.14535
G1 X124.053 Y180.153 E0.05746
G1 X123.173 Y180.315 E0.04174
G1 X122.649 Y180.367 E0.02456
G1 X122.194 Y180.392 E0.02126
G1 X121.633 Y180.4 E0.02617
G1 X119.314 Y180.399 E0.10818
G1 X118.444 Y180.384 E0.04059
G1 X117.789 Y180.333 E0.03065
G1 X117.385 Y180.261 E0.01914
G1 X116.895 Y180.154 E0.0234
G1 X116.263 Y179.975 E0.03064
G1 X115.685 Y179.743 E0.02905
G1 X114.921 Y179.346 E0.04016
G1 X114.66 Y179.183 E0.01435
G1 X114.018 Y178.714 E0.03709
G1 X113.856 Y178.576 E0.00993
G1 X113.318 Y178.048 E0.03516
G1 X113.036 Y177.73 E0.01983
G1 X112.469 Y176.964 E0.04446
G1 X112.318 Y176.717 E0.0135
G1 X111.931 Y175.953 E0.03995
G1 X111.813 Y175.666 E0.01448
G1 X111.558 Y174.882 E0.03846
G1 X111.506 Y174.667 E0.01032
G1 X111.382 Y173.933 E0.03472
G1 X111.334 Y173.451 E0.0226
G1 X111.308 Y172.994 E0.02135
G1 X111.3 Y172.433 E0.02617
G1 X111.301 Y104.093 E3.18788
G1 X111.311 Y103.428 E0.03102
G1 X111.36 Y102.773 E0.03064
G1 X111.489 Y102.129 E0.03064
G1 X111.696 Y101.505 E0.03067
G1 X111.976 Y100.911 E0.03063
G1 X112.327 Y100.355 E0.03067
G1 X112.742 Y99.846 E0.03064
G0 F12000 X113.135 Y100.014
G1 F4800 X113.604 Y99.59 E0.02949
G1 X114.124 Y99.23 E0.0295
G1 X114.684 Y98.938 E0.02946
G1 X115.277 Y98.719 E0.02949
G1 X115.893 Y98.576 E0.0295
G1 X116.569 Y98.511 E0.03168
G1 X117.03 Y98.5 E0.02151
G1 X182.665 Y98.501 E3.0617
G1 X183.363 Y98.511 E0.03256
G1 X183.993 Y98.56 E0.02948
G1 X184.612 Y98.688 E0.02949
G1 X185.21 Y98.893 E0.02949
G1 X185.777 Y99.172 E0.02948
G1 X186.305 Y99.52 E0.0295
G1 X186.784 Y99.932 E0.02947
G1 X187.207 Y100.402 E0.0295
G1 X187.568 Y100.921 E0.02949
G1 X187.861 Y101.481 E0.02948
G1 X188.08 Y102.074 E0.02949
G1 X188.223 Y102.69 E0.0295
G1 X188.289 Y103.369 E0.03182
G1 X188.3 Y103.83 E0.02151
G1 X188.299 Y172.346 E3.19609
G1 X188.285 Y173.235 E0.04147
G1 X188.235 Y173.865 E0.02948
G1 X188.173 Y174.214 E0.01653
G1 X188.066 Y174.708 E0.02358
G1 X187.79 Y175.584 E0.04284
G1 X187.678 Y175.851 E0.01351
G1 X187.313 Y176.557 E0.03707
G1 X187.152 Y176.816 E0.01423
G1 X186.724 Y177.405 E0.03396
G1 X186.587 Y177.567 E0.0099
G1 X186.089 Y178.077 E0.03325
G1 X185.768 Y178.362 E0.02002
G1 X185.065 Y178.884 E0.04084
G1 X184.824 Y179.032 E0.01319
G1 X184.123 Y179.389 E0.0367
G1 X183.829 Y179.511 E0.01485
G1 X183.109 Y179.748 E0.03536
G1 X182.902 Y179.799 E0.00994
G1 X182.204 Y179.919 E0.03304
G1 X181.714 Y179.968 E0.02297
G1 X181.288 Y179.992 E0.0199
G1 X180.733 Y180 E0.02589
G1 X178.421 Y179.999 E0.10785
G1 X177.551 Y179.984 E0.04059
G1 X176.921 Y179.933 E0.02948
G1 X176.577 Y179.871 E0.01631
G1 X175.74 Y179.684 E0.04001
G1 X173.364 Y179.046 E0.11476
G1 X170.779 Y178.428 E0.12398
G1 X168.156 Y177.88 E0.125
G1 X165.485 Y177.399 E0.1266
G1 X162.851 Y177.002 E0.12426
G1 X160.168 Y176.675 E0.12608
G1 X157.528 Y176.428 E0.12369
G1 X154.815 Y176.252 E0.12682
G1 X152.129 Y176.154 E0.12538
G1 X149.44 Y176.133 E0.12544
G1 X146.756 Y176.186 E0.12523
G1 X144.073 Y176.316 E0.1253
G1 X141.425 Y176.52 E0.12389
G1 X138.727 Y176.804 E0.12655
G1 X136.045 Y177.163 E0.12622
G1 X133.413 Y177.591 E0.12439
G1 X130.768 Y178.1 E0.12565
G1 X128.173 Y178.673 E0.12397
G1 X125.177 Y179.434 E0.14419
G1 X123.949 Y179.767 E0.05935
G1 X123.134 Y179.917 E0.03866
G1 X122.61 Y179.969 E0.02456
G1 X122.188 Y179.992 E0.01971
G1 X121.633 Y180 E0.02589
G1 X119.321 Y179.999 E0.10785
G1 X118.451 Y179.984 E0.04059
G1 X117.821 Y179.933 E0.02948
G1 X117.47 Y179.87 E0.01663
G1 X116.98 Y179.763 E0.0234
G1 X116.107 Y179.486 E0.04272
G1 X115.841 Y179.374 E0.01346
G1 X115.132 Y179.007 E0.03724
G1 X114.871 Y178.844 E0.01435
G1 X114.278 Y178.409 E0.03431
G1 X114.116 Y178.271 E0.00993
G1 X113.617 Y177.782 E0.03259
G1 X113.335 Y177.464 E0.01983
G1 X112.81 Y176.755 E0.04115
G1 X112.659 Y176.508 E0.0135
G1 X112.301 Y175.801 E0.03697
G1 X112.183 Y175.514 E0.01448
G1 X111.947 Y174.788 E0.03561
G1 X111.895 Y174.573 E0.01032
G1 X111.78 Y173.893 E0.03217
G1 X111.732 Y173.411 E0.0226
G1 X111.708 Y172.988 E0.01976
G1 X111.7 Y172.433 E0.02589
G1 X111.701 Y104.099 E3.1876
G1 X111.711 Y103.434 E0.03102
G1 X111.76 Y102.804 E0.02948
G1 X111.889 Y102.185 E0.0295
G1 X112.094 Y101.587 E0.02949
G1 X112.374 Y101.02 E0.0295
G1 X112.722 Y100.493 E0.02946
G1 X113.135 Y100.014 E0.0295
G0 F12000 X113.526 Y100.189
G1 F4800 X113.991 Y99.799 E0.02831
G1 X114.502 Y99.473 E0.02827
G1 X115.052 Y99.218 E0.02828
G1 X115.631 Y99.037 E0.0283
G1 X116.229 Y98.934 E0.02831
G1 X116.581 Y98.911 E0.01645
G1 X117.03 Y98.9 E0.02095
G1 X182.659 Y98.9 E3.06142
G1 X183.357 Y98.91 E0.03256
G1 X183.961 Y98.959 E0.02827
G1 X184.554 Y99.087 E0.0283
G1 X185.125 Y99.291 E0.02828
G1 X185.664 Y99.569 E0.02829
G1 X186.161 Y99.915 E0.02825
G1 X186.609 Y100.324 E0.0283
G1 X186.999 Y100.788 E0.02827
G1 X187.325 Y101.3 E0.02831
G1 X187.581 Y101.849 E0.02826
G1 X187.762 Y102.428 E0.0283
G1 X187.865 Y103.025 E0.02826
G1 X187.889 Y103.381 E0.01664
G1 X187.9 Y103.83 E0.02095
G1 X187.899 Y172.339 E3.19576
G1 X187.885 Y173.228 E0.04147
G1 X187.782 Y174.13 E0.04235
G1 X187.675 Y174.624 E0.02358
G1 X187.421 Y175.429 E0.03938
G1 X187.309 Y175.696 E0.01351
G1 X186.974 Y176.345 E0.03407
G1 X186.813 Y176.604 E0.01423
G1 X186.418 Y177.146 E0.03128
G1 X186.281 Y177.308 E0.0099
G1 X185.823 Y177.778 E0.03061
G1 X185.502 Y178.063 E0.02002
G1 X184.855 Y178.543 E0.03758
G1 X184.614 Y178.691 E0.01319
G1 X183.97 Y179.02 E0.03373
G1 X183.676 Y179.142 E0.01485
G1 X183.013 Y179.359 E0.03254
G1 X182.806 Y179.41 E0.00994
G1 X182.164 Y179.521 E0.03039
G1 X181.674 Y179.57 E0.02297
G1 X181.283 Y179.593 E0.01827
G1 X180.8 Y179.6 E0.02253
G1 X178.428 Y179.599 E0.11065
G1 X177.558 Y179.584 E0.04059
G1 X176.661 Y179.48 E0.04212
G1 X175.844 Y179.297 E0.03906
G1 X173.497 Y178.666 E0.11337
G1 X170.881 Y178.042 E0.12545
G1 X168.196 Y177.48 E0.12796
G1 X165.583 Y177.01 E0.12385
G1 X162.887 Y176.604 E0.12718
G1 X160.217 Y176.278 E0.12547
G1 X157.522 Y176.026 E0.12626
G1 X154.854 Y175.853 E0.12472
G1 X152.146 Y175.754 E0.12641
G1 X149.436 Y175.732 E0.12642
G1 X146.765 Y175.785 E0.12462
G1 X144.024 Y175.918 E0.12801
G1 X141.389 Y176.121 E0.12328
G1 X138.66 Y176.408 E0.128
G1 X136.004 Y176.764 E0.125
G1 X133.339 Y177.198 E0.12595
G1 X130.719 Y177.702 E0.12446
G1 X128.086 Y178.284 E0.12579
G1 X125.03 Y179.059 E0.14707
G1 X123.844 Y179.381 E0.05733
G1 X123.094 Y179.519 E0.03557
G1 X122.57 Y179.571 E0.02456
G1 X122.183 Y179.593 E0.01808
G1 X121.7 Y179.6 E0.02253
G1 X119.328 Y179.599 E0.11065
G1 X118.458 Y179.584 E0.04059
G1 X117.556 Y179.479 E0.04236
G1 X117.066 Y179.372 E0.0234
G1 X116.262 Y179.118 E0.03933
G1 X115.996 Y179.006 E0.01346
G1 X115.344 Y178.668 E0.03426
G1 X115.083 Y178.505 E0.01435
G1 X114.537 Y178.105 E0.03157
G1 X114.375 Y177.967 E0.00993
G1 X113.916 Y177.517 E0.02998
G1 X113.634 Y177.199 E0.01983
G1 X113.151 Y176.546 E0.03789
G1 X113 Y176.299 E0.0135
G1 X112.671 Y175.649 E0.03398
G1 X112.553 Y175.362 E0.01448
G1 X112.336 Y174.694 E0.03276
G1 X112.284 Y174.479 E0.01032
G1 X112.178 Y173.854 E0.02957
G1 X112.13 Y173.372 E0.0226
G1 X112.107 Y172.983 E0.01818
G1 X112.1 Y172.5 E0.02253
G1 X112.101 Y104.105 E3.19044
G1 X112.111 Y103.44 E0.03102
G1 X112.16 Y102.836 E0.02827
G1 X112.288 Y102.243 E0.0283
G1 X112.493 Y101.672 E0.0283
G1 X112.771 Y101.134 E0.02825
G1 X113.117 Y100.636 E0.02829
G1 X113.526 Y100.189 E0.02826
G0 F12000 X113.917 Y100.372
G1 F4800 X114.375 Y100.018 E0.027
G1 X114.878 Y99.73 E0.02704
G1 X115.415 Y99.514 E0.027
G1 X115.977 Y99.373 E0.02703
G1 X116.592 Y99.311 E0.02883
G1 X117.03 Y99.3 E0.02044
G1 X182.653 Y99.3 E3.06114
G1 X183.351 Y99.31 E0.03256
G1 X183.928 Y99.359 E0.02701
G1 X184.494 Y99.486 E0.02706
G1 X185.036 Y99.69 E0.02701
G1 X185.545 Y99.966 E0.02701
G1 X186.011 Y100.31 E0.02702
G1 X186.426 Y100.715 E0.02705
G1 X186.781 Y101.173 E0.02703
G1 X187.069 Y101.675 E0.027
G1 X187.286 Y102.212 E0.02702
G1 X187.426 Y102.774 E0.02702
G1 X187.489 Y103.392 E0.02898
G1 X187.5 Y103.83 E0.02044
G1 X187.499 Y172.333 E3.19548
G1 X187.485 Y173.222 E0.04147
G1 X187.391 Y174.045 E0.03864
G1 X187.284 Y174.539 E0.02358
G1 X187.052 Y175.275 E0.036
G1 X186.94 Y175.542 E0.01351
G1 X186.634 Y176.134 E0.03109
G1 X186.473 Y176.393 E0.01423
G1 X186.113 Y176.888 E0.02855
G1 X185.976 Y177.05 E0.0099
G1 X185.558 Y177.479 E0.02794
G1 X185.237 Y177.764 E0.02002
G1 X184.646 Y178.202 E0.03431
G1 X184.405 Y178.35 E0.01319
G1 X183.817 Y178.65 E0.03079
G1 X183.523 Y178.772 E0.01485
G1 X182.918 Y178.971 E0.02971
G1 X182.711 Y179.022 E0.00994
G1 X182.124 Y179.123 E0.02778
G1 X181.634 Y179.172 E0.02297
G1 X181.277 Y179.193 E0.01668
G1 X180.794 Y179.2 E0.02253
G1 X178.435 Y179.199 E0.11004
G1 X177.565 Y179.184 E0.04059
G1 X176.746 Y179.089 E0.03846
G1 X175.948 Y178.911 E0.03814
G1 X173.588 Y178.277 E0.11399
G1 X170.951 Y177.647 E0.12647
G1 X168.312 Y177.095 E0.12577
G1 X165.609 Y176.609 E0.12811
G1 X162.959 Y176.21 E0.12501
G1 X160.27 Y175.881 E0.12637
G1 X157.549 Y175.627 E0.12748
G1 X154.859 Y175.453 E0.12574
G1 X152.165 Y175.355 E0.12575
G1 X149.431 Y175.332 E0.12754
G1 X146.738 Y175.386 E0.12565
G1 X144.043 Y175.516 E0.12586
G1 X141.317 Y175.726 E0.12754
G1 X138.636 Y176.008 E0.12575
G1 X135.923 Y176.372 E0.12769
G1 X133.305 Y176.798 E0.12373
G1 X130.595 Y177.319 E0.12873
G1 X127.998 Y177.893 E0.12407
G1 X124.938 Y178.67 E0.14727
G1 X123.739 Y178.995 E0.05795
G1 X123.055 Y179.12 E0.03244
G1 X122.531 Y179.172 E0.02456
G1 X122.177 Y179.193 E0.01654
G1 X121.694 Y179.2 E0.02253
G1 X119.335 Y179.199 E0.11004
G1 X118.465 Y179.184 E0.04059
G1 X117.641 Y179.088 E0.0387
G1 X117.151 Y178.981 E0.0234
G1 X116.417 Y178.749 E0.03591
G1 X116.151 Y178.637 E0.01346
G1 X115.556 Y178.328 E0.03127
G1 X115.295 Y178.165 E0.01435
G1 X114.796 Y177.8 E0.02884
G1 X114.634 Y177.662 E0.00993
G1 X114.216 Y177.252 E0.02731
G1 X113.934 Y176.934 E0.01983
G1 X113.493 Y176.338 E0.03459
G1 X113.342 Y176.091 E0.0135
G1 X113.041 Y175.497 E0.03106
G1 X112.923 Y175.21 E0.01448
G1 X112.725 Y174.6 E0.02992
G1 X112.673 Y174.385 E0.01032
G1 X112.576 Y173.814 E0.02702
G1 X112.528 Y173.332 E0.0226
G1 X112.507 Y172.977 E0.01659
G1 X112.5 Y172.494 E0.02253
G1 X112.5 Y104.111 E3.18989
G1 X112.51 Y103.446 E0.03102
G1 X112.559 Y102.869 E0.02701
G1 X112.687 Y102.304 E0.02702
G1 X112.891 Y101.761 E0.02706
G1 X113.168 Y101.252 E0.02703
G1 X113.512 Y100.786 E0.02702
G1 X113.917 Y100.372 E0.02702
G10
G1 F600 Z0.7
;MESH:???????????????2.STL
G0 F12000 X121.049 Y115.963 Z0.7
;TYPE:WALL-INNER
G1 F600 Z0.3
G11
G1 F4800 X120.893 Y115.917 E0.00759
G1 X120.638 Y115.817 E0.01278
G1 X120.479 Y115.737 E0.0083
G1 X120.253 Y115.598 E0.01238
G1 X120.117 Y115.498 E0.00787
G1 X119.919 Y115.324 E0.0123
G1 X119.8 Y115.2 E0.00802
G1 X119.635 Y114.994 E0.01231
G1 X119.541 Y114.855 E0.00783
G1 X119.415 Y114.63 E0.01203
G1 X119.346 Y114.479 E0.00774
G1 X119.256 Y114.228 E0.01244
G1 X119.212 Y114.063 E0.00797
G1 X119.169 Y113.803 E0.01229
G1 X119.156 Y113.642 E0.00753
G1 X119.155 Y113.375 E0.01245
G1 X119.168 Y113.208 E0.00781
G1 X119.211 Y112.947 E0.01234
G1 X119.255 Y112.773 E0.00837
G1 X119.345 Y112.521 E0.01248
G1 X119.416 Y112.367 E0.00791
G1 X119.542 Y112.143 E0.01199
G1 X119.635 Y112.006 E0.00772
G1 X119.8 Y111.8 E0.01231
G1 X119.919 Y111.676 E0.00802
G1 X120.118 Y111.501 E0.01236
G1 X120.256 Y111.4 E0.00798
G1 X120.48 Y111.262 E0.01227
G1 X120.626 Y111.188 E0.00764
G1 X120.859 Y111.093 E0.01174
G1 X121.022 Y111.043 E0.00795
G1 X121.371 Y110.97 E0.01663
G1 X121.764 Y110.951 E0.01835
G1 X121.892 Y110.959 E0.00598
G1 X122.156 Y110.992 E0.01241
G1 X122.322 Y111.028 E0.00792
G1 X122.569 Y111.104 E0.01205
G1 X122.73 Y111.169 E0.0081
G1 X122.968 Y111.29 E0.01245
G1 X123.109 Y111.377 E0.00773
G1 X123.32 Y111.533 E0.01224
G1 X123.442 Y111.64 E0.00757
G1 X123.619 Y111.822 E0.01184
G1 X123.728 Y111.955 E0.00802
G1 X123.88 Y112.177 E0.01255
G1 X123.969 Y112.336 E0.0085
G1 X124.075 Y112.575 E0.0122
G1 X124.128 Y112.725 E0.00742
G1 X124.213 Y113.066 E0.01639
G1 X124.247 Y113.41 E0.01612
G1 X124.247 Y113.584 E0.00812
G1 X124.213 Y113.933 E0.01636
G1 X124.129 Y114.271 E0.01625
G1 X124.076 Y114.422 E0.00747
G1 X123.969 Y114.663 E0.0123
G1 X123.883 Y114.817 E0.00823
G1 X123.737 Y115.033 E0.01216
G1 X123.627 Y115.169 E0.00816
G1 X123.444 Y115.358 E0.01227
G1 X123.32 Y115.467 E0.0077
G1 X123.109 Y115.623 E0.01224
G1 X122.968 Y115.71 E0.00773
G1 X122.73 Y115.831 E0.01245
G1 X122.569 Y115.896 E0.0081
G1 X122.322 Y115.972 E0.01205
G1 X122.201 Y116.001 E0.0058
G1 X121.892 Y116.041 E0.01453
G1 X121.764 Y116.049 E0.00598
G1 X121.374 Y116.03 E0.01821
G1 X121.049 Y115.963 E0.01548
G0 F12000 X120.784 Y115.444
G1 F4800 X120.689 Y115.397 E0.00494
G1 X120.463 Y115.258 E0.01238
G1 X120.381 Y115.197 E0.00477
G1 X120.183 Y115.023 E0.0123
G1 X120.112 Y114.949 E0.00478
G1 X119.946 Y114.743 E0.01234
G1 X119.89 Y114.66 E0.00467
G1 X119.764 Y114.435 E0.01203
G1 X119.723 Y114.344 E0.00466
G1 X119.632 Y114.093 E0.01245
G1 X119.606 Y113.994 E0.00477
G1 X119.563 Y113.737 E0.01216
G1 X119.555 Y113.374 E0.01694
G1 X119.562 Y113.273 E0.00472
G1 X119.605 Y113.012 E0.01234
G1 X119.632 Y112.908 E0.00501
G1 X119.722 Y112.656 E0.01248
G1 X119.764 Y112.563 E0.00476
G1 X119.89 Y112.339 E0.01199
G1 X119.946 Y112.257 E0.00463
G1 X120.112 Y112.051 E0.01234
G1 X120.183 Y111.977 E0.00478
G1 X120.382 Y111.802 E0.01236
G1 X120.465 Y111.741 E0.0048
G1 X120.69 Y111.603 E0.01231
G1 X120.777 Y111.559 E0.00455
G1 X121.01 Y111.464 E0.01174
G1 X121.108 Y111.433 E0.00479
G1 X121.372 Y111.375 E0.01261
G1 X121.475 Y111.362 E0.00484
G1 X121.764 Y111.351 E0.01349
G1 X122.105 Y111.389 E0.01601
G1 X122.204 Y111.411 E0.00473
G1 X122.452 Y111.487 E0.0121
G1 X122.548 Y111.526 E0.00483
G1 X122.786 Y111.647 E0.01245
G1 X122.871 Y111.699 E0.00465
